;generated by ffslicer 1.4.0 07/26/16 19:01:41
;start gcode
M118 X15.21 Y15.08 Z23.00 T0
M140 S0
M104 S225 T0
M104 S0 T1
M107
G90
G28
M132 X Y Z A B
G1 Z50.00 F600
G161 X Y F3300
M6 T0
M907 X100 Y100 Z40 A100 B20
;preExtrude: 0.20
G1 Z.20 F400
M108 T0
;preExtruder0
G1 X15.21 Y14.92 F7200
G1 X-14.79 Y14.92 E4.3504 F1200
G1 X-14.79 Y-15.08 E8.7009
G1 X15.21 Y-15.08 E13.0513
G1 X15.21 Y14.92 E17.4017
;raft
;layer:0.40
G1 Z.40 F400
;support-start
;raft
G1 X6.38 Y-11.33 F4200
G1 X10.99 Y-6.96 E19.7046 F600
G1 X12.97 Y-.93 E22.0055
G1 X11.85 Y5.35 E24.3181
G1 X7.90 Y10.33 E26.6225
G1 X2.05 Y12.84 E28.9303
G1 X-4.27 Y12.28 E31.2305
G1 X-9.59 Y8.78 E33.5392
G1 X-12.61 Y3.18 E35.8458
G1 X-12.61 Y-3.19 E38.1551
G1 X-9.58 Y-8.79 E40.4635
G1 X-4.27 Y-12.28 E42.7671
G1 X.23 Y-13.00 E44.4193
G1 X6.38 Y-11.33 E46.7296
G1 X1.06 Y-11.74 F4200
G1 X11.94 Y-.85 E52.3104 F600
G1 X11.09 Y3.95 E54.0776
G1 X-4.07 Y-11.21 E61.8502
G1 X-7.49 Y-8.97 E63.3323
G1 X8.92 Y7.44 E71.7458
G1 X7.27 Y9.51 E72.7055
G1 X5.92 Y10.09 E73.2382
G1 X-10.03 Y-5.85 E81.4132
G1 X-11.61 Y-2.94 E82.6137
G1 X-11.60 Y-1.77 E83.0378
G1 X1.96 Y11.79 E89.9901
G1 X1.88 Y11.82 E90.0211
G1 X-3.93 Y11.31 E92.1355
G1 X-4.67 Y10.82 E92.4572
G1 X-10.49 Y5.00 E95.4412
;support-end
;layer:0.20
G1 Z.60 F400
;support-start
;raft
M104 S220 T0
G1 X6.38 Y-11.33 F7200
G1 X10.99 Y-6.96 E95.6715 F3600
G1 X12.97 Y-.93 E95.9016
G1 X11.85 Y5.35 E96.1328
G1 X7.90 Y10.33 E96.3633
G1 X2.05 Y12.84 E96.5940
G1 X-4.27 Y12.28 E96.8241
G1 X-9.59 Y8.78 E97.0549
G1 X-12.61 Y3.18 E97.2856
G1 X-12.61 Y-3.19 E97.5165
G1 X-9.58 Y-8.79 E97.7474
G1 X-4.27 Y-12.28 E97.9777
G1 X.23 Y-13.00 E98.1430
G1 X6.38 Y-11.33 E98.3740
G1 X-7.23 Y-10.09 F7200
G1 X-10.31 Y-7.02 E98.5316 F3600
G1 X-12.41 Y-3.14 E98.6916
G1 X-12.40 Y-3.04 E98.6952
G1 X-3.19 Y-12.25 E99.1674
G1 X-.95 Y-12.61 E99.2497
G1 X-12.40 Y-1.15 E99.8370
G1 X-12.40 Y.73 E99.9051
G1 X.93 Y-12.60 E100.5886
G1 X2.41 Y-12.20 E100.6441
G1 X-12.41 Y2.62 E101.4040
G1 X-12.41 Y3.13 E101.4225
G1 X-11.92 Y4.02 E101.4593
G1 X3.90 Y-11.80 E102.2704
G1 X5.38 Y-11.39 E102.3261
G1 X-11.26 Y5.25 E103.1792
G1 X-10.60 Y6.47 E103.2295
G1 X6.66 Y-10.79 E104.1144
G1 X7.62 Y-9.87 E104.1626
G1 X-9.94 Y7.70 E105.0632
G1 X-9.44 Y8.64 E105.1018
G1 X-9.17 Y8.81 E105.1134
G1 X8.59 Y-8.95 E106.0239
G1 X9.56 Y-8.03 E106.0724
G1 X-8.04 Y9.56 E106.9745
G1 X-6.90 Y10.31 E107.0240
G1 X10.53 Y-7.12 E107.9176
G1 X10.81 Y-6.85 E107.9317
G1 X11.14 Y-5.84 E107.9702
G1 X-5.76 Y11.06 E108.8367
G1 X-4.63 Y11.81 E108.8859
G1 X11.61 Y-4.43 E109.7185
G1 X12.07 Y-3.01 E109.7726
G1 X-3.12 Y12.18 E110.5514
G1 X-1.38 Y12.34 E110.6148
G1 X12.54 Y-1.59 E111.3287
G1 X12.77 Y-.91 E111.3547
G1 X12.55 Y.29 E111.3990
G1 X.35 Y12.49 E112.0245
G1 X2.01 Y12.64 E112.0849
G1 X2.14 Y12.58 E112.0901
G1 X12.14 Y2.58 E112.6028
G1 X11.73 Y4.87 E112.6871
G1 X5.44 Y11.17 E113.0099
;percent
;support-end
;layer:0.20
G1 Z.80 F400
;support-start
;raft
G1 X6.38 Y-11.33 F7200
G1 X10.99 Y-6.96 E113.2402 F4800
G1 X12.97 Y-.93 E113.4703
G1 X11.85 Y5.35 E113.7015
G1 X7.90 Y10.33 E113.9320
G1 X2.05 Y12.84 E114.1627
G1 X-4.27 Y12.28 E114.3928
G1 X-9.59 Y8.78 E114.6236
G1 X-12.61 Y3.18 E114.8543
G1 X-12.61 Y-3.19 E115.0852
G1 X-9.58 Y-8.79 E115.3161
G1 X-4.27 Y-12.28 E115.5464
G1 X.23 Y-13.00 E115.7116
G1 X6.38 Y-11.33 E115.9427
G1 X5.79 Y-11.28 F7200
G1 X11.10 Y-5.97 E116.2149 F4800
G1 X11.39 Y-5.09 E116.2485
G1 X4.97 Y-11.50 E116.5774
G1 X4.16 Y-11.72 E116.6078
G1 X11.68 Y-4.20 E116.9934
G1 X11.97 Y-3.31 E117.0273
G1 X3.34 Y-11.95 E117.4701
G1 X2.52 Y-12.17 E117.5008
G1 X12.27 Y-2.42 E118.0007
G1 X12.56 Y-1.54 E118.0343
G1 X1.70 Y-12.39 E118.5908
G1 X.89 Y-12.61 E118.6213
G1 X12.74 Y-.76 E119.2288
G1 X12.65 Y-.26 E119.2473
G1 X.13 Y-12.78 E119.8892
G1 X-.39 Y-12.70 E119.9082
G1 X12.56 Y.25 E120.5722
G1 X12.47 Y.75 E120.5906
G1 X-.90 Y-12.62 E121.2761
G1 X-1.42 Y-12.53 E121.2952
G1 X12.38 Y1.26 E122.0025
G1 X12.29 Y1.76 E122.0209
G1 X-1.93 Y-12.45 E122.7497
G1 X-2.44 Y-12.37 E122.7684
G1 X12.20 Y2.27 E123.5190
G1 X12.11 Y2.77 E123.5375
G1 X-2.96 Y-12.29 E124.3098
G1 X-3.47 Y-12.21 E124.3286
G1 X12.02 Y3.28 E125.1227
G1 X11.93 Y3.79 E125.1415
G1 X-3.98 Y-12.12 E125.9572
G1 X-4.20 Y-12.09 E125.9653
G1 X-4.41 Y-11.95 E125.9744
G1 X11.84 Y4.29 E126.8073
G1 X11.75 Y4.80 E126.8261
G1 X-4.77 Y-11.72 E127.6731
G1 X-5.12 Y-11.48 E127.6884
G1 X11.64 Y5.29 E128.5480
G1 X11.38 Y5.62 E128.5632
G1 X-5.48 Y-11.24 E129.4276
G1 X-5.84 Y-11.01 E129.4431
G1 X11.12 Y5.95 E130.3127
G1 X10.85 Y6.28 E130.3281
G1 X-6.20 Y-10.77 E131.2023
G1 X-6.56 Y-10.53 E131.2180
G1 X10.59 Y6.62 E132.0973
G1 X10.33 Y6.95 E132.1125
G1 X-6.92 Y-10.30 E132.9969
G1 X-7.28 Y-10.06 E133.0126
G1 X10.06 Y7.28 E133.9016
G1 X9.80 Y7.61 E133.9168
G1 X-7.64 Y-9.83 E134.8110
G1 X-8.00 Y-9.59 E134.8267
G1 X9.54 Y7.94 E135.7257
G1 X9.27 Y8.27 E135.7412
G1 X-8.36 Y-9.35 E136.6448
G1 X-8.72 Y-9.12 E136.6603
G1 X9.01 Y8.61 E137.5693
G1 X8.75 Y8.94 E137.5846
G1 X-9.07 Y-8.88 E138.4982
G1 X-9.43 Y-8.65 E138.5137
G1 X-9.43 Y-8.64 E138.5140
G1 X8.48 Y9.27 E139.4323
G1 X8.22 Y9.60 E139.4475
G1 X-9.64 Y-8.25 E140.3630
G1 X-9.85 Y-7.87 E140.3787
G1 X7.95 Y9.93 E141.2913
G1 X7.77 Y10.17 E141.3022
G1 X7.65 Y10.22 E141.3069
G1 X-10.06 Y-7.48 E142.2146
G1 X-10.27 Y-7.10 E142.2304
G1 X7.23 Y10.40 E143.1276
G1 X6.81 Y10.58 E143.1442
G1 X-10.48 Y-6.71 E144.0306
G1 X-10.68 Y-6.32 E144.0465
G1 X6.40 Y10.76 E144.9222
G1 X5.98 Y10.94 E144.9388
G1 X-10.89 Y-5.94 E145.8040
G1 X-11.10 Y-5.55 E145.8200
G1 X5.56 Y11.11 E146.6742
G1 X5.14 Y11.29 E146.6908
G1 X-11.31 Y-5.16 E147.5341
G1 X-11.52 Y-4.78 E147.5499
G1 X4.73 Y11.47 E148.3830
G1 X4.31 Y11.65 E148.3996
G1 X-11.73 Y-4.39 E149.2220
G1 X-11.94 Y-4.00 E149.2380
G1 X3.89 Y11.83 E150.0496
G1 X3.48 Y12.01 E150.0659
G1 X-12.15 Y-3.62 E150.8672
G1 X-12.35 Y-3.23 E150.8831
G1 X3.06 Y12.19 E151.6734
G1 X2.64 Y12.36 E151.6899
G1 X-12.40 Y-2.68 E152.4610
G1 X-12.40 Y-2.09 E152.4824
G1 X2.23 Y12.54 E153.2324
G1 X2.01 Y12.64 E153.2412
G1 X1.70 Y12.61 E153.2525
G1 X-12.40 Y-1.49 E153.9754
G1 X-12.40 Y-.90 E153.9968
G1 X1.04 Y12.55 E154.6861
G1 X.39 Y12.49 E154.7098
G1 X-12.40 Y-.30 E155.3655
G1 X-12.40 Y.29 E155.3869
G1 X-.26 Y12.44 E156.0096
G1 X-.91 Y12.38 E156.0333
G1 X-12.40 Y.89 E156.6224
G1 X-12.41 Y1.48 E156.6438
G1 X-1.57 Y12.32 E157.1995
G1 X-2.22 Y12.26 E157.2232
G1 X-12.41 Y2.08 E157.7454
G1 X-12.41 Y2.67 E157.7668
G1 X-2.88 Y12.20 E158.2554
G1 X-3.53 Y12.15 E158.2790
G1 X-12.25 Y3.43 E158.7261
G1 X-11.55 Y4.72 E158.7793
G1 X-4.18 Y12.09 E159.1572
G1 X-4.20 Y12.09 E159.1579
G1 X-5.89 Y10.98 E159.2312
G1 X-10.85 Y6.01 E159.4858
G1 X-10.16 Y7.30 E159.5388
G1 X-7.63 Y9.83 E159.6685
G1 X-9.38 Y8.68 E159.7444
G1 X-9.46 Y8.59 E159.7488
;percent
;support-end
;layer:0.20
G1 Z1.00 F400
;support-start
;raft
G1 X6.38 Y-11.33 F7200
G1 X10.99 Y-6.96 E159.9791 F4800
G1 X12.97 Y-.93 E160.2092
G1 X11.85 Y5.35 E160.4404
G1 X7.90 Y10.33 E160.6709
G1 X2.05 Y12.84 E160.9016
G1 X-4.27 Y12.28 E161.1317
G1 X-9.59 Y8.78 E161.3625
G1 X-12.61 Y3.18 E161.5932
G1 X-12.61 Y-3.19 E161.8241
G1 X-9.58 Y-8.79 E162.0549
G1 X-4.27 Y-12.28 E162.2853
G1 X.23 Y-13.00 E162.4505
G1 X6.38 Y-11.33 E162.6816
G1 X5.79 Y-11.28 F7200
G1 X11.10 Y-5.97 E162.9538 F4800
G1 X11.39 Y-5.09 E162.9874
G1 X4.97 Y-11.50 E163.3163
G1 X4.16 Y-11.72 E163.3467
G1 X11.68 Y-4.20 E163.7323
G1 X11.97 Y-3.31 E163.7662
G1 X3.34 Y-11.95 E164.2089
G1 X2.52 Y-12.17 E164.2397
G1 X12.27 Y-2.42 E164.7396
G1 X12.56 Y-1.54 E164.7732
G1 X1.70 Y-12.39 E165.3297
G1 X.89 Y-12.61 E165.3601
G1 X12.74 Y-.76 E165.9677
G1 X12.65 Y-.26 E165.9861
G1 X.13 Y-12.78 E166.6280
G1 X-.39 Y-12.70 E166.6471
G1 X12.56 Y.25 E167.3111
G1 X12.47 Y.75 E167.3295
G1 X-.90 Y-12.62 E168.0150
G1 X-1.42 Y-12.53 E168.0341
G1 X12.38 Y1.26 E168.7414
G1 X12.29 Y1.76 E168.7598
G1 X-1.93 Y-12.45 E169.4886
G1 X-2.44 Y-12.37 E169.5073
G1 X12.20 Y2.27 E170.2579
G1 X12.11 Y2.77 E170.2763
G1 X-2.96 Y-12.29 E171.0487
G1 X-3.47 Y-12.21 E171.0674
G1 X12.02 Y3.28 E171.8616
G1 X11.93 Y3.79 E171.8804
G1 X-3.98 Y-12.12 E172.6961
G1 X-4.20 Y-12.09 E172.7041
G1 X-4.41 Y-11.95 E172.7133
G1 X11.84 Y4.29 E173.5462
G1 X11.75 Y4.80 E173.5650
G1 X-4.77 Y-11.72 E174.4119
G1 X-5.12 Y-11.48 E174.4273
G1 X11.64 Y5.29 E175.2869
G1 X11.38 Y5.62 E175.3021
G1 X-5.48 Y-11.24 E176.1665
G1 X-5.84 Y-11.01 E176.1820
G1 X11.12 Y5.95 E177.0516
G1 X10.85 Y6.28 E177.0670
G1 X-6.20 Y-10.77 E177.9412
G1 X-6.56 Y-10.53 E177.9569
G1 X10.59 Y6.62 E178.8361
G1 X10.33 Y6.95 E178.8514
G1 X-6.92 Y-10.30 E179.7358
G1 X-7.28 Y-10.06 E179.7515
G1 X10.06 Y7.28 E180.6405
G1 X9.80 Y7.61 E180.6557
G1 X-7.64 Y-9.83 E181.5499
G1 X-8.00 Y-9.59 E181.5656
G1 X9.54 Y7.94 E182.4646
G1 X9.27 Y8.27 E182.4801
G1 X-8.36 Y-9.35 E183.3837
G1 X-8.72 Y-9.12 E183.3992
G1 X9.01 Y8.61 E184.3082
G1 X8.75 Y8.94 E184.3234
G1 X-9.07 Y-8.88 E185.2371
G1 X-9.43 Y-8.65 E185.2526
G1 X-9.43 Y-8.64 E185.2529
G1 X8.48 Y9.27 E186.1712
G1 X8.22 Y9.60 E186.1864
G1 X-9.64 Y-8.25 E187.1018
G1 X-9.85 Y-7.87 E187.1176
G1 X7.95 Y9.93 E188.0302
G1 X7.77 Y10.17 E188.0411
G1 X7.65 Y10.22 E188.0458
G1 X-10.06 Y-7.48 E188.9535
G1 X-10.27 Y-7.10 E188.9693
G1 X7.23 Y10.40 E189.8665
G1 X6.81 Y10.58 E189.8830
G1 X-10.48 Y-6.71 E190.7695
G1 X-10.68 Y-6.32 E190.7854
G1 X6.40 Y10.76 E191.6611
G1 X5.98 Y10.94 E191.6777
G1 X-10.89 Y-5.94 E192.5429
G1 X-11.10 Y-5.55 E192.5589
G1 X5.56 Y11.11 E193.4131
G1 X5.14 Y11.29 E193.4296
G1 X-11.31 Y-5.16 E194.2730
G1 X-11.52 Y-4.78 E194.2888
G1 X4.73 Y11.47 E195.1219
G1 X4.31 Y11.65 E195.1385
G1 X-11.73 Y-4.39 E195.9609
G1 X-11.94 Y-4.00 E195.9769
G1 X3.89 Y11.83 E196.7885
G1 X3.48 Y12.01 E196.8048
G1 X-12.15 Y-3.62 E197.6061
G1 X-12.35 Y-3.23 E197.6220
G1 X3.06 Y12.19 E198.4123
G1 X2.64 Y12.36 E198.4288
G1 X-12.40 Y-2.68 E199.1999
G1 X-12.40 Y-2.09 E199.2213
G1 X2.23 Y12.54 E199.9713
G1 X2.01 Y12.64 E199.9801
G1 X1.70 Y12.61 E199.9914
G1 X-12.40 Y-1.49 E200.7143
G1 X-12.40 Y-.90 E200.7357
G1 X1.04 Y12.55 E201.4250
G1 X.39 Y12.49 E201.4487
G1 X-12.40 Y-.30 E202.1044
G1 X-12.40 Y.29 E202.1258
G1 X-.26 Y12.44 E202.7485
G1 X-.91 Y12.38 E202.7722
G1 X-12.40 Y.89 E203.3613
G1 X-12.41 Y1.48 E203.3827
G1 X-1.57 Y12.32 E203.9384
G1 X-2.22 Y12.26 E203.9621
G1 X-12.41 Y2.08 E204.4843
G1 X-12.41 Y2.67 E204.5057
G1 X-2.88 Y12.20 E204.9943
G1 X-3.53 Y12.15 E205.0179
G1 X-12.25 Y3.43 E205.4650
G1 X-11.55 Y4.72 E205.5182
G1 X-4.18 Y12.09 E205.8961
G1 X-4.20 Y12.09 E205.8968
G1 X-5.89 Y10.98 E205.9701
G1 X-10.85 Y6.01 E206.2246
G1 X-10.16 Y7.30 E206.2777
G1 X-7.63 Y9.83 E206.4074
G1 X-9.38 Y8.68 E206.4833
G1 X-9.46 Y8.59 E206.4877
;percent
;support-end
;layer:0.20
G1 Z1.20 F400
;shell
G1 Z1.45
G1 E205.1877 F1800
G1 Z1.65 F400
G1 X-5.80 Y.00 F7200
G1 Z1.45 F400
G1 E206.4877 F1800
G1 X-5.80 Y.00 F7200
G1 X-5.78 Y.52 E206.5065 F1500
G1 X-5.71 Y1.00 E206.5241
G1 X-5.70 Y1.07 E206.5267 F1872
G1 X-5.59 Y1.56 E206.5449
G1 X-5.45 Y1.96 E206.5602
G1 X-5.42 Y2.08 E206.5647 F2244
G1 X-5.21 Y2.54 E206.5831
G1 X-5.03 Y2.87 E206.5967
G1 X-4.95 Y3.03 E206.6032 F2616
G1 X-4.66 Y3.46 E206.6220
G1 X-4.47 Y3.69 E206.6328
G1 X-4.33 Y3.86 E206.6408 F2988
G1 X-3.97 Y4.23 E206.6595
G1 X-3.77 Y4.40 E206.6690
G1 X-3.56 Y4.58 E206.6790 F3360
G1 X-3.11 Y4.90 E206.6990
G1 X-2.67 Y5.15 E206.7174
G1 X-2.18 Y5.38 E206.7370
G1 X-1.70 Y5.55 E206.7555
G1 X-1.16 Y5.68 E206.7756
G1 X-.67 Y5.76 E206.7936
G1 X-.12 Y5.80 E206.8136
G1 X.41 Y5.79 E206.8328
G1 X.92 Y5.73 E206.8514
G1 X1.44 Y5.62 E206.8707
G1 X1.94 Y5.47 E206.8896
G1 X2.45 Y5.26 E206.9096
G1 X2.90 Y5.03 E206.9279
G1 X3.35 Y4.73 E206.9475
G1 X3.78 Y4.40 E206.9672
G1 X4.16 Y4.05 E206.9859
G1 X4.50 Y3.67 E207.0044
G1 X4.82 Y3.23 E207.0241
G1 X5.09 Y2.78 E207.0432
G1 X5.32 Y2.31 E207.0621
G1 X5.51 Y1.81 E207.0815
G1 X5.65 Y1.31 E207.1003
G1 X5.75 Y.77 E207.1203
G1 X5.80 Y.27 E207.1385
G1 X5.80 Y-.28 E207.1584
G1 X5.75 Y-.79 E207.1770
G1 X5.65 Y-1.33 E207.1969
G1 X5.51 Y-1.81 E207.2150
G1 X5.31 Y-2.33 E207.2352
G1 X5.09 Y-2.78 E207.2534
G1 X4.80 Y-3.26 E207.2737
G1 X4.49 Y-3.68 E207.2926
G1 X4.15 Y-4.05 E207.3108
G1 X3.76 Y-4.41 E207.3301
G1 X3.33 Y-4.75 E207.3500
G1 X2.89 Y-5.03 E207.3689
G1 X2.44 Y-5.27 E207.3874
G1 X1.94 Y-5.46 E207.4067
G1 X1.43 Y-5.62 E207.4261
G1 X.91 Y-5.73 E207.4454
G1 X.40 Y-5.79 E207.4640
G1 X-.13 Y-5.80 E207.4832
G1 X-.68 Y-5.76 E207.5032
G1 X-1.17 Y-5.68 E207.5212
G1 X-1.70 Y-5.55 E207.5410
G1 X-2.20 Y-5.36 E207.5604
G1 X-2.67 Y-5.15 E207.5790
G1 X-3.13 Y-4.88 E207.5984
G1 X-3.56 Y-4.58 E207.6174
G1 X-3.96 Y-4.24 E207.6364
G1 X-4.33 Y-3.85 E207.6559
G1 X-4.67 Y-3.44 E207.6752
G1 X-4.96 Y-3.02 E207.6937
G1 X-5.21 Y-2.55 E207.7130
G1 X-5.42 Y-2.05 E207.7327
G1 X-5.59 Y-1.54 E207.7521
G1 X-5.70 Y-1.05 E207.7703
G1 X-5.78 Y-.52 E207.7898
G1 X-5.80 Y.00 E207.8086
G1 E206.5086 F1800
G1 X-5.40 Y.00 F7200
G1 E207.8086 F1800
G1 X-5.40 Y.00 F7200
G1 X-5.38 Y.49 E207.8264 F3360
G1 X-5.31 Y.99 E207.8447
G1 X-5.20 Y1.45 E207.8619
G1 X-5.04 Y1.94 E207.8806
G1 X-4.85 Y2.37 E207.8976
G1 X-4.61 Y2.82 E207.9161
G1 X-4.34 Y3.22 E207.9336
G1 X-4.03 Y3.60 E207.9514
G1 X-3.69 Y3.94 E207.9688
G1 X-3.31 Y4.26 E207.9868
G1 X-2.90 Y4.56 E208.0052
G1 X-2.48 Y4.80 E208.0228
G1 X-2.03 Y5.00 E208.0406
G1 X-1.58 Y5.16 E208.0579
G1 X-1.08 Y5.29 E208.0767
G1 X-.62 Y5.36 E208.0936
G1 X-.11 Y5.40 E208.1121
G1 X.38 Y5.39 E208.1299
G1 X.86 Y5.33 E208.1474
G1 X1.34 Y5.23 E208.1652
G1 X1.81 Y5.09 E208.1830
G1 X2.27 Y4.90 E208.2010
G1 X2.70 Y4.68 E208.2185
G1 X3.12 Y4.41 E208.2366
G1 X3.51 Y4.10 E208.2547
G1 X3.86 Y3.77 E208.2721
G1 X4.19 Y3.41 E208.2898
G1 X4.49 Y3.00 E208.3082
G1 X4.74 Y2.59 E208.3256
G1 X4.95 Y2.15 E208.3433
G1 X5.13 Y1.68 E208.3616
G1 X5.26 Y1.22 E208.3789
G1 X5.35 Y.72 E208.3973
G1 X5.40 Y.24 E208.4148
G1 X5.40 Y-.25 E208.4326
G1 X5.35 Y-.74 E208.4504
G1 X5.26 Y-1.23 E208.4685
G1 X5.13 Y-1.69 E208.4858
G1 X4.95 Y-2.17 E208.5044
G1 X4.74 Y-2.60 E208.5218
G1 X4.47 Y-3.03 E208.5402
G1 X4.18 Y-3.42 E208.5578
G1 X3.86 Y-3.78 E208.5753
G1 X3.50 Y-4.11 E208.5930
G1 X3.10 Y-4.42 E208.6113
G1 X2.70 Y-4.68 E208.6286
G1 X2.26 Y-4.90 E208.6464
G1 X1.80 Y-5.09 E208.6645
G1 X1.59 Y-5.15 E208.6724
G1 X1.33 Y-5.23 E208.6823 F2832
G1 X.85 Y-5.33 E208.7000
G1 X.37 Y-5.39 E208.7176
G1 X-.12 Y-5.40 E208.7353
G1 X-.38 Y-5.38 E208.7448
G1 X-.63 Y-5.36 E208.7539 F2304
G1 X-1.10 Y-5.29 E208.7711
G1 X-1.58 Y-5.16 E208.7891
G1 X-2.05 Y-5.00 E208.8072
G1 X-2.30 Y-4.88 E208.8172
G1 X-2.49 Y-4.79 E208.8248 F1776
G1 X-2.92 Y-4.55 E208.8427
G1 X-3.31 Y-4.26 E208.8603
G1 X-3.69 Y-3.94 E208.8783
G1 X-3.91 Y-3.72 E208.8896
G1 X-4.03 Y-3.59 E208.8960 F1248
G1 X-4.35 Y-3.20 E208.9143
G1 X-4.62 Y-2.80 E208.9318
G1 X-4.85 Y-2.37 E208.9495
G1 X-4.99 Y-2.05 E208.9621
G1 X-5.05 Y-1.92 E208.9673 F720
G1 X-5.20 Y-1.44 E208.9856
G1 X-5.31 Y-.98 E209.0027
G1 X-5.38 Y-.49 E209.0206
G1 X-5.39 Y-.10 E209.0348
G1 X-5.00 Y.01 E209.0348 F300
G1 X-4.98 Y.46 E209.0511 F2400
G1 X-4.92 Y.91 E209.0676
G1 X-4.81 Y1.35 E209.0840
G1 X-4.67 Y1.79 E209.1007
G1 X-4.49 Y2.20 E209.1170
G1 X-4.27 Y2.61 E209.1338
G1 X-4.02 Y2.98 E209.1500
G1 X-3.73 Y3.33 E209.1665
G1 X-3.41 Y3.66 E209.1832
G1 X-3.07 Y3.95 E209.1994
G1 X-2.69 Y4.22 E209.2163
G1 X-2.30 Y4.44 E209.2325
G1 X-1.88 Y4.63 E209.2492
G1 X-1.46 Y4.78 E209.2654
G1 X-1.01 Y4.90 E209.2823
G1 X-.57 Y4.97 E209.2985
G1 X-.11 Y5.00 E209.3152
G1 X.35 Y4.99 E209.3319
G1 X.80 Y4.94 E209.3483
G1 X1.24 Y4.84 E209.3646
G1 X1.68 Y4.71 E209.3813
G1 X2.10 Y4.54 E209.3977
G1 X2.51 Y4.33 E209.4144
G1 X2.89 Y4.08 E209.4309
G1 X3.25 Y3.80 E209.4474
G1 X3.58 Y3.49 E209.4638
G1 X3.88 Y3.15 E209.4803
G1 X4.15 Y2.78 E209.4969
G1 X4.39 Y2.40 E209.5132
G1 X4.59 Y1.99 E209.5297
G1 X4.75 Y1.56 E209.5464
G1 X4.87 Y1.13 E209.5626
G1 X4.95 Y.67 E209.5795
G1 X5.00 Y.22 E209.5959
G1 X5.00 Y-.23 E209.6122
G1 X4.95 Y-.69 E209.6290
G1 X4.87 Y-1.14 E209.6456
G1 X4.75 Y-1.57 E209.6617
G1 X4.58 Y-2.00 E209.6785
G1 X4.38 Y-2.41 E209.6950
G1 X4.15 Y-2.80 E209.7115
G1 X3.87 Y-3.16 E209.7280
G1 X3.57 Y-3.50 E209.7444
G1 X3.24 Y-3.81 E209.7609
G1 X2.88 Y-4.09 E209.7774
G1 X2.50 Y-4.33 E209.7937
G1 X2.09 Y-4.54 E209.8104
G1 X1.67 Y-4.71 E209.8268
G1 X1.24 Y-4.84 E209.8431
G1 X.79 Y-4.94 E209.8598
G1 X.34 Y-4.99 E209.8762
G1 X-.12 Y-5.00 E209.8929
G1 X-.58 Y-4.97 E209.9096
G1 X-1.02 Y-4.89 E209.9259
G1 X-1.47 Y-4.78 E209.9427
