;generated by ffslicer 1.4.0 08/06/16 16:42:08
;start gcode
M118 X21.35 Y21.15 Z13.00 T0
M140 S0
M104 S220 T0
M104 S0 T1
M107
G90
G28
M132 X Y Z A B
G1 Z50.00 F600
G161 X Y F3300
M6 T0
M907 X100 Y100 Z40 A100 B20
;preExtrude: 0.20
G1 Z.20 F400
M108 T0
;preExtruder0
G1 X21.35 Y-3.42 F7200
G1 X21.35 Y5.72 E1.3254 F1200
G1 X5.92 Y21.15 E4.4898
G1 X-3.22 Y21.15 E5.8153
G1 X-18.65 Y5.72 E8.9797
G1 X-18.65 Y-3.42 E10.3051
G1 X-3.22 Y-18.85 E13.4695
G1 X5.92 Y-18.85 E14.7949
G1 X18.63 Y-6.14 E17.4015
;raft
;layer:0.25
G1 Z.25 F400
;shell
G1 E16.1015 F1800
G1 X-13.05 Y-.75 F4200
G1 E17.4015 F1800
G1 X-13.05 Y-.75 F4200
G1 X-12.05 Y-.75 E17.4468 F1200
G1 X-11.05 Y-.75 E17.4921
G1 X-10.05 Y-.75 E17.5374
G1 X-9.05 Y-.75 E17.5828
G1 X-8.05 Y-.75 E17.6281
G1 X-.55 Y-.75 E17.9680
G1 X-.55 Y-13.25 E18.5344
G1 X3.25 Y-13.25 E18.7066
G1 X3.25 Y-.75 E19.2731
G1 X15.75 Y-.75 E19.8395
G1 X15.75 Y3.05 E20.0118
G1 X3.25 Y3.05 E20.5782
G1 X3.25 Y15.55 E21.1447
G1 X-.55 Y15.55 E21.3169
G1 X-.55 Y6.47 E21.7284
G1 X-.36 Y5.98 E21.7522
G1 X-.55 Y5.81 E21.7637
G1 X-.55 Y3.05 E21.8888
G1 X-6.75 Y3.05 E22.1698
G1 X-8.75 Y3.05 E22.2604
G1 X-10.75 Y3.05 E22.3510
G1 X-12.75 Y3.05 E22.4417
G1 X-13.05 Y3.05 E22.4553
G1 X-13.05 Y1.35 E22.5323
G1 X-13.05 Y-.65 E22.6229 F720
G1 X-13.45 Y-1.15 E22.6229 F300
G1 X-.95 Y-1.15 E23.1894 F1200
G1 X-.95 Y-13.65 E23.7559
G1 X3.65 Y-13.65 E23.9643
G1 X3.65 Y-1.15 E24.5308
G1 X16.15 Y-1.15 E25.0972
G1 X16.15 Y3.45 E25.3057
G1 X3.65 Y3.45 E25.8722
G1 X3.65 Y15.95 E26.4386
G1 X-.95 Y15.95 E26.6471
G1 X-.95 Y6.39 E27.0803
G1 X-.84 Y6.09 E27.0948
G1 X-.95 Y5.99 E27.1015
G1 X-.95 Y3.45 E27.2166
G1 X-13.45 Y3.45 E27.7831
G1 X-13.45 Y-1.05 E27.9870
G1 X-13.05 Y-.65 E27.9955 F300
;infill
G1 E26.6955 F1800
G1 X-12.71 Y2.70 F4200
G1 E27.9955 F1800
G1 X-12.71 Y2.70 F4200
G1 X-12.70 Y2.71 E27.9962 F1200
G1 X-12.14 Y2.71 E28.0216
G1 X-12.71 Y2.14 E28.0581
G1 X-12.71 Y1.57 E28.0839
G1 X-11.57 Y2.71 E28.1570
G1 X-11.00 Y2.71 E28.1828
G1 X-12.71 Y1.01 E28.2921
G1 X-12.71 Y.44 E28.3179
G1 X-10.44 Y2.71 E28.4634
G1 X-9.87 Y2.71 E28.4892
G1 X-12.71 Y-.12 E28.6709
G1 X-12.71 Y-.41 E28.6840
G1 X-12.43 Y-.41 E28.6967
G1 X-9.31 Y2.71 E28.8967
G1 X-8.74 Y2.71 E28.9225
G1 X-11.86 Y-.41 E29.1225
G1 X-11.29 Y-.41 E29.1483
G1 X-8.18 Y2.71 E29.3479
G1 X-7.61 Y2.71 E29.3738
G1 X-10.73 Y-.41 E29.5737
G1 X-10.16 Y-.41 E29.5996
G1 X-7.04 Y2.71 E29.7995
G1 X-6.48 Y2.71 E29.8249
G1 X-9.60 Y-.41 E30.0248
G1 X-9.03 Y-.41 E30.0507
G1 X-5.91 Y2.71 E30.2506
G1 X-5.35 Y2.71 E30.2760
G1 X-8.47 Y-.41 E30.4759
G1 X-7.90 Y-.41 E30.5018
G1 X-4.78 Y2.71 E30.7017
G1 X-4.22 Y2.71 E30.7271
G1 X-7.33 Y-.41 E30.9267
G1 X-6.77 Y-.41 E30.9521
G1 X-3.65 Y2.71 E31.1521
G1 X-3.08 Y2.71 E31.1779
G1 X-6.20 Y-.41 E31.3779
G1 X-5.64 Y-.41 E31.4032
G1 X-2.52 Y2.71 E31.6032
G1 X-1.95 Y2.71 E31.6290
G1 X-5.07 Y-.41 E31.8290
G1 X-4.51 Y-.41 E31.8543
G1 X-1.39 Y2.71 E32.0543
G1 X-.82 Y2.71 E32.0801
G1 X-3.94 Y-.41 E32.2801
G1 X-3.37 Y-.41 E32.3059
G1 X-.26 Y2.71 E32.5055
G1 E31.2055 F1800
G1 X3.41 Y-.41 F4200
G1 E32.5055 F1800
G1 X3.41 Y-.41 F4200
G1 X6.53 Y2.71 E32.7055 F1200
G1 X7.10 Y2.71 E32.7313
G1 X3.98 Y-.41 E32.9313
G1 X4.54 Y-.41 E32.9567
G1 X7.66 Y2.71 E33.1566
G1 X8.23 Y2.71 E33.1825
G1 X5.11 Y-.41 E33.3824
G1 X5.68 Y-.41 E33.4082
G1 X8.79 Y2.71 E33.6079
G1 X9.36 Y2.71 E33.6337
G1 X6.24 Y-.41 E33.8337
G1 X6.81 Y-.41 E33.8595
G1 X9.93 Y2.71 E34.0594
G1 X10.49 Y2.71 E34.0848
G1 X7.37 Y-.41 E34.2848
G1 X7.94 Y-.41 E34.3106
G1 X11.06 Y2.71 E34.5106
G1 X11.62 Y2.71 E34.5359
G1 X8.50 Y-.41 E34.7359
G1 X9.07 Y-.41 E34.7617
G1 X12.19 Y2.71 E34.9617
G1 X12.75 Y2.71 E34.9871
G1 X9.64 Y-.41 E35.1867
G1 X10.20 Y-.41 E35.2121
G1 X13.32 Y2.71 E35.4120
G1 X13.89 Y2.71 E35.4378
G1 X10.77 Y-.41 E35.6378
G1 X11.33 Y-.41 E35.6632
G1 X14.45 Y2.71 E35.8631
G1 X15.02 Y2.71 E35.8890
G1 X11.90 Y-.41 E36.0889
G1 X12.46 Y-.41 E36.1143
G1 X15.41 Y2.54 E36.3034
G1 X15.41 Y1.97 E36.3292
G1 X13.03 Y-.41 E36.4817
G1 X13.60 Y-.41 E36.5075
G1 X15.41 Y1.41 E36.6239
G1 X15.41 Y.84 E36.6497
G1 X14.16 Y-.41 E36.7298
G1 X14.73 Y-.41 E36.7556
G1 X15.41 Y.27 E36.7992
G1 X15.41 Y-.29 E36.8246
G1 X15.29 Y-.41 E36.8323
G1 E35.5323 F1800
G1 X3.51 Y-1.01 F4200
G1 X2.79 Y-12.91
G1 E36.8323 F1800
G1 X2.79 Y-12.91 F4200
G1 X2.91 Y-12.79 E36.8400 F1200
G1 X2.91 Y-12.22 E36.8658
G1 X2.23 Y-12.91 E36.9097
G1 X1.66 Y-12.91 E36.9355
G1 X2.91 Y-11.66 E37.0157
G1 X2.91 Y-11.09 E37.0415
G1 X1.10 Y-12.91 E37.1578
G1 X.53 Y-12.91 E37.1836
G1 X2.91 Y-10.53 E37.3362
G1 X2.91 Y-9.96 E37.3620
G1 X-.04 Y-12.91 E37.5511
G1 X-.21 Y-12.91 E37.5588
G1 X-.21 Y-12.52 E37.5764
G1 X2.91 Y-9.40 E37.7764
G1 X2.91 Y-8.83 E37.8022
G1 X-.21 Y-11.95 E38.0022
G1 X-.21 Y-11.38 E38.0280
G1 X2.91 Y-8.26 E38.2280
G1 X2.91 Y-7.70 E38.2533
G1 X-.21 Y-10.82 E38.4533
G1 X-.21 Y-10.25 E38.4791
G1 X2.91 Y-7.13 E38.6791
G1 X2.91 Y-6.57 E38.7045
G1 X-.21 Y-9.69 E38.9044
G1 X-.21 Y-9.12 E38.9302
G1 X2.91 Y-6.00 E39.1302
G1 X2.91 Y-5.44 E39.1556
G1 X-.21 Y-8.56 E39.3555
G1 X-.21 Y-7.99 E39.3814
G1 X2.91 Y-4.87 E39.5813
G1 X2.91 Y-4.30 E39.6071
G1 X-.21 Y-7.42 E39.8071
G1 X-.21 Y-6.86 E39.8325
G1 X2.91 Y-3.74 E40.0324
G1 X2.91 Y-3.17 E40.0583
G1 X-.21 Y-6.29 E40.2582
G1 X-.21 Y-5.73 E40.2836
G1 X2.91 Y-2.61 E40.4835
G1 X2.91 Y-2.04 E40.5094
G1 X-.21 Y-5.16 E40.7093
G1 X-.21 Y-4.60 E40.7347
G1 X2.91 Y-1.48 E40.9347
G1 X2.91 Y-.91 E40.9605
G1 X-.21 Y-4.03 E41.1604
G1 X-.21 Y-3.46 E41.1863
G1 X5.97 Y2.71 E41.5820
G1 X5.40 Y2.71 E41.6079
G1 X-.21 Y-2.90 E41.9674
G1 X-.21 Y-2.33 E41.9932
G1 X4.84 Y2.71 E42.3165
G1 X4.27 Y2.71 E42.3424
G1 X-.21 Y-1.77 E42.6295
G1 X-.21 Y-1.20 E42.6553
G1 X3.70 Y2.71 E42.9059
G1 X3.14 Y2.71 E42.9313
G1 X-.21 Y-.64 E43.1460
G1 X-.21 Y-.41 E43.1564
G1 X-.55 Y-.41 E43.1718
G1 X2.91 Y3.05 E43.3935
G1 X2.91 Y3.61 E43.4189
G1 X-1.11 Y-.41 E43.6766
G1 X-1.68 Y-.41 E43.7024
G1 X2.91 Y4.18 E43.9966
G1 X2.91 Y4.74 E44.0219
G1 X-2.24 Y-.41 E44.3520
G1 X-2.81 Y-.41 E44.3778
G1 X2.91 Y5.31 E44.7444
G1 X2.91 Y5.88 E44.7702
G1 X-.21 Y2.76 E44.9702
G1 X-.21 Y3.32 E44.9956
G1 X2.91 Y6.44 E45.1955
G1 X2.91 Y7.01 E45.2213
G1 X-.21 Y3.89 E45.4213
G1 X-.21 Y4.45 E45.4467
G1 X2.91 Y7.57 E45.6466
G1 X2.91 Y8.14 E45.6725
G1 X-.21 Y5.02 E45.8724
G1 X-.21 Y5.59 E45.8982
G1 X2.91 Y8.70 E46.0979
G1 X2.91 Y9.27 E46.1237
G1 X-.11 Y6.26 E46.3169
G1 X-.21 Y6.53 E46.3300
G1 X-.21 Y6.72 E46.3386
G1 X2.91 Y9.84 E46.5385
G1 X2.91 Y10.40 E46.5639
G1 X-.21 Y7.28 E46.7639
G1 X-.21 Y7.85 E46.7897
G1 X2.91 Y10.97 E46.9897
G1 X2.91 Y11.53 E47.0150
G1 X-.21 Y8.41 E47.2150
G1 X-.21 Y8.98 E47.2408
G1 X2.91 Y12.10 E47.4408
G1 X2.91 Y12.66 E47.4662
G1 X-.21 Y9.55 E47.6658
G1 X-.21 Y10.11 E47.6912
G1 X2.91 Y13.23 E47.8911
G1 X2.91 Y13.80 E47.9170
G1 X-.21 Y10.68 E48.1169
G1 X-.21 Y11.24 E48.1423
G1 X2.91 Y14.36 E48.3422
G1 X2.91 Y14.93 E48.3681
G1 X-.21 Y11.81 E48.5680
G1 X-.21 Y12.37 E48.5934
G1 X2.63 Y15.21 E48.7754
G1 X2.06 Y15.21 E48.8012
G1 X-.21 Y12.94 E48.9467
G1 X-.21 Y13.51 E48.9726
G1 X1.50 Y15.21 E49.0818
G1 X.93 Y15.21 E49.1077
G1 X-.21 Y14.07 E49.1807
G1 X-.21 Y14.64 E49.2066
G1 X.36 Y15.21 E49.2431
G1 X-.20 Y15.21 E49.2685
G1 X-.21 Y15.20 E49.2691
;percent
;layer:0.25
G1 Z.50 F400
;shell
G1 E47.9691 F1800
G1 X-.81 Y3.31 F7200
G1 X-.81 Y3.31
G1 X-13.05 Y-.75
G1 E49.2691 F1800
G1 X-13.05 Y-.75 F7200
G1 X-12.05 Y-.75 E49.3144 F1500
G1 X-11.05 Y-.75 E49.3597 F2160
G1 X-10.05 Y-.75 E49.4051 F2820
G1 X-9.05 Y-.75 E49.4504 F3480
G1 X-8.05 Y-.75 E49.4957 F4140
G1 X-.55 Y-.75 E49.8356 F4800
G1 X-.55 Y-13.25 E50.4020
G1 X3.25 Y-13.25 E50.5742
G1 X3.25 Y-.75 E51.1407
G1 X15.75 Y-.75 E51.7072
G1 X15.75 Y3.05 E51.8794
G1 X3.25 Y3.05 E52.4458
G1 X3.25 Y15.55 E53.0123
G1 X-.55 Y15.55 E53.1845
G1 X-.55 Y3.05 E53.7509
G1 X-6.75 Y3.05 E54.0319
G1 X-8.75 Y3.05 E54.1225 F3984
G1 X-10.75 Y3.05 E54.2132 F3168
G1 X-12.75 Y3.05 E54.3038 F2352
G1 X-13.05 Y3.05 E54.3174 F1536
G1 X-13.05 Y1.35 E54.3944
G1 X-13.05 Y-.65 E54.4851 F720
G1 X-13.45 Y-1.15 E54.4851 F300
G1 X-.95 Y-1.15 E55.0515 F2400
G1 X-.95 Y-13.65 E55.6180
G1 X3.65 Y-13.65 E55.8264
G1 X3.65 Y-1.15 E56.3929
G1 X16.15 Y-1.15 E56.9594
G1 X16.15 Y3.45 E57.1678
G1 X3.65 Y3.45 E57.7343
G1 X3.65 Y15.95 E58.3008
G1 X-.95 Y15.95 E58.5092
G1 X-.95 Y3.45 E59.0757
G1 X-13.45 Y3.45 E59.6421
G1 X-13.45 Y-1.05 E59.8461
G1 X-13.05 Y-.65 E59.8546 F300
;infill
G1 E58.5546 F1800
G1 X-12.71 Y-.29 F7200
G1 E59.8546 F1800
G1 X-12.71 Y-.29 F7200
G1 X-12.59 Y-.41 E59.8623 F3360
G1 X-12.03 Y-.41 E59.8876
G1 X-12.71 Y.27 E59.9312
G1 X-12.71 Y.84 E59.9571
G1 X-11.46 Y-.41 E60.0372
G1 X-10.89 Y-.41 E60.0630
G1 X-12.71 Y1.41 E60.1796
G1 X-12.71 Y1.97 E60.2050
G1 X-10.33 Y-.41 E60.3575
G1 X-9.76 Y-.41 E60.3834
G1 X-12.71 Y2.54 E60.5724
G1 X-12.71 Y2.71 E60.5801
G1 X-12.32 Y2.71 E60.5978
G1 X-9.20 Y-.41 E60.7978
G1 X-8.63 Y-.41 E60.8236
G1 X-11.75 Y2.71 E61.0236
G1 X-11.18 Y2.71 E61.0494
G1 X-8.06 Y-.41 E61.2493
G1 X-7.50 Y-.41 E61.2747
G1 X-10.62 Y2.71 E61.4747
G1 X-10.05 Y2.71 E61.5005
G1 X-6.93 Y-.41 E61.7005
G1 X-6.37 Y-.41 E61.7258
G1 X-9.49 Y2.71 E61.9258
G1 X-8.92 Y2.71 E61.9516
G1 X-5.80 Y-.41 E62.1516
G1 X-5.24 Y-.41 E62.1769
G1 X-8.35 Y2.71 E62.3766
G1 X-7.79 Y2.71 E62.4020
G1 X-4.67 Y-.41 E62.6019
G1 X-4.11 Y-.41 E62.6273
G1 X-7.22 Y2.71 E62.8269
G1 X-6.66 Y2.71 E62.8523
G1 X-3.54 Y-.41 E63.0523
G1 X-2.97 Y-.41 E63.0781
G1 X-6.09 Y2.71 E63.2780
G1 X-5.53 Y2.71 E63.3034
G1 X-2.41 Y-.41 E63.5034
G1 X-1.84 Y-.41 E63.5292
G1 X-4.96 Y2.71 E63.7292
G1 X-4.40 Y2.71 E63.7545
G1 X-1.28 Y-.41 E63.9545
G1 X-.71 Y-.41 E63.9803
G1 X-3.83 Y2.71 E64.1803
G1 X-3.26 Y2.71 E64.2061
G1 X2.91 Y-3.46 E64.6015
G1 X2.91 Y-2.90 E64.6269
G1 X-2.70 Y2.71 E64.9864
G1 X-2.13 Y2.71 E65.0123
G1 X2.91 Y-2.33 E65.3353
G1 X2.91 Y-1.77 E65.3607
G1 X-1.57 Y2.71 E65.6478
G1 X-1.00 Y2.71 E65.6736
G1 X2.91 Y-1.20 E65.9242
G1 X2.91 Y-.64 E65.9496
G1 X-.44 Y2.71 E66.1643
G1 X-.21 Y2.71 E66.1747
G1 X-.21 Y3.05 E66.1901
G1 X3.25 Y-.41 E66.4118
G1 X3.81 Y-.41 E66.4372
G1 X-.21 Y3.61 E66.6948
G1 X-.21 Y4.18 E66.7207
G1 X4.38 Y-.41 E67.0148
G1 X4.94 Y-.41 E67.0402
G1 X-.21 Y4.75 E67.3706
G1 X-.21 Y5.31 E67.3959
G1 X5.51 Y-.41 E67.7625
G1 X6.08 Y-.41 E67.7884
G1 X2.96 Y2.71 E67.9883
G1 X3.52 Y2.71 E68.0137
G1 X6.64 Y-.41 E68.2136
G1 X7.21 Y-.41 E68.2395
G1 X4.09 Y2.71 E68.4394
G1 X4.65 Y2.71 E68.4648
G1 X7.77 Y-.41 E68.6648
G1 X8.34 Y-.41 E68.6906
G1 X5.22 Y2.71 E68.8905
G1 X5.79 Y2.71 E68.9164
G1 X8.90 Y-.41 E69.1160
G1 X9.47 Y-.41 E69.1418
G1 X6.35 Y2.71 E69.3418
G1 X6.92 Y2.71 E69.3676
G1 X10.04 Y-.41 E69.5676
G1 X10.60 Y-.41 E69.5929
G1 X7.48 Y2.71 E69.7929
G1 X8.05 Y2.71 E69.8187
G1 X11.17 Y-.41 E70.0187
G1 X11.73 Y-.41 E70.0440
G1 X8.61 Y2.71 E70.2440
G1 X9.18 Y2.71 E70.2698
G1 X12.30 Y-.41 E70.4698
G1 X12.86 Y-.41 E70.4952
G1 X9.75 Y2.71 E70.6948
G1 X10.31 Y2.71 E70.7202
G1 X13.43 Y-.41 E70.9201
G1 X14.00 Y-.41 E70.9459
G1 X10.88 Y2.71 E71.1459
G1 X11.44 Y2.71 E71.1713
G1 X14.56 Y-.41 E71.3712
G1 X15.13 Y-.41 E71.3971
G1 X12.01 Y2.71 E71.5970
G1 X12.57 Y2.71 E71.6224
G1 X15.41 Y-.12 E71.8041
G1 X15.41 Y.44 E71.8294
G1 X13.14 Y2.71 E71.9749
G1 X13.71 Y2.71 E72.0007
G1 X15.41 Y1.01 E72.1097
G1 X15.41 Y1.57 E72.1351
G1 X14.27 Y2.71 E72.2081
G1 X14.84 Y2.71 E72.2340
G1 X15.41 Y2.14 E72.2705
G1 X15.41 Y2.70 E72.2959
G1 X15.40 Y2.71 E72.2965
G1 E70.9965 F1800
G1 X2.91 Y2.76 F7200
G1 E72.2965 F1800
G1 X2.91 Y2.76 F7200
G1 X-.21 Y5.88 E72.4965 F3360
G1 X-.21 Y6.44 E72.5218
G1 X2.91 Y3.32 E72.7218
G1 X2.91 Y3.89 E72.7476
G1 X-.21 Y7.01 E72.9476
G1 X-.21 Y7.57 E72.9729
G1 X2.91 Y4.46 E73.1726
G1 X2.91 Y5.02 E73.1980
G1 X-.21 Y8.14 E73.3979
G1 X-.21 Y8.71 E73.4237
G1 X2.91 Y5.59 E73.6237
G1 X2.91 Y6.15 E73.6491
G1 X-.21 Y9.27 E73.8490
G1 X-.21 Y9.84 E73.8749
G1 X2.91 Y6.72 E74.0748
G1 X2.91 Y7.28 E74.1002
G1 X-.21 Y10.40 E74.3001
G1 X-.21 Y10.97 E74.3260
G1 X2.91 Y7.85 E74.5259
G1 X2.91 Y8.42 E74.5517
G1 X-.21 Y11.53 E74.7514
G1 X-.21 Y12.10 E74.7772
G1 X2.91 Y8.98 E74.9772
G1 X2.91 Y9.55 E75.0030
G1 X-.21 Y12.66 E75.2026
G1 X-.21 Y13.23 E75.2284
G1 X2.91 Y10.11 E75.4284
G1 X2.91 Y10.68 E75.4542
G1 X-.21 Y13.80 E75.6542
G1 X-.21 Y14.36 E75.6796
G1 X2.91 Y11.24 E75.8795
G1 X2.91 Y11.81 E75.9053
G1 X-.21 Y14.93 E76.1053
G1 X-.21 Y15.21 E76.1180
G1 X.07 Y15.21 E76.1307
G1 X2.91 Y12.38 E76.3124
G1 X2.91 Y12.94 E76.3377
G1 X.64 Y15.21 E76.4832
G1 X1.21 Y15.21 E76.5090
G1 X2.91 Y13.51 E76.6180
G1 X2.91 Y14.07 E76.6434
G1 X1.77 Y15.21 E76.7164
G1 X2.34 Y15.21 E76.7422
G1 X2.91 Y14.64 E76.7788
G1 X2.91 Y15.20 E76.8041
G1 X2.90 Y15.21 E76.8048
G1 E75.5048 F1800
G1 X-.21 Y-.91 F7200
G1 E76.8048 F1800
G1 X-.21 Y-.91 F7200
G1 X2.91 Y-4.03 E77.0047 F3360
G1 X2.91 Y-4.59 E77.0301
G1 X-.21 Y-1.48 E77.2298
G1 X-.21 Y-2.04 E77.2551
G1 X2.91 Y-5.16 E77.4551
G1 X2.91 Y-5.73 E77.4809
G1 X-.21 Y-2.61 E77.6809
G1 X-.21 Y-3.17 E77.7062
G1 X2.91 Y-6.29 E77.9062
G1 X2.91 Y-6.86 E77.9320
G1 X-.21 Y-3.74 E78.1320
G1 X-.21 Y-4.30 E78.1573
G1 X2.91 Y-7.42 E78.3573
G1 X2.91 Y-7.99 E78.3831
G1 X-.21 Y-4.87 E78.5831
G1 X-.21 Y-5.44 E78.6089
G1 X2.91 Y-8.56 E78.8089
G1 X2.91 Y-9.12 E78.8342
G1 X-.21 Y-6.00 E79.0342
G1 X-.21 Y-6.57 E79.0600
G1 X2.91 Y-9.69 E79.2600
G1 X2.91 Y-10.25 E79.2854
G1 X-.21 Y-7.13 E79.4853
G1 X-.21 Y-7.70 E79.5111
G1 X2.91 Y-10.82 E79.7111
G1 X2.91 Y-11.38 E79.7365
G1 X-.21 Y-8.26 E79.9364
G1 X-.21 Y-8.83 E79.9622
G1 X2.91 Y-11.95 E80.1622
G1 X2.91 Y-12.52 E80.1880
G1 X-.21 Y-9.40 E80.3880
G1 X-.21 Y-9.96 E80.4133
G1 X2.74 Y-12.91 E80.6024
G1 X2.17 Y-12.91 E80.6282
G1 X-.21 Y-10.53 E80.7808
G1 X-.21 Y-11.09 E80.8061
G1 X1.61 Y-12.91 E80.9228
G1 X1.04 Y-12.91 E80.9486
G1 X-.21 Y-11.66 E81.0287
G1 X-.21 Y-12.22 E81.0541
G1 X.47 Y-12.91 E81.0980
G1 X-.09 Y-12.91 E81.1234
G1 X-.21 Y-12.79 E81.1311
;percent
;layer:0.25
G1 Z.75 F400
;shell
G1 E79.8311 F1800
G1 X-.81 Y-1.01 F7200
G1 X-13.05 Y-.75
G1 E81.1311 F1800
G1 X-13.05 Y-.75 F7200
G1 X-12.05 Y-.75 E81.1764 F1500
G1 X-11.05 Y-.75 E81.2217 F2160
G1 X-10.05 Y-.75 E81.2670 F2820
G1 X-9.05 Y-.75 E81.3123 F3480
G1 X-8.05 Y-.75 E81.3577 F4140
G1 X-.55 Y-.75 E81.6975 F4800
G1 X-.55 Y-13.25 E82.2640
G1 X3.25 Y-13.25 E82.4362
G1 X3.25 Y-.75 E83.0027
G1 X15.75 Y-.75 E83.5691
G1 X15.75 Y3.05 E83.7413
G1 X3.25 Y3.05 E84.3078
G1 X3.25 Y15.55 E84.8742
G1 X-.55 Y15.55 E85.0465
G1 X-.55 Y3.05 E85.6129
G1 X-6.75 Y3.05 E85.8939
G1 X-8.75 Y3.05 E85.9845 F3984
G1 X-10.75 Y3.05 E86.0751 F3168
G1 X-12.75 Y3.05 E86.1658 F2352
G1 X-13.05 Y3.05 E86.1794 F1536
G1 X-13.05 Y1.35 E86.2564
G1 X-13.05 Y-.65 E86.3470 F720
G1 X-13.45 Y-1.15 E86.3470 F300
G1 X-.95 Y-1.15 E86.9135 F2400
G1 X-.95 Y-13.65 E87.4800
G1 X3.65 Y-13.65 E87.6884
G1 X3.65 Y-1.15 E88.2549
G1 X16.15 Y-1.15 E88.8213
G1 X16.15 Y3.45 E89.0298
G1 X3.65 Y3.45 E89.5963
G1 X3.65 Y15.95 E90.1627
G1 X-.95 Y15.95 E90.3712
G1 X-.95 Y3.45 E90.9376
G1 X-13.45 Y3.45 E91.5041
G1 X-13.45 Y-1.05 E91.7080
G1 X-13.05 Y-.65 E91.7166 F300
;infill
G1 E90.4166 F1800
G1 X-12.71 Y2.70 F7200
G1 E91.7166 F1800
G1 X-12.71 Y2.70 F7200
G1 X-12.70 Y2.71 E91.7172 F3360
G1 X-12.14 Y2.71 E91.7426
G1 X-12.71 Y2.14 E91.7791
G1 X-12.71 Y1.57 E91.8049
G1 X-11.57 Y2.71 E91.8780
G1 X-11.00 Y2.71 E91.9038
G1 X-12.71 Y1.01 E92.0131
G1 X-12.71 Y.44 E92.0389
G1 X-10.44 Y2.71 E92.1844
G1 X-9.87 Y2.71 E92.2102
G1 X-12.71 Y-.12 E92.3919
G1 X-12.71 Y-.41 E92.4051
G1 X-12.43 Y-.41 E92.4178
G1 X-9.31 Y2.71 E92.6177
G1 X-8.74 Y2.71 E92.6435
G1 X-11.86 Y-.41 E92.8435
G1 X-11.29 Y-.41 E92.8693
G1 X-8.18 Y2.71 E93.0689
G1 X-7.61 Y2.71 E93.0948
G1 X-10.73 Y-.41 E93.2947
G1 X-10.16 Y-.41 E93.3206
G1 X-7.04 Y2.71 E93.5205
G1 X-6.48 Y2.71 E93.5459
G1 X-9.60 Y-.41 E93.7458
G1 X-9.03 Y-.41 E93.7717
G1 X-5.91 Y2.71 E93.9716
G1 X-5.35 Y2.71 E93.9970
G1 X-8.47 Y-.41 E94.1969
G1 X-7.90 Y-.41 E94.2228
G1 X-4.78 Y2.71 E94.4227
G1 X-4.22 Y2.71 E94.4481
G1 X-7.33 Y-.41 E94.6477
G1 X-6.77 Y-.41 E94.6731
G1 X-3.65 Y2.71 E94.8731
G1 X-3.08 Y2.71 E94.8989
G1 X-6.20 Y-.41 E95.0988
G1 X-5.64 Y-.41 E95.1242
G1 X-2.52 Y2.71 E95.3242
G1 X-1.95 Y2.71 E95.3500
G1 X-5.07 Y-.41 E95.5500
G1 X-4.51 Y-.41 E95.5753
G1 X-1.39 Y2.71 E95.7753
G1 X-.82 Y2.71 E95.8011
G1 X-3.94 Y-.41 E96.0011
G1 X-3.37 Y-.41 E96.0269
G1 X-.26 Y2.71 E96.2265
G1 E94.9265 F1800
G1 X3.41 Y-.41 F7200
G1 E96.2265 F1800
G1 X3.41 Y-.41 F7200
G1 X6.53 Y2.71 E96.4265 F3360
G1 X7.10 Y2.71 E96.4523
