;generated by ffslicer 1.4.0 07/28/16 18:27:27
;start gcode
M118 X17.50 Y17.50 Z7.50 T0
M140 S0
M104 S220 T0
M104 S0 T1
M107
G90
G28
M132 X Y Z A B
G1 Z50.00 F600
G161 X Y F3300
M6 T0
M907 X100 Y100 Z40 A100 B20
;preExtrude: 0.20
G1 Z.20 F400
M108 T0
;preExtruder0
G1 X17.50 Y17.50 F7200
G1 X-17.50 Y17.50 E5.0755 F1200
G1 X-17.50 Y-17.50 E10.1510
G1 X17.50 Y-17.50 E15.2265
G1 X17.50 Y-2.50 E17.4017
;raft
;layer:0.25
G1 Z.25 F400
;shell
G1 E16.1017 F1800
G1 Z.50 F400
G1 X-11.90 Y-11.90 F4200
G1 Z.25 F400
G1 E17.4017 F1800
G1 X-11.90 Y-11.90 F4200
G1 X-10.90 Y-11.90 E17.4470 F1200
G1 X-9.90 Y-11.90 E17.4923
G1 X-8.90 Y-11.90 E17.5377
G1 X-7.90 Y-11.90 E17.5830
G1 X-6.90 Y-11.90 E17.6283
G1 X11.90 Y-11.90 E18.4802
G1 X11.90 Y11.90 E19.5588
G1 X-11.90 Y11.90 E20.6373
G1 X-11.90 Y-1.80 E21.2582
G1 X-11.90 Y-3.80 E21.3488
G1 X-11.90 Y-5.80 E21.4394
G1 X-11.90 Y-7.80 E21.5301
G1 X-11.90 Y-9.80 E21.6207
G1 X-11.90 Y-11.80 E21.7113 F720
G1 X-12.30 Y-12.30 E21.7113 F300
G1 X12.30 Y-12.30 E22.8261 F1200
G1 X12.30 Y12.30 E23.9409
G1 X-12.30 Y12.30 E25.0557
G1 X-12.30 Y-12.20 E26.1660
G1 X-11.90 Y-11.80 E26.1745 F300
;infill
G1 E24.8745 F1800
G1 X11.15 Y-11.56 F4200
G1 E26.1745 F1800
G1 X11.15 Y-11.56 F4200
G1 X11.56 Y-11.15 E26.2008 F1200
G1 X11.56 Y-10.58 E26.2266
G1 X10.59 Y-11.56 E26.2891
G1 X10.02 Y-11.56 E26.3149
G1 X11.56 Y-10.02 E26.4136
G1 X11.56 Y-9.45 E26.4395
G1 X9.45 Y-11.56 E26.5747
G1 X8.89 Y-11.56 E26.6001
G1 X11.56 Y-8.89 E26.7712
G1 X11.56 Y-8.32 E26.7970
G1 X8.32 Y-11.56 E27.0047
G1 X7.76 Y-11.56 E27.0300
G1 X11.56 Y-7.76 E27.2736
G1 X11.56 Y-7.19 E27.2994
G1 X7.19 Y-11.56 E27.5795
G1 X6.63 Y-11.56 E27.6048
G1 X11.56 Y-6.62 E27.9211
G1 X11.56 Y-6.06 E27.9465
G1 X6.06 Y-11.56 E28.2990
G1 X5.49 Y-11.56 E28.3248
G1 X11.56 Y-5.49 E28.7138
G1 X11.56 Y-4.93 E28.7392
G1 X4.93 Y-11.56 E29.1641
G1 X4.36 Y-11.56 E29.1899
G1 X11.56 Y-4.36 E29.6514
G1 X11.56 Y-3.80 E29.6767
G1 X3.80 Y-11.56 E30.1741
G1 X3.23 Y-11.56 E30.1999
G1 X11.56 Y-3.23 E30.7337
G1 X11.56 Y-2.67 E30.7591
G1 X2.67 Y-11.56 E31.3289
G1 X2.10 Y-11.56 E31.3547
G1 X11.56 Y-2.10 E31.9610
G1 X11.56 Y-1.53 E31.9868
G1 X1.53 Y-11.56 E32.6296
G1 X.97 Y-11.56 E32.6550
G1 X11.56 Y-.97 E33.3337
G1 X11.56 Y-.40 E33.3595
G1 X.40 Y-11.56 E34.0747
G1 X-.16 Y-11.56 E34.1001
G1 X11.56 Y.16 E34.8512
G1 X11.56 Y.73 E34.8770
G1 X-.73 Y-11.56 E35.6647
G1 X-1.29 Y-11.56 E35.6901
G1 X11.56 Y1.29 E36.5136
G1 X11.56 Y1.86 E36.5394
G1 X-1.86 Y-11.56 E37.3995
G1 X-2.43 Y-11.56 E37.4253
G1 X11.56 Y2.43 E38.3219
G1 X11.56 Y2.99 E38.3473
G1 X-2.99 Y-11.56 E39.2797
G1 X-3.56 Y-11.56 E39.3056
G1 X11.56 Y3.56 E40.2746
G1 X11.56 Y4.12 E40.3000
G1 X-4.12 Y-11.56 E41.3049
G1 X-4.69 Y-11.56 E41.3307
G1 X11.56 Y4.69 E42.3721
G1 X11.56 Y5.25 E42.3975
G1 X-5.25 Y-11.56 E43.4748
G1 X-5.82 Y-11.56 E43.5007
G1 X11.56 Y5.82 E44.6145
G1 X11.56 Y6.39 E44.6403
G1 X-6.39 Y-11.56 E45.7907
G1 X-6.95 Y-11.56 E45.8161
G1 X11.56 Y6.95 E47.0023
G1 X11.56 Y7.52 E47.0282
G1 X-7.52 Y-11.56 E48.2510
G1 X-8.08 Y-11.56 E48.2764
G1 X11.56 Y8.08 E49.5350
G1 X11.56 Y8.65 E49.5609
G1 X-8.65 Y-11.56 E50.8561
G1 X-9.21 Y-11.56 E50.8815
G1 X11.56 Y9.21 E52.2126
G1 X11.56 Y9.78 E52.2384
G1 X-9.78 Y-11.56 E53.6060
G1 X-10.34 Y-11.56 E53.6314
G1 X11.56 Y10.35 E55.0353
G1 X11.56 Y10.91 E55.0606
G1 X-10.91 Y-11.56 E56.5007
G1 X-11.48 Y-11.56 E56.5265
G1 X11.56 Y11.48 E58.0031
G1 X11.56 Y11.56 E58.0067
G1 X11.08 Y11.56 E58.0285
G1 X-11.56 Y-11.07 E59.4791
G1 X-11.56 Y-10.51 E59.5045
G1 X10.51 Y11.56 E60.9189
G1 X9.94 Y11.56 E60.9447
G1 X-11.56 Y-9.94 E62.3226
G1 X-11.56 Y-9.38 E62.3480
G1 X9.38 Y11.56 E63.6900
G1 X8.81 Y11.56 E63.7158
G1 X-11.56 Y-8.81 E65.0213
G1 X-11.56 Y-8.25 E65.0467
G1 X8.25 Y11.56 E66.3163
G1 X7.68 Y11.56 E66.3421
G1 X-11.56 Y-7.68 E67.5751
G1 X-11.56 Y-7.11 E67.6010
G1 X7.12 Y11.56 E68.7978
G1 X6.55 Y11.56 E68.8236
G1 X-11.56 Y-6.55 E69.9843
G1 X-11.56 Y-5.98 E70.0101
G1 X5.98 Y11.56 E71.1342
G1 X5.42 Y11.56 E71.1596
G1 X-11.56 Y-5.42 E72.2478
G1 X-11.56 Y-4.85 E72.2736
G1 X4.85 Y11.56 E73.3253
G1 X4.29 Y11.56 E73.3507
G1 X-11.56 Y-4.29 E74.3665
G1 X-11.56 Y-3.72 E74.3923
G1 X3.72 Y11.56 E75.3716
G1 X3.16 Y11.56 E75.3969
G1 X-11.56 Y-3.16 E76.3403
G1 X-11.56 Y-2.59 E76.3661
G1 X2.59 Y11.56 E77.2730
G1 X2.02 Y11.56 E77.2988
G1 X-11.56 Y-2.02 E78.1691
G1 X-11.56 Y-1.46 E78.1945
G1 X1.46 Y11.56 E79.0289
G1 X.89 Y11.56 E79.0547
G1 X-11.56 Y-.89 E79.8526
G1 X-11.56 Y-.33 E79.8780
G1 X.33 Y11.56 E80.6400
G1 X-.24 Y11.56 E80.6658
G1 X-11.56 Y.24 E81.3913
G1 X-11.56 Y.80 E81.4167
G1 X-.80 Y11.56 E82.1063
G1 X-1.37 Y11.56 E82.1321
G1 X-11.56 Y1.37 E82.7852
G1 X-11.56 Y1.94 E82.8110
G1 X-1.94 Y11.56 E83.4275
G1 X-2.50 Y11.56 E83.4529
G1 X-11.56 Y2.50 E84.0335
G1 X-11.56 Y3.07 E84.0594
G1 X-3.07 Y11.56 E84.6035
G1 X-3.63 Y11.56 E84.6288
G1 X-11.56 Y3.63 E85.1371
G1 X-11.56 Y4.20 E85.1629
G1 X-4.20 Y11.56 E85.6346
G1 X-4.76 Y11.56 E85.6599
G1 X-11.56 Y4.76 E86.0957
G1 X-11.56 Y5.33 E86.1216
G1 X-5.33 Y11.56 E86.5208
G1 X-5.90 Y11.56 E86.5467
G1 X-11.56 Y5.90 E86.9094
G1 X-11.56 Y6.46 E86.9348
G1 X-6.46 Y11.56 E87.2616
G1 X-7.03 Y11.56 E87.2875
G1 X-11.56 Y7.03 E87.5778
G1 X-11.56 Y7.59 E87.6032
G1 X-7.59 Y11.56 E87.8576
G1 X-8.16 Y11.56 E87.8834
G1 X-11.56 Y8.16 E88.1013
G1 X-11.56 Y8.72 E88.1267
G1 X-8.72 Y11.56 E88.3087
G1 X-9.29 Y11.56 E88.3345
G1 X-11.56 Y9.29 E88.4800
G1 X-11.56 Y9.85 E88.5054
G1 X-9.85 Y11.56 E88.6150
G1 X-10.42 Y11.56 E88.6408
G1 X-11.56 Y10.42 E88.7139
G1 X-11.56 Y10.99 E88.7397
G1 X-10.99 Y11.56 E88.7762
G1 X-11.55 Y11.56 E88.8016
G1 X-11.56 Y11.55 E88.8022
;percent
;layer:0.25
G1 Z.50 F400
;shell
G1 E87.5022 F1800
G1 Z.75 F400
G1 X-11.90 Y-11.90 F7200
G1 Z.50 F400
G1 E88.8022 F1800
G1 X-11.90 Y-11.90 F7200
G1 X-10.90 Y-11.90 E88.8476 F1500
G1 X-9.90 Y-11.90 E88.8929 F2160
G1 X-8.90 Y-11.90 E88.9382 F2820
G1 X-7.90 Y-11.90 E88.9835 F3480
G1 X-6.90 Y-11.90 E89.0288 F4140
G1 X11.90 Y-11.90 E89.8808 F4800
G1 X11.90 Y11.90 E90.9593
G1 X-11.90 Y11.90 E92.0379
G1 X-11.90 Y-1.80 E92.6587
G1 X-11.90 Y-3.80 E92.7494 F3984
G1 X-11.90 Y-5.80 E92.8400 F3168
G1 X-11.90 Y-7.80 E92.9306 F2352
G1 X-11.90 Y-9.80 E93.0213 F1536
G1 X-11.90 Y-11.80 E93.1119 F720
G1 X-12.30 Y-12.30 E93.1119 F300
G1 X12.30 Y-12.30 E94.2267 F2400
G1 X12.30 Y12.30 E95.3415
G1 X-12.30 Y12.30 E96.4563
G1 X-12.30 Y-12.20 E97.5665
G1 X-11.90 Y-11.80 E97.5751 F300
;infill
G1 E96.2751 F1800
G1 X-11.56 Y-11.15 F7200
G1 E97.5751 F1800
G1 X-11.56 Y-11.15 F7200
G1 X-11.15 Y-11.56 E97.6013 F3360
G1 X-10.58 Y-11.56 E97.6272
G1 X-11.56 Y-10.58 E97.6900
G1 X-11.56 Y-10.02 E97.7154
G1 X-10.02 Y-11.56 E97.8141
G1 X-9.45 Y-11.56 E97.8399
G1 X-11.56 Y-9.45 E97.9751
G1 X-11.56 Y-8.89 E98.0005
G1 X-8.89 Y-11.56 E98.1716
G1 X-8.32 Y-11.56 E98.1974
G1 X-11.56 Y-8.32 E98.4051
G1 X-11.56 Y-7.76 E98.4304
G1 X-7.76 Y-11.56 E98.6740
G1 X-7.19 Y-11.56 E98.6998
G1 X-11.56 Y-7.19 E98.9799
G1 X-11.56 Y-6.62 E99.0057
G1 X-6.62 Y-11.56 E99.3223
G1 X-6.06 Y-11.56 E99.3477
G1 X-11.56 Y-6.06 E99.7002
G1 X-11.56 Y-5.49 E99.7260
G1 X-5.49 Y-11.56 E100.1150
G1 X-4.93 Y-11.56 E100.1404
G1 X-11.56 Y-4.93 E100.5653
G1 X-11.56 Y-4.36 E100.5911
G1 X-4.36 Y-11.56 E101.0525
G1 X-3.80 Y-11.56 E101.0779
G1 X-11.56 Y-3.80 E101.5752
G1 X-11.56 Y-3.23 E101.6010
G1 X-3.23 Y-11.56 E102.1349
G1 X-2.66 Y-11.56 E102.1607
G1 X-11.56 Y-2.66 E102.7311
G1 X-11.56 Y-2.10 E102.7565
G1 X-2.10 Y-11.56 E103.3628
G1 X-1.53 Y-11.56 E103.3886
G1 X-11.56 Y-1.53 E104.0314
G1 X-11.56 Y-.97 E104.0568
G1 X-.97 Y-11.56 E104.7355
G1 X-.40 Y-11.56 E104.7613
G1 X-11.56 Y-.40 E105.4765
G1 X-11.56 Y.16 E105.5019
G1 X.16 Y-11.56 E106.2530
G1 X.73 Y-11.56 E106.2788
G1 X-11.56 Y.73 E107.0665
G1 X-11.56 Y1.30 E107.0923
G1 X1.30 Y-11.56 E107.9165
G1 X1.86 Y-11.56 E107.9418
G1 X-11.56 Y1.86 E108.8019
G1 X-11.56 Y2.43 E108.8277
G1 X2.43 Y-11.56 E109.7243
G1 X2.99 Y-11.56 E109.7497
G1 X-11.56 Y2.99 E110.6822
G1 X-11.56 Y3.56 E110.7080
G1 X3.56 Y-11.56 E111.6770
G1 X4.12 Y-11.56 E111.7024
G1 X-11.56 Y4.12 E112.7073
G1 X-11.56 Y4.69 E112.7331
G1 X4.69 Y-11.56 E113.7745
G1 X5.26 Y-11.56 E113.8004
G1 X-11.56 Y5.26 E114.8783
G1 X-11.56 Y5.82 E114.9037
G1 X5.82 Y-11.56 E116.0175
G1 X6.39 Y-11.56 E116.0434
G1 X-11.56 Y6.39 E117.1937
G1 X-11.56 Y6.95 E117.2191
G1 X6.95 Y-11.56 E118.4054
G1 X7.52 Y-11.56 E118.4312
G1 X-11.56 Y7.52 E119.6540
G1 X-11.56 Y8.08 E119.6794
G1 X8.08 Y-11.56 E120.9381
G1 X8.65 Y-11.56 E120.9639
G1 X-11.56 Y8.65 E122.2591
G1 X-11.56 Y9.22 E122.2849
G1 X9.22 Y-11.56 E123.6167
G1 X9.78 Y-11.56 E123.6421
G1 X-11.56 Y9.78 E125.0097
G1 X-11.56 Y10.35 E125.0355
G1 X10.35 Y-11.56 E126.4397
G1 X10.91 Y-11.56 E126.4651
G1 X-11.56 Y10.91 E127.9051
G1 X-11.56 Y11.48 E127.9309
G1 X11.48 Y-11.56 E129.4075
G1 X11.56 Y-11.56 E129.4112
G1 X11.56 Y-11.07 E129.4334
G1 X-11.07 Y11.56 E130.8837
G1 X-10.51 Y11.56 E130.9090
G1 X11.56 Y-10.51 E132.3235
G1 X11.56 Y-9.94 E132.3493
G1 X-9.94 Y11.56 E133.7272
G1 X-9.38 Y11.56 E133.7526
G1 X11.56 Y-9.38 E135.0945
G1 X11.56 Y-8.81 E135.1204
G1 X-8.81 Y11.56 E136.4258
G1 X-8.25 Y11.56 E136.4512
G1 X11.56 Y-8.25 E137.7208
G1 X11.56 Y-7.68 E137.7466
G1 X-7.68 Y11.56 E138.9797
G1 X-7.11 Y11.56 E139.0055
G1 X11.56 Y-7.11 E140.2020
G1 X11.56 Y-6.55 E140.2274
G1 X-6.55 Y11.56 E141.3880
G1 X-5.98 Y11.56 E141.4139
G1 X11.56 Y-5.98 E142.5379
G1 X11.56 Y-5.42 E142.5633
G1 X-5.42 Y11.56 E143.6515
G1 X-4.85 Y11.56 E143.6774
G1 X11.56 Y-4.85 E144.7291
G1 X11.56 Y-4.29 E144.7544
G1 X-4.29 Y11.56 E145.7702
G1 X-3.72 Y11.56 E145.7961
G1 X11.56 Y-3.72 E146.7753
G1 X11.56 Y-3.15 E146.8012
G1 X-3.15 Y11.56 E147.7439
G1 X-2.59 Y11.56 E147.7693
G1 X11.56 Y-2.59 E148.6761
G1 X11.56 Y-2.02 E148.7019
G1 X-2.02 Y11.56 E149.5722
G1 X-1.46 Y11.56 E149.5976
G1 X11.56 Y-1.46 E150.4320
G1 X11.56 Y-.89 E150.4579
G1 X-.89 Y11.56 E151.2558
G1 X-.33 Y11.56 E151.2811
G1 X11.56 Y-.33 E152.0431
G1 X11.56 Y.24 E152.0690
G1 X.24 Y11.56 E152.7944
G1 X.81 Y11.56 E152.8203
G1 X11.56 Y.81 E153.5092
G1 X11.56 Y1.37 E153.5346
G1 X1.37 Y11.56 E154.1876
G1 X1.94 Y11.56 E154.2135
G1 X11.56 Y1.94 E154.8300
G1 X11.56 Y2.50 E154.8554
G1 X2.50 Y11.56 E155.4360
G1 X3.07 Y11.56 E155.4618
G1 X11.56 Y3.07 E156.0059
G1 X11.56 Y3.63 E156.0313
G1 X3.63 Y11.56 E156.5395
G1 X4.20 Y11.56 E156.5654
G1 X11.56 Y4.20 E157.0371
G1 X11.56 Y4.77 E157.0629
G1 X4.77 Y11.56 E157.4980
G1 X5.33 Y11.56 E157.5234
G1 X11.56 Y5.33 E157.9227
G1 X11.56 Y5.90 E157.9485
G1 X5.90 Y11.56 E158.3112
G1 X6.46 Y11.56 E158.3366
G1 X11.56 Y6.46 E158.6635
G1 X11.56 Y7.03 E158.6893
G1 X7.03 Y11.56 E158.9796
G1 X7.59 Y11.56 E159.0050
G1 X11.56 Y7.59 E159.2594
G1 X11.56 Y8.16 E159.2852
G1 X8.16 Y11.56 E159.5031
G1 X8.72 Y11.56 E159.5285
G1 X11.56 Y8.72 E159.7105
G1 X11.56 Y9.29 E159.7363
G1 X9.29 Y11.56 E159.8818
G1 X9.86 Y11.56 E159.9077
G1 X11.56 Y9.86 E160.0166
G1 X11.56 Y10.42 E160.0420
G1 X10.42 Y11.56 E160.1151
G1 X10.99 Y11.56 E160.1409
G1 X11.56 Y10.99 E160.1774
G1 X11.56 Y11.55 E160.2028
G1 X11.55 Y11.56 E160.2034
;percent
;layer:0.25
G1 Z.75 F400
;shell
G1 E158.9034 F1800
G1 Z1.00 F400
G1 X-11.90 Y-11.90 F7200
G1 Z.75 F400
G1 E160.2034 F1800
G1 X-11.90 Y-11.90 F7200
G1 X-10.90 Y-11.90 E160.2487 F1500
G1 X-9.90 Y-11.90 E160.2941 F2160
G1 X-8.90 Y-11.90 E160.3394 F2820
G1 X-7.90 Y-11.90 E160.3847 F3480
G1 X-6.90 Y-11.90 E160.4300 F4140
G1 X11.90 Y-11.90 E161.2819 F4800
G1 X11.90 Y11.90 E162.3605
G1 X-11.90 Y11.90 E163.4390
G1 X-11.90 Y-1.80 E164.0599
G1 X-11.90 Y-3.80 E164.1505 F3984
G1 X-11.90 Y-5.80 E164.2412 F3168
G1 X-11.90 Y-7.80 E164.3318 F2352
G1 X-11.90 Y-9.80 E164.4224 F1536
G1 X-11.90 Y-11.80 E164.5131 F720
G1 X-12.30 Y-12.30 E164.5131 F300
G1 X12.30 Y-12.30 E165.6279 F2400
G1 X12.30 Y12.30 E166.7427
G1 X-12.30 Y12.30 E167.8575
G1 X-12.30 Y-12.20 E168.9677
G1 X-11.90 Y-11.80 E168.9763 F300
;infill
G1 E167.6763 F1800
G1 X11.15 Y-11.56 F7200
G1 E168.9763 F1800
G1 X11.15 Y-11.56 F7200
G1 X11.56 Y-11.15 E169.0026 F3360
G1 X11.56 Y-10.58 E169.0284
G1 X10.59 Y-11.56 E169.0909
G1 X10.02 Y-11.56 E169.1167
G1 X11.56 Y-10.02 E169.2154
G1 X11.56 Y-9.45 E169.2412
G1 X9.45 Y-11.56 E169.3764
G1 X8.89 Y-11.56 E169.4018
G1 X11.56 Y-8.89 E169.5729
G1 X11.56 Y-8.32 E169.5987
G1 X8.32 Y-11.56 E169.8064
G1 X7.76 Y-11.56 E169.8318
G1 X11.56 Y-7.76 E170.0753
G1 X11.56 Y-7.19 E170.1011
G1 X7.19 Y-11.56 E170.3812
G1 X6.63 Y-11.56 E170.4065
G1 X11.56 Y-6.62 E170.7228
G1 X11.56 Y-6.06 E170.7482
G1 X6.06 Y-11.56 E171.1007
G1 X5.49 Y-11.56 E171.1265
G1 X11.56 Y-5.49 E171.5155
G1 X11.56 Y-4.93 E171.5409
G1 X4.93 Y-11.56 E171.9658
G1 X4.36 Y-11.56 E171.9916
G1 X11.56 Y-4.36 E172.4531
G1 X11.56 Y-3.80 E172.4785
G1 X3.80 Y-11.56 E172.9758
G1 X3.23 Y-11.56 E173.0016
G1 X11.56 Y-3.23 E173.5355
G1 X11.56 Y-2.67 E173.5608
G1 X2.67 Y-11.56 E174.1306
G1 X2.10 Y-11.56 E174.1564
G1 X11.56 Y-2.10 E174.7627
G1 X11.56 Y-1.53 E174.7885
G1 X1.53 Y-11.56 E175.4313
G1 X.97 Y-11.56 E175.4567
G1 X11.56 Y-.97 E176.1354
G1 X11.56 Y-.40 E176.1612
G1 X.40 Y-11.56 E176.8764
G1 X-.16 Y-11.56 E176.9018
G1 X11.56 Y.16 E177.6529
G1 X11.56 Y.73 E177.6787
G1 X-.73 Y-11.56 E178.4664
G1 X-1.29 Y-11.56 E178.4917
G1 X11.56 Y1.29 E179.3153
G1 X11.56 Y1.86 E179.3411
G1 X-1.86 Y-11.56 E180.2012
G1 X-2.43 Y-11.56 E180.2270
G1 X11.56 Y2.43 E181.1236
G1 X11.56 Y2.99 E181.1490
G1 X-2.99 Y-11.56 E182.0814
G1 X-3.56 Y-11.56 E182.1073
G1 X11.56 Y3.56 E183.0763
G1 X11.56 Y4.12 E183.1017
G1 X-4.12 Y-11.56 E184.1066
G1 X-4.69 Y-11.56 E184.1324
G1 X11.56 Y4.69 E185.1738
G1 X11.56 Y5.25 E185.1992
G1 X-5.25 Y-11.56 E186.2765
G1 X-5.82 Y-11.56 E186.3023
G1 X11.56 Y5.82 E187.4162
G1 X11.56 Y6.39 E187.4420
G1 X-6.39 Y-11.56 E188.5924
G1 X-6.95 Y-11.56 E188.6177
G1 X11.56 Y6.95 E189.8040
G1 X11.56 Y7.52 E189.8298
G1 X-7.52 Y-11.56 E191.0526
G1 X-8.08 Y-11.56 E191.0780
G1 X11.56 Y8.08 E192.3367
G1 X11.56 Y8.65 E192.3625
G1 X-8.65 Y-11.56 E193.6577
G1 X-9.21 Y-11.56 E193.6831
G1 X11.56 Y9.21 E195.0142
G1 X11.56 Y9.78 E195.0401
G1 X-9.78 Y-11.56 E196.4077
G1 X-10.34 Y-11.56 E196.4331
G1 X11.56 Y10.35 E197.8369
G1 X11.56 Y10.91 E197.8623
G1 X-10.91 Y-11.56 E199.3023
G1 X-11.48 Y-11.56 E199.3282
G1 X11.56 Y11.48 E200.8047
G1 X11.56 Y11.56 E200.8084
G1 X11.08 Y11.56 E200.8301
G1 X-11.56 Y-11.07 E202.2807
G1 X-11.56 Y-10.51 E202.3061
G1 X10.51 Y11.56 E203.7205
G1 X9.94 Y11.56 E203.7464
G1 X-11.56 Y-9.94 E205.1243
G1 X-11.56 Y-9.38 E205.1496
G1 X9.38 Y11.56 E206.4916
G1 X8.81 Y11.56 E206.5175
G1 X-11.56 Y-8.81 E207.8229
G1 X-11.56 Y-8.25 E207.8483
G1 X8.25 Y11.56 E209.1179
G1 X7.68 Y11.56 E209.1437
G1 X-11.56 Y-7.68 E210.3768
G1 X-11.56 Y-7.11 E210.4026
G1 X7.12 Y11.56 E211.5994
G1 X6.55 Y11.56 E211.6253
G1 X-11.56 Y-6.55 E212.7859
G1 X-11.56 Y-5.98 E212.8117
G1 X5.98 Y11.56 E213.9358
G1 X5.42 Y11.56 E213.9612
G1 X-11.56 Y-5.42 E215.0494
G1 X-11.56 Y-4.85 E215.0752
G1 X4.85 Y11.56 E216.1269
G1 X4.29 Y11.56 E216.1523
G1 X-11.56 Y-4.29 E217.1681
G1 X-11.56 Y-3.72 E217.1939
G1 X3.72 Y11.56 E218.1732
G1 X3.16 Y11.56 E218.1986
G1 X-11.56 Y-3.16 E219.1419
G1 X-11.56 Y-2.59 E219.1678
G1 X2.59 Y11.56 E220.0746
G1 X2.02 Y11.56 E220.1004
G1 X-11.56 Y-2.02 E220.9707
G1 X-11.56 Y-1.46 E220.9961
G1 X1.46 Y11.56 E221.8305
G1 X.89 Y11.56 E221.8564
G1 X-11.56 Y-.89 E222.6543
G1 X-11.56 Y-.33 E222.6796
G1 X.33 Y11.56 E223.4416
G1 X-.24 Y11.56 E223.4675
G1 X-11.56 Y.24 E224.1929
G1 X-11.56 Y.80 E224.2183
G1 X-.80 Y11.56 E224.9079
G1 X-1.37 Y11.56 E224.9337
G1 X-11.56 Y1.37 E225.5868
G1 X-11.56 Y1.94 E225.6126
G1 X-1.94 Y11.56 E226.2291
G1 X-2.50 Y11.56 E226.2545
G1 X-11.56 Y2.50 E226.8352
G1 X-11.56 Y3.07 E226.8610
G1 X-3.07 Y11.56 E227.4051
G1 X-3.63 Y11.56 E227.4305
G1 X-11.56 Y3.63 E227.9387
G1 X-11.56 Y4.20 E227.9645
G1 X-4.20 Y11.56 E228.4362
G1 X-4.76 Y11.56 E228.4616
G1 X-11.56 Y4.76 E228.8974
G1 X-11.56 Y5.33 E228.9232
G1 X-5.33 Y11.56 E229.3225
G1 X-5.90 Y11.56 E229.3483
G1 X-11.56 Y5.90 E229.7110
G1 X-11.56 Y6.46 E229.7364
G1 X-6.46 Y11.56 E230.0632
G1 X-7.03 Y11.56 E230.0891
G1 X-11.56 Y7.03 E230.3794
G1 X-11.56 Y7.59 E230.4048
G1 X-7.59 Y11.56 E230.6592
G1 X-8.16 Y11.56 E230.6850
G1 X-11.56 Y8.16 E230.9029
G1 X-11.56 Y8.72 E230.9283
G1 X-8.72 Y11.56 E231.1103
G1 X-9.29 Y11.56 E231.1361
G1 X-11.56 Y9.29 E231.2816
G1 X-11.56 Y9.85 E231.3070
G1 X-9.85 Y11.56 E231.4166
G1 X-10.42 Y11.56 E231.4424
G1 X-11.56 Y10.42 E231.5155
