;generated by ffslicer 1.4.0 07/28/16 10:49:39
;start gcode
M118 X23.50 Y36.50 Z18.25 T0
M140 S0
M104 S220 T0
M104 S0 T1
M107
G90
G28
M132 X Y Z A B
G1 Z50.00 F600
G161 X Y F3300
M6 T0
M907 X100 Y100 Z40 A100 B20
;preExtrude: 0.20
G1 Z.20 F400
M108 T0
;preExtruder0
G1 X23.50 Y36.50 F7200
G1 X-23.50 Y36.50 E6.8157 F1200
G1 X-23.50 Y-36.50 E17.4017
;raft
;layer:0.21
G1 Z.21 F400
;shell
G1 E16.1017 F1800
G1 Z.42 F400
G1 X-17.90 Y-30.90 F4200
G1 Z.21 F400
G1 E17.4017 F1800
G1 X-17.90 Y-30.90 F4200
G1 X-16.90 Y-30.90 E17.4398 F1200
G1 X-15.90 Y-30.90 E17.4778
G1 X-14.90 Y-30.90 E17.5159
G1 X-13.90 Y-30.90 E17.5540
G1 X-12.90 Y-30.90 E17.5920
G1 X17.90 Y-30.90 E18.7645
G1 X17.90 Y30.90 E21.1170
G1 X-17.90 Y30.90 E22.4797
G1 X-17.90 Y9.23 E23.3046
G1 X-14.80 Y9.23 E23.4226
G1 X-14.23 Y9.90 E23.4561
G1 X-13.39 Y10.74 E23.5013
G1 X-12.49 Y11.50 E23.5462
G1 X-11.52 Y12.20 E23.5917
G1 X-10.51 Y12.81 E23.6366
G1 X-9.45 Y13.33 E23.6816
G1 X-8.34 Y13.77 E23.7270
G1 X-7.22 Y14.12 E23.7717
G1 X-6.05 Y14.38 E23.8173
G1 X-4.88 Y14.53 E23.8622
G1 X-3.69 Y14.60 E23.9076
G1 X-2.51 Y14.57 E23.9525
G1 X-1.34 Y14.44 E23.9973
G1 X-.16 Y14.21 E24.0431
G1 X.98 Y13.90 E24.0881
G1 X2.08 Y13.49 E24.1328
G1 X3.17 Y12.99 E24.1784
G1 X4.20 Y12.41 E24.2234
G1 X5.19 Y11.74 E24.2689
G1 X6.10 Y11.00 E24.3136
G1 X6.96 Y10.18 E24.3588
G1 X7.75 Y9.30 E24.4038
G1 X8.48 Y8.35 E24.4494
G1 X9.11 Y7.36 E24.4941
G1 X9.66 Y6.31 E24.5392
G1 X10.14 Y5.22 E24.5846
G1 X10.52 Y4.09 E24.6299
G1 X10.80 Y2.94 E24.6750
G1 X10.99 Y1.78 E24.7197
G1 X11.09 Y.58 E24.7656
G1 X11.09 Y-.59 E24.8101
G1 X10.99 Y-1.78 E24.8556
G1 X10.80 Y-2.94 E24.9003
G1 X10.51 Y-4.09 E24.9455
G1 X10.13 Y-5.22 E24.9908
G1 X9.66 Y-6.32 E25.0364
G1 X9.11 Y-7.37 E25.0815
G1 X8.48 Y-8.35 E25.1258
G1 X7.75 Y-9.31 E25.1718
G1 X6.96 Y-10.19 E25.2168
G1 X6.10 Y-11.00 E25.2617
G1 X5.19 Y-11.74 E25.3064
G1 X4.20 Y-12.41 E25.3519
G1 X3.17 Y-12.99 E25.3969
G1 X2.08 Y-13.49 E25.4425
G1 X.98 Y-13.90 E25.4872
G1 X-.16 Y-14.21 E25.5322
G1 X-1.34 Y-14.44 E25.5780
G1 X-2.51 Y-14.57 E25.6228
G1 X-3.69 Y-14.60 E25.6677
G1 X-4.88 Y-14.53 E25.7131
G1 X-6.05 Y-14.38 E25.7580
G1 X-7.22 Y-14.12 E25.8036
G1 X-8.34 Y-13.77 E25.8483
G1 X-9.45 Y-13.33 E25.8937
G1 X-10.51 Y-12.81 E25.9387
G1 X-11.52 Y-12.20 E25.9836
G1 X-12.50 Y-11.50 E26.0294
G1 X-13.40 Y-10.73 E26.0745
G1 X-14.23 Y-9.90 E26.1192
G1 X-14.80 Y-9.22 E26.1530
G1 X-17.90 Y-9.22 E26.2710
G1 X-17.90 Y-20.80 E26.7118
G1 X-17.90 Y-22.80 E26.7879
G1 X-17.90 Y-24.80 E26.8641
G1 X-17.90 Y-26.80 E26.9402
G1 X-17.90 Y-28.80 E27.0163
G1 X-17.90 Y-30.80 E27.0925 F720
G1 X-18.30 Y-31.30 E27.0925 F300
G1 X18.30 Y-31.30 E28.4857 F1200
G1 X18.30 Y31.30 E30.8686
G1 X-18.30 Y31.30 E32.2619
G1 X-18.30 Y8.83 E33.1172
G1 X-14.62 Y8.83 E33.2573
G1 X-13.94 Y9.63 E33.2972
G1 X-13.12 Y10.45 E33.3414
G1 X-12.25 Y11.19 E33.3849
G1 X-11.31 Y11.86 E33.4288
G1 X-10.32 Y12.45 E33.4727
G1 X-9.28 Y12.97 E33.5169
G1 X-8.21 Y13.40 E33.5608
G1 X-7.11 Y13.73 E33.6046
G1 X-5.98 Y13.98 E33.6486
G1 X-4.84 Y14.14 E33.6924
G1 X-3.69 Y14.20 E33.7363
G1 X-2.54 Y14.17 E33.7801
G1 X-1.39 Y14.04 E33.8241
G1 X-.25 Y13.82 E33.8683
G1 X.85 Y13.52 E33.9117
G1 X1.93 Y13.12 E33.9556
G1 X2.98 Y12.63 E33.9997
G1 X3.99 Y12.06 E34.0438
G1 X4.94 Y11.42 E34.0874
G1 X5.84 Y10.70 E34.1313
G1 X6.68 Y9.90 E34.1754
G1 X7.45 Y9.04 E34.2194
G1 X8.15 Y8.12 E34.2634
G1 X8.76 Y7.16 E34.3067
G1 X9.30 Y6.14 E34.3506
G1 X9.76 Y5.07 E34.3950
G1 X10.13 Y3.98 E34.4388
G1 X10.41 Y2.86 E34.4827
G1 X10.60 Y1.72 E34.5267
G1 X10.69 Y.57 E34.5706
G1 X10.69 Y-.58 E34.6144
G1 X10.59 Y-1.73 E34.6583
G1 X10.41 Y-2.87 E34.7023
G1 X10.13 Y-3.99 E34.7462
G1 X9.76 Y-5.07 E34.7897
G1 X9.30 Y-6.14 E34.8340
G1 X8.76 Y-7.16 E34.8779
G1 X8.15 Y-8.12 E34.9212
G1 X7.44 Y-9.05 E34.9658
G1 X6.67 Y-9.91 E35.0097
G1 X5.84 Y-10.70 E35.0533
G1 X4.94 Y-11.42 E35.0972
G1 X3.99 Y-12.06 E35.1408
G1 X2.98 Y-12.63 E35.1850
G1 X1.93 Y-13.12 E35.2291
G1 X.85 Y-13.52 E35.2729
G1 X-.25 Y-13.82 E35.3163
G1 X-1.39 Y-14.04 E35.3605
G1 X-2.54 Y-14.17 E35.4046
G1 X-3.69 Y-14.20 E35.4484
G1 X-4.84 Y-14.14 E35.4922
G1 X-5.98 Y-13.98 E35.5360
G1 X-7.11 Y-13.73 E35.5801
G1 X-8.21 Y-13.40 E35.6238
G1 X-9.28 Y-12.97 E35.6677
G1 X-10.32 Y-12.45 E35.7119
G1 X-11.31 Y-11.86 E35.7558
G1 X-12.25 Y-11.18 E35.8000
G1 X-13.12 Y-10.44 E35.8435
G1 X-13.94 Y-9.62 E35.8876
G1 X-14.62 Y-8.82 E35.9276
G1 X-18.30 Y-8.82 E36.0677
G1 X-18.30 Y-31.20 E36.9196
G1 X-17.90 Y-30.80 E36.9267 F300
;infill
G1 E35.6267 F1800
G1 X-17.50 Y-30.56 F4200
G1 E36.9267 F1800
G1 X-17.50 Y-30.56 F4200
G1 X-17.56 Y-30.50 E36.9300 F1200
G1 X-17.56 Y-29.93 E36.9517
G1 X-16.93 Y-30.56 E36.9856
G1 X-16.37 Y-30.56 E37.0069
G1 X-17.56 Y-29.36 E37.0712
G1 X-17.56 Y-28.80 E37.0925
G1 X-15.80 Y-30.56 E37.1873
G1 X-15.23 Y-30.56 E37.2090
G1 X-17.56 Y-28.23 E37.3344
G1 X-17.56 Y-27.67 E37.3557
G1 X-14.67 Y-30.56 E37.5113
G1 X-14.10 Y-30.56 E37.5330
G1 X-17.56 Y-27.10 E37.7193
G1 X-17.56 Y-26.54 E37.7406
G1 X-13.54 Y-30.56 E37.9570
G1 X-12.97 Y-30.56 E37.9787
G1 X-17.56 Y-25.97 E38.2258
G1 X-17.56 Y-25.40 E38.2475
G1 X-12.41 Y-30.56 E38.5250
G1 X-11.84 Y-30.56 E38.5467
G1 X-17.56 Y-24.84 E38.8547
G1 X-17.56 Y-24.27 E38.8763
G1 X-11.27 Y-30.56 E39.2150
G1 X-10.71 Y-30.56 E39.2363
G1 X-17.56 Y-23.71 E39.6050
G1 X-17.56 Y-23.14 E39.6267
G1 X-10.14 Y-30.56 E40.0262
G1 X-9.58 Y-30.56 E40.0475
G1 X-17.56 Y-22.58 E40.4771
G1 X-17.56 Y-22.01 E40.4988
G1 X-9.01 Y-30.56 E40.9591
G1 X-8.45 Y-30.56 E40.9804
G1 X-17.56 Y-21.45 E41.4708
G1 X-17.56 Y-20.88 E41.4925
G1 X-7.88 Y-30.56 E42.0136
G1 X-7.31 Y-30.56 E42.0353
G1 X-17.56 Y-20.31 E42.5871
G1 X-17.56 Y-19.75 E42.6084
G1 X-6.75 Y-30.56 E43.1904
G1 X-6.18 Y-30.56 E43.2121
G1 X-17.56 Y-19.18 E43.8247
G1 X-17.56 Y-18.62 E43.8460
G1 X-5.62 Y-30.56 E44.4888
G1 X-5.05 Y-30.56 E44.5105
G1 X-17.56 Y-18.05 E45.1840
G1 X-17.56 Y-17.49 E45.2053
G1 X-4.49 Y-30.56 E45.9089
G1 X-3.92 Y-30.56 E45.9306
G1 X-17.56 Y-16.92 E46.6649
G1 X-17.56 Y-16.35 E46.6866
G1 X-3.35 Y-30.56 E47.4515
G1 X-2.79 Y-30.56 E47.4729
G1 X-17.56 Y-15.79 E48.2680
G1 X-17.56 Y-15.22 E48.2897
G1 X-2.22 Y-30.56 E49.1155
G1 X-1.66 Y-30.56 E49.1368
G1 X-17.56 Y-14.66 E49.9928
G1 X-17.56 Y-14.09 E50.0145
G1 X-1.09 Y-30.56 E50.9011
G1 X-.53 Y-30.56 E50.9224
G1 X-17.56 Y-13.53 E51.8392
G1 X-17.56 Y-12.96 E51.8609
G1 X.04 Y-30.56 E52.8084
G1 X.61 Y-30.56 E52.8301
G1 X-17.56 Y-12.39 E53.8082
G1 X-17.56 Y-11.83 E53.8296
G1 X1.17 Y-30.56 E54.8379
G1 X1.74 Y-30.56 E54.8596
G1 X-17.56 Y-11.26 E55.8986
G1 X-17.56 Y-10.70 E55.9199
G1 X2.30 Y-30.56 E56.9890
G1 X2.87 Y-30.56 E57.0107
G1 X-17.56 Y-10.13 E58.1105
G1 X-17.56 Y-9.57 E58.1319
G1 X3.43 Y-30.56 E59.2618
G1 X4.00 Y-30.56 E59.2835
G1 X-17.00 Y-9.56 E60.4140
G1 X-16.43 Y-9.56 E60.4357
G1 X4.57 Y-30.56 E61.5662
G1 X5.13 Y-30.56 E61.5876
G1 X-15.86 Y-9.56 E62.7178
G1 X-15.30 Y-9.56 E62.7391
G1 X5.70 Y-30.56 E63.8696
G1 X6.26 Y-30.56 E63.8909
G1 X-12.09 Y-12.21 E64.8788
G1 X-11.71 Y-12.48 E64.8965
G1 X-10.67 Y-13.11 E64.9428
G1 X-10.58 Y-13.15 E64.9466
G1 X6.83 Y-30.56 E65.8838
G1 X7.39 Y-30.56 E65.9051
G1 X-9.48 Y-13.69 E66.8133
G1 X-8.54 Y-14.06 E66.8518
G1 X7.96 Y-30.56 E67.7400
G1 X8.52 Y-30.56 E67.7613
G1 X-7.71 Y-14.32 E68.6353
G1 X-7.31 Y-14.45 E68.6513
G1 X-6.94 Y-14.53 E68.6658
G1 X9.09 Y-30.56 E69.5287
G1 X9.66 Y-30.56 E69.5504
G1 X-6.22 Y-14.69 E70.4050
G1 X-6.12 Y-14.71 E70.4089
G1 X-5.55 Y-14.78 E70.4308
G1 X10.22 Y-30.56 E71.2800
G1 X10.79 Y-30.56 E71.3017
G1 X-4.90 Y-14.87 E72.1463
G1 X-4.30 Y-14.90 E72.1692
G1 X11.35 Y-30.56 E73.0120
G1 X11.92 Y-30.56 E73.0336
G1 X-3.70 Y-14.94 E73.8745
G1 X-3.70 Y-14.94 E73.8745
G1 X-3.15 Y-14.92 E73.8955
G1 X12.48 Y-30.56 E74.7372
G1 X13.05 Y-30.56 E74.7589
G1 X-2.60 Y-14.91 E75.6014
G1 X-2.48 Y-14.91 E75.6059
G1 X-2.08 Y-14.86 E75.6213
G1 X13.62 Y-30.56 E76.4665
G1 X14.18 Y-30.56 E76.4878
G1 X-1.57 Y-14.80 E77.3359
G1 X-1.28 Y-14.77 E77.3470
G1 X-1.08 Y-14.73 E77.3548
G1 X14.75 Y-30.56 E78.2070
G1 X15.31 Y-30.56 E78.2283
G1 X-.60 Y-14.64 E79.0851
G1 X-.13 Y-14.55 E79.1033
G1 X15.88 Y-30.56 E79.9652
G1 X16.44 Y-30.56 E79.9865
G1 X.32 Y-14.43 E80.8546
G1 X.76 Y-14.31 E80.8719
G1 X17.01 Y-30.56 E81.7467
G1 X17.56 Y-30.56 E81.7677
G1 X17.56 Y-30.54 E81.7684
G1 X1.20 Y-14.18 E82.6491
G1 X1.61 Y-14.02 E82.6659
G1 X17.56 Y-29.98 E83.5248
G1 X17.56 Y-29.41 E83.5465
G1 X2.02 Y-13.87 E84.3831
G1 X2.21 Y-13.80 E84.3908
G1 X2.42 Y-13.71 E84.3995
G1 X17.56 Y-28.85 E85.2145
G1 X17.56 Y-28.28 E85.2362
G1 X2.81 Y-13.53 E86.0303
G1 X3.19 Y-13.35 E86.0463
G1 X17.56 Y-27.71 E86.8196
G1 X17.56 Y-27.15 E86.8409
G1 X3.57 Y-13.15 E87.5943
G1 X3.93 Y-12.95 E87.6100
G1 X17.56 Y-26.58 E88.3438
G1 X17.56 Y-26.02 E88.3651
G1 X4.29 Y-12.74 E89.0797
G1 X4.38 Y-12.70 E89.0835
G1 X4.63 Y-12.52 E89.0952
G1 X17.56 Y-25.45 E89.7913
G1 X17.56 Y-24.89 E89.8126
G1 X4.97 Y-12.29 E90.4906
G1 X5.30 Y-12.06 E90.5059
G1 X17.56 Y-24.32 E91.1659
G1 X17.56 Y-23.75 E91.1876
G1 X5.62 Y-11.82 E91.8301
G1 X5.94 Y-11.57 E91.8456
G1 X17.56 Y-23.19 E92.4711
G1 X17.56 Y-22.62 E92.4928
G1 X6.25 Y-11.31 E93.1017
G1 X6.32 Y-11.26 E93.1050
G1 X6.55 Y-11.04 E93.1171
G1 X17.56 Y-22.06 E93.7101
G1 X17.56 Y-21.49 E93.7318
G1 X6.84 Y-10.77 E94.3089
G1 X7.13 Y-10.49 E94.3242
G1 X17.56 Y-20.93 E94.8860
G1 X17.56 Y-20.36 E94.9077
G1 X7.40 Y-10.20 E95.4546
G1 X7.67 Y-9.90 E95.4700
G1 X17.56 Y-19.79 E96.0024
G1 X17.56 Y-19.23 E96.0237
G1 X7.94 Y-9.60 E96.5419
G1 X8.01 Y-9.52 E96.5459
G1 X8.19 Y-9.29 E96.5570
G1 X17.56 Y-18.66 E97.0615
G1 X17.56 Y-18.10 E97.0828
G1 X8.43 Y-8.97 E97.5743
G1 X8.68 Y-8.65 E97.5897
G1 X17.56 Y-17.53 E98.0678
G1 X17.56 Y-16.97 E98.0891
G1 X8.90 Y-8.31 E98.5553
G1 X9.13 Y-7.97 E98.5709
G1 X17.56 Y-16.40 E99.0248
G1 X17.56 Y-15.83 E99.0465
G1 X9.35 Y-7.62 E99.4884
G1 X9.40 Y-7.54 E99.4920
G1 X9.55 Y-7.26 E99.5041
G1 X17.56 Y-15.27 E99.9353
G1 X17.56 Y-14.70 E99.9570
G1 X9.74 Y-6.89 E100.3777
G1 X9.94 Y-6.52 E100.3937
G1 X17.56 Y-14.14 E100.8040
G1 X17.56 Y-13.57 E100.8256
G1 X10.11 Y-6.12 E101.2267
G1 X10.28 Y-5.73 E101.2429
G1 X17.56 Y-13.01 E101.6348
G1 X17.56 Y-12.44 E101.6565
G1 X10.45 Y-5.33 E102.0393
G1 X10.46 Y-5.33 E102.0396
G1 X10.60 Y-4.91 E102.0565
G1 X17.56 Y-11.87 E102.4312
G1 X17.56 Y-11.31 E102.4525
G1 X10.74 Y-4.49 E102.8196
G1 X10.84 Y-4.19 E102.8317
G1 X10.87 Y-4.05 E102.8371
G1 X17.56 Y-10.74 E103.1973
G1 X17.56 Y-10.18 E103.2186
G1 X10.98 Y-3.60 E103.5728
G1 X11.10 Y-3.15 E103.5906
G1 X17.56 Y-9.61 E103.9383
G1 X17.56 Y-9.05 E103.9596
G1 X11.19 Y-2.67 E104.3028
G1 X11.27 Y-2.19 E104.3214
G1 X17.56 Y-8.48 E104.6600
G1 X17.56 Y-7.91 E104.6817
G1 X11.34 Y-1.69 E105.0165
G1 X11.38 Y-1.17 E105.0364
G1 X17.56 Y-7.35 E105.3691
G1 X17.56 Y-6.78 E105.3908
G1 X11.42 Y-.65 E105.7210
G1 X11.43 Y-.61 E105.7226
G1 X11.43 Y-.09 E105.7424
G1 X17.56 Y-6.22 E106.0724
G1 X17.56 Y-5.65 E106.0941
G1 X11.43 Y.48 E106.4241
G1 X11.43 Y.60 E106.4287
G1 X11.39 Y1.09 E106.4474
G1 X17.56 Y-5.09 E106.7798
G1 X17.56 Y-4.52 E106.8015
G1 X11.34 Y1.70 E107.1363
G1 X11.33 Y1.81 E107.1405
G1 X11.24 Y2.37 E107.1621
G1 X17.56 Y-3.95 E107.5024
G1 X17.56 Y-3.39 E107.5237
G1 X11.12 Y3.05 E107.8704
G1 X10.94 Y3.80 E107.8997
G1 X17.56 Y-2.82 E108.2561
G1 X17.56 Y-2.26 E108.2774
G1 X10.70 Y4.60 E108.6467
G1 X10.46 Y5.33 E108.6760
G1 X10.39 Y5.47 E108.6819
G1 X17.56 Y-1.69 E109.0677
G1 X17.56 Y-1.13 E109.0890
G1 X9.96 Y6.47 E109.4981
G1 X9.40 Y7.53 E109.5437
G1 X9.29 Y7.71 E109.5518
G1 X17.56 Y-.56 E109.9970
G1 X17.56 Y.00 E110.0183
G1 X7.73 Y9.84 E110.5478
G1 E109.2478 F1800
G1 X17.55 Y30.56 F4200
G1 E110.5478 F1800
G1 X17.55 Y30.56 F4200
G1 X17.56 Y30.55 E110.5483 F1200
G1 X17.56 Y29.99 E110.5696
G1 X16.99 Y30.56 E110.6003
G1 X16.42 Y30.56 E110.6220
G1 X17.56 Y29.42 E110.6834
G1 X17.56 Y28.85 E110.7051
G1 X15.86 Y30.56 E110.7969
G1 X15.29 Y30.56 E110.8185
G1 X17.56 Y28.29 E110.9407
G1 X17.56 Y27.72 E110.9624
G1 X14.72 Y30.56 E111.1153
G1 X14.16 Y30.56 E111.1367
G1 X17.56 Y27.16 E111.3197
G1 X17.56 Y26.59 E111.3414
G1 X13.59 Y30.56 E111.5551
G1 X13.03 Y30.56 E111.5764
G1 X17.56 Y26.03 E111.8203
G1 X17.56 Y25.46 E111.8420
G1 X12.46 Y30.56 E112.1165
G1 X11.90 Y30.56 E112.1379
G1 X17.56 Y24.89 E112.4428
G1 X17.56 Y24.33 E112.4641
G1 X11.33 Y30.56 E112.7995
G1 X10.76 Y30.56 E112.8212
G1 X17.56 Y23.76 E113.1873
G1 X17.56 Y23.20 E113.2086
G1 X10.20 Y30.56 E113.6048
G1 X9.63 Y30.56 E113.6265
G1 X17.56 Y22.63 E114.0534
G1 X17.56 Y22.07 E114.0748
G1 X9.07 Y30.56 E114.5318
G1 X8.50 Y30.56 E114.5535
G1 X17.56 Y21.50 E115.0412
G1 X17.56 Y20.93 E115.0629
G1 X7.94 Y30.56 E115.5811
G1 X7.37 Y30.56 E115.6028
G1 X17.56 Y20.37 E116.1513
G1 X17.56 Y19.80 E116.1730
G1 X6.80 Y30.56 E116.7523
G1 X6.24 Y30.56 E116.7736
G1 X17.56 Y19.24 E117.3830
G1 X17.56 Y18.67 E117.4047
G1 X5.67 Y30.56 E118.0448
G1 X5.11 Y30.56 E118.0661
G1 X17.56 Y18.11 E118.7363
G1 X17.56 Y17.54 E118.7580
G1 X4.54 Y30.56 E119.4589
G1 X3.98 Y30.56 E119.4803
G1 X17.56 Y16.98 E120.2113
G1 X17.56 Y16.41 E120.2330
G1 X3.41 Y30.56 E120.9948
G1 X2.84 Y30.56 E121.0165
G1 X17.56 Y15.84 E121.8089
G1 X17.56 Y15.28 E121.8302
G1 X2.28 Y30.56 E122.6528
G1 X1.71 Y30.56 E122.6745
G1 X17.56 Y14.71 E123.5277
G1 X17.56 Y14.15 E123.5491
G1 X1.15 Y30.56 E124.4325
G1 X.58 Y30.56 E124.4542
G1 X17.56 Y13.58 E125.3683
G1 X17.56 Y13.02 E125.3896
G1 X.02 Y30.56 E126.3338
G1 X-.55 Y30.56 E126.3555
G1 X17.56 Y12.45 E127.3305
G1 X17.56 Y11.88 E127.3522
G1 X-1.12 Y30.56 E128.3578
G1 X-1.68 Y30.56 E128.3791
G1 X17.56 Y11.32 E129.4149
G1 X17.56 Y10.75 E129.4366
G1 X-2.25 Y30.56 E130.5030
G1 X-2.81 Y30.56 E130.5243
G1 X17.56 Y10.19 E131.6209
G1 X17.56 Y9.62 E131.6426
G1 X-3.38 Y30.56 E132.7699
G1 X-3.94 Y30.56 E132.7912
G1 X17.56 Y9.06 E133.9486
G1 X17.56 Y8.49 E133.9703
G1 X-4.51 Y30.56 E135.1584
G1 X-5.07 Y30.56 E135.1798
G1 X17.56 Y7.92 E136.3983
G1 X17.56 Y7.36 E136.4196
G1 X-5.64 Y30.56 E137.6685
G1 X-6.21 Y30.56 E137.6902
G1 X17.56 Y6.79 E138.9699
G1 X17.56 Y6.23 E138.9912
G1 X-6.77 Y30.56 E140.3010
G1 X-7.34 Y30.56 E140.3227
G1 X17.56 Y5.66 E141.6631
G1 X17.56 Y5.10 E141.6844
G1 X-7.90 Y30.56 E143.0551
G1 X-8.47 Y30.56 E143.0768
G1 X17.56 Y4.53 E144.4780
G1 X17.56 Y3.96 E144.4998
G1 X-9.03 Y30.56 E145.9315
G1 X-9.60 Y30.56 E145.9532
G1 X17.56 Y3.40 E147.4153
G1 X17.56 Y2.83 E147.4370
G1 X-10.17 Y30.56 E148.9298
G1 X-10.73 Y30.56 E148.9511
G1 X17.56 Y2.27 E150.4741
G1 X17.56 Y1.70 E150.4958
G1 X-11.30 Y30.56 E152.0494
G1 X-11.86 Y30.56 E152.0707
G1 X17.56 Y1.14 E153.6545
G1 X17.56 Y.57 E153.6762
G1 X-12.43 Y30.56 E155.2907
G1 X-12.99 Y30.56 E155.3120
G1 X6.26 Y11.31 E156.3483
G1 X5.38 Y12.01 E156.3911
G1 X4.38 Y12.70 E156.4374
G1 X4.21 Y12.79 E156.4447
G1 X-13.56 Y30.56 E157.4013
G1 X-14.13 Y30.56 E157.4230
G1 X2.99 Y13.44 E158.3446
G1 X2.21 Y13.80 E158.3774
G1 X1.98 Y13.89 E158.3868
G1 X-14.69 Y30.56 E159.2842
G1 X-15.26 Y30.56 E159.3059
G1 X1.08 Y14.22 E160.1855
G1 X.30 Y14.44 E160.2163
G1 X-15.82 Y30.56 E161.0841
G1 X-16.39 Y30.56 E161.1059
G1 X-.44 Y14.61 E161.9645
G1 X-1.14 Y14.75 E161.9917
G1 X-16.95 Y30.56 E162.8428
G1 X-17.52 Y30.56 E162.8645
G1 X-1.79 Y14.83 E163.7113
G1 X-2.43 Y14.90 E163.7358
G1 X-17.56 Y30.03 E164.5503
G1 X-17.56 Y29.47 E164.5716
G1 X-3.01 Y14.92 E165.3549
G1 X-3.59 Y14.93 E165.3770
G1 X-17.56 Y28.90 E166.1290
G1 X-17.56 Y28.33 E166.1507
G1 X-4.14 Y14.91 E166.8732
G1 X-4.67 Y14.88 E166.8934
G1 X-17.56 Y27.77 E167.5873
G1 X-17.56 Y27.20 E167.6090
G1 X-5.19 Y14.83 E168.2749
G1 X-5.69 Y14.77 E168.2941
G1 X-17.56 Y26.64 E168.9331
G1 X-17.56 Y26.07 E168.9548
G1 X-6.18 Y14.69 E169.5675
G1 X-6.64 Y14.59 E169.5854
G1 X-17.56 Y25.51 E170.1732
G1 X-17.56 Y24.94 E170.1949
G1 X-7.11 Y14.49 E170.7575
G1 X-7.30 Y14.45 E170.7649
G1 X-7.55 Y14.37 E170.7749
G1 X-17.56 Y24.37 E171.3135
G1 X-17.56 Y23.81 E171.3348
G1 X-7.99 Y14.24 E171.8500
G1 X-8.42 Y14.10 E171.8672
G1 X-17.56 Y23.24 E172.3592
G1 X-17.56 Y22.68 E172.3806
G1 X-8.83 Y13.94 E172.8508
G1 X-9.23 Y13.78 E172.8672
G1 X-17.56 Y22.11 E173.3156
G1 X-17.56 Y21.55 E173.3370
G1 X-9.63 Y13.62 E173.7638
G1 X-10.01 Y13.43 E173.7800
G1 X-17.56 Y20.98 E174.1865
G1 X-17.56 Y20.41 E174.2082
G1 X-10.39 Y13.25 E174.5939
G1 X-10.67 Y13.11 E174.6058
G1 X-10.76 Y13.05 E174.6099
G1 X-17.56 Y19.85 E174.9760
G1 X-17.56 Y19.28 E174.9977
G1 X-11.11 Y12.84 E175.3446
G1 X-11.47 Y12.63 E175.3605
