;generated by ffslicer 1.4.0 08/06/16 17:12:57
;start gcode
M118 X32.00 Y32.00 Z43.00 T0
M140 S0
M104 S220 T0
M104 S0 T1
M107
G90
G28
M132 X Y Z A B
G1 Z50.00 F600
G161 X Y F3300
M6 T0
M907 X100 Y100 Z40 A100 B20
;preExtrude: 0.20
G1 Z.20 F400
M108 T0
;preExtruder0
G1 X32.00 Y32.00 F7200
G1 X-32.00 Y32.00 E9.2809 F1200
G1 X-32.00 Y-24.00 E17.4017
;raft
;layer:0.25
G1 Z.25 F400
;shell
G1 E16.1017 F1800
G1 Z.50 F400
G1 X-25.60 Y-25.60 F4200
G1 Z.25 F400
G1 E17.4017 F1800
G1 X-25.60 Y-25.60 F4200
G1 X-25.60 Y-24.60 E17.4470 F1200
G1 X-25.60 Y-23.60 E17.4923
G1 X-25.60 Y-22.60 E17.5377
G1 X-25.60 Y-21.60 E17.5830
G1 X-25.60 Y-20.60 E17.6283
G1 X-25.60 Y25.60 E19.7219
G1 X25.60 Y25.60 E22.0422
G1 X25.60 Y-25.60 E24.3624
G1 X-15.50 Y-25.60 E26.2249
G1 X-17.50 Y-25.60 E26.3155
G1 X-19.50 Y-25.60 E26.4062
G1 X-21.50 Y-25.60 E26.4968
G1 X-23.50 Y-25.60 E26.5874
G1 X-25.50 Y-25.60 E26.6781 F720
G1 X-25.20 Y-25.20 E26.6781 F300
G1 X-25.20 Y25.20 E28.9621 F1200
G1 X25.20 Y25.20 E31.2460
G1 X25.20 Y-25.20 E33.5300
G1 X-25.10 Y-25.20 E35.8094
G1 X-25.50 Y-25.60 E35.8180 F300
G1 E34.5180 F1800
G1 X-26.40 Y-26.40 F4200
G1 E35.8180 F1800
G1 X-26.40 Y-26.40 F4200
G1 X-25.40 Y-26.40 E35.8633 F1200
G1 X-24.40 Y-26.40 E35.9086
G1 X-23.40 Y-26.40 E35.9539
G1 X-22.40 Y-26.40 E35.9992
G1 X-21.40 Y-26.40 E36.0445
G1 X26.40 Y-26.40 E38.2107
G1 X26.40 Y26.40 E40.6034
G1 X-26.40 Y26.40 E42.9962
G1 X-26.40 Y-16.30 E44.9312
G1 X-26.40 Y-18.30 E45.0218
G1 X-26.40 Y-20.30 E45.1125
G1 X-26.40 Y-22.30 E45.2031
G1 X-26.40 Y-24.30 E45.2937
G1 X-26.40 Y-26.30 E45.3844 F720
G1 X-26.80 Y-26.80 E45.3844 F300
G1 X26.80 Y-26.80 E47.8134 F1200
G1 X26.80 Y26.80 E50.2423
G1 X-26.80 Y26.80 E52.6713
G1 X-26.80 Y-26.70 E55.0958
G1 X-26.40 Y-26.30 E55.1043 F300
;infill
G1 E53.8043 F1800
G1 X-25.73 Y-26.00 F4200
G1 E55.1043 F1800
G1 X-25.73 Y-26.00 F4200
G1 X25.73 Y-26.00 E57.4363 F1200
G1 X25.95 Y-25.95 E57.4465
G1 X26.00 Y-25.73 E57.4568
G1 X26.00 Y25.73 E59.7888
G1 X25.95 Y25.95 E59.7990
G1 X25.73 Y26.00 E59.8092
G1 X-25.73 Y26.00 E62.1412
G1 X-25.95 Y25.95 E62.1514
G1 X-26.00 Y25.73 E62.1617
G1 X-26.00 Y-25.73 E64.4937
G1 X-25.95 Y-25.95 E64.5039
G1 X-25.73 Y-26.00 E64.5141
;support-start
;shell
G1 E63.2141 F1800
G1 Z.50 F400
G1 X3.76 Y-24.25 F4200
G1 Z.25 F400
G1 E64.5141 F1800
G1 X3.76 Y-24.25 F4200
G1 X4.59 Y-23.69 E64.5595 F1200
G1 X4.65 Y-23.65 E64.5628
G1 X5.17 Y-22.88 E64.6049
G1 X5.25 Y-22.76 E64.6114
G1 X5.41 Y-21.93 E64.6497
G1 X5.46 Y-21.70 E64.6604
G1 X5.31 Y-20.94 E64.6955
G1 X5.25 Y-20.64 E64.7094
G1 X4.87 Y-20.07 E64.7404
G1 X4.69 Y-19.80 E64.7551
G1 X5.25 Y-18.96 E64.8009
G1 X5.46 Y-17.90 E64.8498
G1 X5.25 Y-16.84 E64.8988
G1 X4.69 Y-16.00 E64.9445
G1 X5.25 Y-15.16 E64.9903
G1 X5.46 Y-14.10 E65.0393
G1 X5.25 Y-13.04 E65.0882
G1 X4.69 Y-12.20 E65.1340
G1 X5.25 Y-11.36 E65.1797
G1 X5.46 Y-10.30 E65.2287
G1 X5.25 Y-9.24 E65.2777
G1 X4.69 Y-8.40 E65.3234
G1 X5.25 Y-7.56 E65.3692
G1 X5.46 Y-6.50 E65.4181
G1 X5.20 Y-5.20 E65.4782
G1 X6.50 Y-5.46 E65.5383
G1 X7.56 Y-5.25 E65.5873
G1 X8.40 Y-4.69 E65.6330
G1 X9.24 Y-5.25 E65.6788
G1 X10.30 Y-5.46 E65.7277
G1 X11.36 Y-5.25 E65.7767
G1 X12.20 Y-4.69 E65.8225
G1 X13.04 Y-5.25 E65.8682
G1 X14.10 Y-5.46 E65.9172
G1 X15.16 Y-5.25 E65.9661
G1 X16.00 Y-4.69 E66.0119
G1 X16.84 Y-5.25 E66.0576
G1 X17.90 Y-5.46 E66.1066
G1 X18.96 Y-5.25 E66.1556
G1 X19.80 Y-4.69 E66.2013
G1 X20.64 Y-5.25 E66.2471
G1 X21.70 Y-5.46 E66.2960
G1 X22.76 Y-5.25 E66.3450
G1 X23.65 Y-4.65 E66.3936
G1 X24.25 Y-3.76 E66.4423
G1 X24.46 Y-2.70 E66.4913
G1 X24.25 Y-1.64 E66.5402
G1 X23.65 Y-.75 E66.5889
G1 X22.53 Y.00 E66.6500
G1 X23.65 Y.75 E66.7110
G1 X24.25 Y1.64 E66.7597
G1 X24.46 Y2.70 E66.8087
G1 X24.25 Y3.76 E66.8576
G1 X23.65 Y4.65 E66.9063
G1 X22.76 Y5.25 E66.9549
G1 X21.70 Y5.46 E67.0039
G1 X20.64 Y5.25 E67.0528
G1 X19.80 Y4.69 E67.0986
G1 X18.96 Y5.25 E67.1443
G1 X17.90 Y5.46 E67.1933
G1 X16.84 Y5.25 E67.2423
G1 X16.00 Y4.69 E67.2880
G1 X15.16 Y5.25 E67.3338
G1 X14.10 Y5.46 E67.3827
G1 X13.04 Y5.25 E67.4317
G1 X12.20 Y4.69 E67.4775
G1 X11.36 Y5.25 E67.5232
G1 X10.30 Y5.46 E67.5722
G1 X9.24 Y5.25 E67.6212
G1 X8.40 Y4.69 E67.6669
G1 X7.56 Y5.25 E67.7126
G1 X6.50 Y5.46 E67.7616
G1 X5.20 Y5.20 E67.8217
G1 X5.46 Y6.50 E67.8818
G1 X5.25 Y7.56 E67.9307
G1 X4.69 Y8.40 E67.9765
G1 X5.25 Y9.24 E68.0222
G1 X5.46 Y10.30 E68.0712
G1 X5.25 Y11.36 E68.1202
G1 X4.69 Y12.20 E68.1659
G1 X5.25 Y13.04 E68.2117
G1 X5.46 Y14.10 E68.2607
G1 X5.25 Y15.16 E68.3096
G1 X4.69 Y16.00 E68.3554
G1 X5.25 Y16.84 E68.4011
G1 X5.46 Y17.90 E68.4501
G1 X5.25 Y18.96 E68.4991
G1 X4.69 Y19.80 E68.5448
G1 X5.25 Y20.64 E68.5906
G1 X5.46 Y21.70 E68.6395
G1 X5.25 Y22.76 E68.6885
G1 X4.65 Y23.65 E68.7371
G1 X3.76 Y24.25 E68.7858
G1 X2.70 Y24.46 E68.8347
G1 X1.64 Y24.25 E68.8837
G1 X.75 Y23.65 E68.9324
G1 X.00 Y22.53 E68.9934
G1 X-.75 Y23.65 E69.0545
G1 X-1.64 Y24.25 E69.1032
G1 X-2.70 Y24.46 E69.1521
G1 X-3.76 Y24.25 E69.2011
G1 X-4.65 Y23.65 E69.2497
G1 X-5.25 Y22.76 E69.2984
G1 X-5.46 Y21.70 E69.3474
G1 X-5.25 Y20.64 E69.3963
G1 X-4.69 Y19.80 E69.4421
G1 X-5.25 Y18.96 E69.4878
G1 X-5.46 Y17.90 E69.5368
G1 X-5.25 Y16.84 E69.5858
G1 X-4.69 Y16.00 E69.6315
G1 X-5.25 Y15.16 E69.6773
G1 X-5.46 Y14.10 E69.7262
G1 X-5.25 Y13.04 E69.7752
G1 X-4.69 Y12.20 E69.8209
G1 X-5.25 Y11.36 E69.8667
G1 X-5.46 Y10.30 E69.9157
G1 X-5.25 Y9.24 E69.9646
G1 X-4.69 Y8.40 E70.0104
G1 X-5.25 Y7.56 E70.0561
G1 X-5.46 Y6.50 E70.1051
G1 X-5.20 Y5.20 E70.1652
G1 X-6.50 Y5.46 E70.2253
G1 X-7.56 Y5.25 E70.2742
G1 X-8.40 Y4.69 E70.3200
G1 X-9.24 Y5.25 E70.3657
G1 X-10.30 Y5.46 E70.4147
G1 X-11.36 Y5.25 E70.4637
G1 X-12.20 Y4.69 E70.5094
G1 X-13.04 Y5.25 E70.5552
G1 X-14.10 Y5.46 E70.6041
G1 X-15.16 Y5.25 E70.6531
G1 X-16.00 Y4.69 E70.6989
G1 X-16.84 Y5.25 E70.7446
G1 X-17.90 Y5.46 E70.7936
G1 X-18.96 Y5.25 E70.8425
G1 X-19.80 Y4.69 E70.8883
G1 X-20.64 Y5.25 E70.9340
G1 X-21.70 Y5.46 E70.9830
G1 X-22.76 Y5.25 E71.0320
G1 X-23.65 Y4.65 E71.0806
G1 X-24.25 Y3.76 E71.1293
G1 X-24.46 Y2.70 E71.1782
G1 X-24.25 Y1.64 E71.2272
G1 X-23.65 Y.75 E71.2758
G1 X-22.53 Y.00 E71.3369
G1 X-23.65 Y-.75 E71.3980
G1 X-24.25 Y-1.64 E71.4467
G1 X-24.46 Y-2.70 E71.4956
G1 X-24.25 Y-3.76 E71.5446
G1 X-23.65 Y-4.65 E71.5932
G1 X-22.76 Y-5.25 E71.6419
G1 X-21.70 Y-5.46 E71.6908
G1 X-20.64 Y-5.25 E71.7398
G1 X-19.80 Y-4.69 E71.7856
G1 X-18.96 Y-5.25 E71.8313
G1 X-17.90 Y-5.46 E71.8803
G1 X-16.84 Y-5.25 E71.9292
G1 X-16.00 Y-4.69 E71.9750
G1 X-15.16 Y-5.25 E72.0207
G1 X-14.10 Y-5.46 E72.0697
G1 X-13.04 Y-5.25 E72.1187
G1 X-12.20 Y-4.69 E72.1644
G1 X-11.36 Y-5.25 E72.2102
G1 X-10.30 Y-5.46 E72.2592
G1 X-9.24 Y-5.25 E72.3081
G1 X-8.40 Y-4.69 E72.3539
G1 X-7.56 Y-5.25 E72.3996
G1 X-6.50 Y-5.46 E72.4486
G1 X-5.20 Y-5.20 E72.5087
G1 X-5.46 Y-6.50 E72.5687
G1 X-5.25 Y-7.56 E72.6177
G1 X-4.69 Y-8.40 E72.6635
G1 X-5.25 Y-9.24 E72.7092
G1 X-5.46 Y-10.30 E72.7582
G1 X-5.25 Y-11.36 E72.8072
G1 X-4.69 Y-12.20 E72.8529
G1 X-5.25 Y-13.04 E72.8987
G1 X-5.46 Y-14.10 E72.9476
G1 X-5.25 Y-15.16 E72.9966
G1 X-4.69 Y-16.00 E73.0423
G1 X-5.25 Y-16.84 E73.0881
G1 X-5.46 Y-17.90 E73.1371
G1 X-5.25 Y-18.96 E73.1860
G1 X-4.69 Y-19.80 E73.2318
G1 X-5.25 Y-20.64 E73.2775
G1 X-5.46 Y-21.70 E73.3265
G1 X-5.25 Y-22.76 E73.3755
G1 X-4.65 Y-23.65 E73.4241
G1 X-3.76 Y-24.25 E73.4727
G1 X-2.70 Y-24.46 E73.5217
G1 X-1.64 Y-24.25 E73.5707
G1 X-.75 Y-23.65 E73.6193
G1 X.00 Y-22.53 E73.6804
G1 X.75 Y-23.65 E73.7415
G1 X1.64 Y-24.25 E73.7901
G1 X2.70 Y-24.46 E73.8391
G1 X3.76 Y-24.25 E73.8881
G1 E72.5881 F1800
G1 X3.60 Y-23.87 F4200
G1 E73.8881 F1800
G1 X3.60 Y-23.87 F4200
G1 X4.36 Y-23.36 E73.9296 F1200
G1 X4.87 Y-22.60 E73.9710
G1 X5.05 Y-21.70 E74.0126
G1 X4.87 Y-20.80 E74.0542
G1 X4.20 Y-19.80 E74.1088
G1 X4.87 Y-18.80 E74.1633
G1 X5.05 Y-17.90 E74.2049
G1 X4.87 Y-17.00 E74.2465
G1 X4.20 Y-16.00 E74.3010
G1 X4.87 Y-15.00 E74.3556
G1 X5.05 Y-14.10 E74.3972
G1 X4.87 Y-13.20 E74.4388
G1 X4.20 Y-12.20 E74.4933
G1 X4.87 Y-11.20 E74.5479
G1 X5.05 Y-10.30 E74.5895
G1 X4.87 Y-9.40 E74.6311
G1 X4.20 Y-8.40 E74.6856
G1 X4.87 Y-7.40 E74.7402
G1 X5.05 Y-6.50 E74.7817
G1 X4.69 Y-4.69 E74.8654
G1 X6.50 Y-5.05 E74.9490
G1 X7.40 Y-4.87 E74.9906
G1 X8.40 Y-4.20 E75.0452
G1 X9.40 Y-4.87 E75.0997
G1 X10.30 Y-5.05 E75.1413
G1 X11.20 Y-4.87 E75.1829
G1 X12.20 Y-4.20 E75.2374
G1 X13.20 Y-4.87 E75.2920
G1 X14.10 Y-5.05 E75.3336
G1 X15.00 Y-4.87 E75.3752
G1 X16.00 Y-4.20 E75.4297
G1 X17.00 Y-4.87 E75.4843
G1 X17.90 Y-5.05 E75.5259
G1 X18.80 Y-4.87 E75.5674
G1 X19.80 Y-4.20 E75.6220
G1 X20.80 Y-4.87 E75.6765
G1 X21.70 Y-5.05 E75.7181
G1 X22.60 Y-4.87 E75.7597
G1 X23.36 Y-4.36 E75.8012
G1 X23.87 Y-3.60 E75.8427
G1 X24.05 Y-2.70 E75.8843
G1 X23.87 Y-1.80 E75.9259
G1 X23.36 Y-1.04 E75.9673
G1 X21.81 Y.00 E76.0519
G1 X23.36 Y1.04 E76.1365
G1 X23.87 Y1.80 E76.1780
G1 X24.05 Y2.70 E76.2196
G1 X23.87 Y3.60 E76.2612
G1 X23.36 Y4.36 E76.3027
G1 X22.60 Y4.87 E76.3441
G1 X21.70 Y5.05 E76.3857
G1 X20.80 Y4.87 E76.4273
G1 X19.80 Y4.20 E76.4819
G1 X18.80 Y4.87 E76.5364
G1 X17.90 Y5.05 E76.5780
G1 X17.00 Y4.87 E76.6196
G1 X16.00 Y4.20 E76.6742
G1 X15.00 Y4.87 E76.7287
G1 X14.10 Y5.05 E76.7703
G1 X13.20 Y4.87 E76.8119
G1 X12.20 Y4.20 E76.8664
G1 X11.20 Y4.87 E76.9210
G1 X10.30 Y5.05 E76.9626
G1 X9.40 Y4.87 E77.0042
G1 X8.40 Y4.20 E77.0587
G1 X7.40 Y4.87 E77.1133
G1 X6.50 Y5.05 E77.1549
G1 X4.69 Y4.69 E77.2385
G1 X5.05 Y6.50 E77.3221
G1 X4.87 Y7.40 E77.3637
G1 X4.20 Y8.40 E77.4183
G1 X4.87 Y9.40 E77.4728
G1 X5.05 Y10.30 E77.5144
G1 X4.87 Y11.20 E77.5560
G1 X4.20 Y12.20 E77.6105
G1 X4.87 Y13.20 E77.6651
G1 X5.05 Y14.10 E77.7067
G1 X4.87 Y15.00 E77.7483
G1 X4.20 Y16.00 E77.8028
G1 X4.87 Y17.00 E77.8574
G1 X5.05 Y17.90 E77.8990
G1 X4.87 Y18.80 E77.9406
G1 X4.20 Y19.80 E77.9951
G1 X4.87 Y20.80 E78.0497
G1 X5.05 Y21.70 E78.0912
G1 X4.87 Y22.60 E78.1328
G1 X4.36 Y23.36 E78.1743
G1 X3.60 Y23.87 E78.2158
G1 X2.70 Y24.05 E78.2574
G1 X1.80 Y23.87 E78.2990
G1 X1.04 Y23.36 E78.3405
G1 X.00 Y21.81 E78.4250
G1 X-1.03 Y23.36 E78.5094
G1 X-1.80 Y23.87 E78.5512
G1 X-2.70 Y24.05 E78.5928
G1 X-3.60 Y23.87 E78.6344
G1 X-4.36 Y23.36 E78.6759
G1 X-4.87 Y22.60 E78.7174
G1 X-5.05 Y21.70 E78.7590
G1 X-4.87 Y20.80 E78.8006
G1 X-4.20 Y19.80 E78.8551
G1 X-4.87 Y18.80 E78.9096
G1 X-5.05 Y17.90 E78.9512
G1 X-4.87 Y17.00 E78.9928
G1 X-4.20 Y16.00 E79.0474
G1 X-4.87 Y15.00 E79.1019
G1 X-5.05 Y14.10 E79.1435
G1 X-4.87 Y13.20 E79.1851
G1 X-4.20 Y12.20 E79.2397
G1 X-4.87 Y11.20 E79.2942
G1 X-5.05 Y10.30 E79.3358
G1 X-4.87 Y9.40 E79.3774
G1 X-4.20 Y8.40 E79.4319
G1 X-4.87 Y7.40 E79.4865
G1 X-5.05 Y6.50 E79.5281
G1 X-4.69 Y4.69 E79.6117
G1 X-6.50 Y5.05 E79.6954
G1 X-7.40 Y4.87 E79.7369
G1 X-8.40 Y4.20 E79.7915
G1 X-9.40 Y4.87 E79.8460
G1 X-10.30 Y5.05 E79.8876
G1 X-11.20 Y4.87 E79.9292
G1 X-12.20 Y4.20 E79.9838
G1 X-13.20 Y4.87 E80.0383
G1 X-14.10 Y5.05 E80.0799
G1 X-15.00 Y4.87 E80.1215
G1 X-16.00 Y4.20 E80.1761
G1 X-17.00 Y4.87 E80.2306
G1 X-17.90 Y5.05 E80.2722
G1 X-18.80 Y4.87 E80.3138
G1 X-19.80 Y4.20 E80.3683
G1 X-20.80 Y4.87 E80.4229
G1 X-21.70 Y5.05 E80.4645
G1 X-22.60 Y4.87 E80.5061
G1 X-23.36 Y4.36 E80.5475
G1 X-23.87 Y3.60 E80.5890
G1 X-24.05 Y2.70 E80.6306
G1 X-23.87 Y1.80 E80.6722
G1 X-23.36 Y1.04 E80.7137
G1 X-21.81 Y.00 E80.7983
G1 X-23.36 Y-1.04 E80.8829
G1 X-23.87 Y-1.80 E80.9243
G1 X-24.05 Y-2.70 E80.9659
G1 X-23.87 Y-3.60 E81.0075
G1 X-23.36 Y-4.36 E81.0490
G1 X-22.60 Y-4.87 E81.0905
G1 X-21.70 Y-5.05 E81.1321
G1 X-20.80 Y-4.87 E81.1737
G1 X-19.80 Y-4.20 E81.2282
G1 X-18.80 Y-4.87 E81.2828
G1 X-17.90 Y-5.05 E81.3244
G1 X-17.00 Y-4.87 E81.3659
G1 X-16.00 Y-4.20 E81.4205
G1 X-15.00 Y-4.87 E81.4750
G1 X-14.10 Y-5.05 E81.5166
G1 X-13.20 Y-4.87 E81.5582
G1 X-12.20 Y-4.20 E81.6128
G1 X-11.20 Y-4.87 E81.6673
G1 X-10.30 Y-5.05 E81.7089
G1 X-9.40 Y-4.87 E81.7505
G1 X-8.40 Y-4.20 E81.8051
G1 X-7.40 Y-4.87 E81.8596
G1 X-6.50 Y-5.05 E81.9012
G1 X-4.69 Y-4.69 E81.9848
G1 X-5.05 Y-6.50 E82.0685
G1 X-4.87 Y-7.40 E82.1101
G1 X-4.20 Y-8.40 E82.1646
G1 X-4.87 Y-9.40 E82.2191
G1 X-5.05 Y-10.30 E82.2607
G1 X-4.87 Y-11.20 E82.3023
G1 X-4.20 Y-12.20 E82.3569
G1 X-4.87 Y-13.20 E82.4114
G1 X-5.05 Y-14.10 E82.4530
G1 X-4.87 Y-15.00 E82.4946
G1 X-4.20 Y-16.00 E82.5492
G1 X-4.87 Y-17.00 E82.6037
G1 X-5.05 Y-17.90 E82.6453
G1 X-4.87 Y-18.80 E82.6869
G1 X-4.20 Y-19.80 E82.7415
G1 X-4.87 Y-20.80 E82.7960
G1 X-5.05 Y-21.70 E82.8376
G1 X-4.87 Y-22.60 E82.8792
G1 X-4.36 Y-23.36 E82.9207
G1 X-3.60 Y-23.87 E82.9621
G1 X-2.70 Y-24.05 E83.0037
G1 X-1.80 Y-23.87 E83.0453
G1 X-1.03 Y-23.36 E83.0872
G1 X.00 Y-21.81 E83.1715
G1 X1.04 Y-23.36 E83.2561
G1 X1.80 Y-23.87 E83.2976
G1 X2.70 Y-24.05 E83.3392
G1 X3.60 Y-23.87 E83.3808
G1 E82.0808 F1800
G1 X3.45 Y-23.50 F4200
G1 E83.3808 F1800
G1 X3.45 Y-23.50 F4200
G1 X4.08 Y-23.08 E83.4151 F1200
G1 X4.50 Y-22.45 E83.4494
G1 X4.64 Y-21.70 E83.4840
G1 X4.50 Y-20.95 E83.5185
G1 X3.72 Y-19.80 E83.5815
G1 X4.50 Y-18.64 E83.6449
G1 X4.64 Y-17.90 E83.6790
G1 X4.50 Y-17.15 E83.7136
G1 X3.72 Y-16.00 E83.7765
G1 X4.50 Y-14.84 E83.8399
G1 X4.64 Y-14.10 E83.8740
G1 X4.50 Y-13.35 E83.9086
G1 X3.72 Y-12.20 E83.9716
G1 X4.50 Y-11.04 E84.0349
G1 X4.64 Y-10.30 E84.0690
G1 X4.50 Y-9.55 E84.1036
G1 X3.72 Y-8.40 E84.1666
G1 X4.50 Y-7.24 E84.2299
G1 X4.64 Y-6.50 E84.2641
G1 X4.18 Y-4.18 E84.3712
G1 X6.50 Y-4.64 E84.4784
G1 X7.25 Y-4.50 E84.5130
G1 X8.40 Y-3.72 E84.5760
G1 X9.55 Y-4.50 E84.6389
G1 X10.30 Y-4.64 E84.6735
G1 X11.05 Y-4.50 E84.7081
G1 X12.20 Y-3.72 E84.7711
G1 X13.35 Y-4.50 E84.8340
G1 X14.10 Y-4.64 E84.8686
G1 X14.85 Y-4.50 E84.9032
G1 X16.00 Y-3.72 E84.9662
G1 X17.15 Y-4.50 E85.0291
G1 X17.90 Y-4.64 E85.0637
G1 X18.65 Y-4.50 E85.0983
G1 X19.80 Y-3.72 E85.1612
G1 X20.95 Y-4.50 E85.2242
G1 X21.70 Y-4.64 E85.2588
G1 X22.45 Y-4.50 E85.2934
G1 X23.08 Y-4.07 E85.3279
G1 X23.50 Y-3.45 E85.3619
G1 X23.64 Y-2.70 E85.3964
G1 X23.50 Y-1.95 E85.4310
G1 X23.08 Y-1.32 E85.4653
G1 X21.09 Y.00 E85.5736
G1 X23.08 Y1.32 E85.6818
G1 X23.50 Y1.95 E85.7161
G1 X23.64 Y2.70 E85.7507
G1 X23.50 Y3.45 E85.7852
G1 X23.08 Y4.08 E85.8196
G1 X22.45 Y4.50 E85.8539
G1 X21.70 Y4.64 E85.8884
G1 X20.96 Y4.50 E85.9226
G1 X19.80 Y3.72 E85.9859
G1 X18.65 Y4.50 E86.0489
G1 X17.90 Y4.64 E86.0835
G1 X17.15 Y4.50 E86.1181
G1 X16.00 Y3.72 E86.1810
G1 X14.85 Y4.50 E86.2440
G1 X14.10 Y4.64 E86.2786
G1 X13.36 Y4.50 E86.3127
G1 X12.20 Y3.72 E86.3760
G1 X11.05 Y4.50 E86.4390
G1 X10.30 Y4.64 E86.4736
G1 X9.55 Y4.50 E86.5082
G1 X8.40 Y3.72 E86.5711
G1 X7.25 Y4.50 E86.6341
G1 X6.50 Y4.64 E86.6687
G1 X4.18 Y4.18 E86.7759
G1 X4.64 Y6.50 E86.8830
G1 X4.50 Y7.25 E86.9176
G1 X3.72 Y8.40 E86.9806
G1 X4.50 Y9.55 E87.0436
G1 X4.64 Y10.30 E87.0781
G1 X4.50 Y11.05 E87.1127
G1 X3.72 Y12.20 E87.1757
G1 X4.50 Y13.36 E87.2390
G1 X4.64 Y14.10 E87.2732
G1 X4.50 Y14.85 E87.3077
G1 X3.72 Y16.00 E87.3707
G1 X4.50 Y17.15 E87.4337
G1 X4.64 Y17.90 E87.4682
G1 X4.50 Y18.65 E87.5028
G1 X3.72 Y19.80 E87.5658
G1 X4.50 Y20.96 E87.6291
G1 X4.64 Y21.70 E87.6633
G1 X4.50 Y22.45 E87.6979
G1 X4.08 Y23.08 E87.7322
G1 X3.45 Y23.50 E87.7665
G1 X2.70 Y23.64 E87.8011
G1 X1.95 Y23.50 E87.8356
G1 X1.33 Y23.08 E87.8696
G1 X.00 Y21.09 E87.9780
G1 X-1.32 Y23.08 E88.0863
G1 X-1.95 Y23.50 E88.1206
G1 X-2.70 Y23.64 E88.1552
G1 X-3.45 Y23.50 E88.1897
G1 X-4.07 Y23.08 E88.2237
G1 X-4.50 Y22.45 E88.2582
G1 X-4.64 Y21.70 E88.2928
G1 X-4.50 Y20.95 E88.3274
G1 X-3.72 Y19.80 E88.3904
G1 X-4.50 Y18.65 E88.4533
G1 X-4.64 Y17.90 E88.4879
G1 X-4.50 Y17.15 E88.5225
G1 X-3.72 Y16.00 E88.5854
G1 X-4.50 Y14.85 E88.6484
G1 X-4.64 Y14.10 E88.6830
G1 X-4.50 Y13.35 E88.7176
G1 X-3.72 Y12.20 E88.7805
G1 X-4.50 Y11.05 E88.8435
G1 X-4.64 Y10.30 E88.8781
G1 X-4.50 Y9.55 E88.9127
G1 X-3.72 Y8.40 E88.9756
G1 X-4.50 Y7.25 E89.0386
G1 X-4.64 Y6.50 E89.0732
G1 X-4.18 Y4.18 E89.1804
G1 X-6.50 Y4.64 E89.2875
G1 X-7.24 Y4.50 E89.3217
G1 X-8.40 Y3.72 E89.3850
G1 X-9.55 Y4.50 E89.4480
G1 X-10.30 Y4.64 E89.4826
G1 X-11.04 Y4.50 E89.5167
G1 X-12.20 Y3.72 E89.5800
G1 X-13.35 Y4.50 E89.6430
G1 X-14.10 Y4.64 E89.6776
G1 X-14.84 Y4.50 E89.7117
G1 X-16.00 Y3.72 E89.7751
G1 X-17.15 Y4.50 E89.8380
G1 X-17.90 Y4.64 E89.8726
G1 X-18.64 Y4.50 E89.9067
G1 X-19.80 Y3.72 E89.9701
G1 X-20.95 Y4.50 E90.0331
G1 X-21.70 Y4.64 E90.0676
G1 X-22.45 Y4.50 E90.1022
G1 X-23.08 Y4.08 E90.1365
G1 X-23.50 Y3.45 E90.1708
G1 X-23.64 Y2.70 E90.2054
