;generated by ffslicer 1.4.0 07/28/16 11:51:12
;start gcode
M118 X32.50 Y32.50 Z42.50 T0
M140 S0
M104 S220 T0
M104 S0 T1
M107
G90
G28
M132 X Y Z A B
G1 Z50.00 F600
G161 X Y F3300
M6 T0
M907 X100 Y100 Z40 A100 B20
;preExtrude: 0.20
G1 Z.20 F400
M108 T0
;preExtruder0
G1 X32.50 Y32.50 F7200
G1 X-32.50 Y32.50 E9.4259 F1200
G1 X-32.50 Y-22.50 E17.4017
;raft
;layer:0.23
G1 Z.23 F400
;shell
G1 E16.1017 F1800
G1 X-26.90 Y-26.90 F4200
G1 E17.4017 F1800
G1 X-26.90 Y-26.90 F4200
G1 X-25.90 Y-26.90 E17.4434 F1200
G1 X-24.90 Y-26.90 E17.4851
G1 X-23.90 Y-26.90 E17.5268
G1 X-22.90 Y-26.90 E17.5685
G1 X-21.90 Y-26.90 E17.6102
G1 X26.90 Y-26.90 E19.6447
G1 X26.90 Y26.90 E21.8877
G1 X-26.90 Y26.90 E24.1307
G1 X-26.90 Y-16.80 E25.9526
G1 X-26.90 Y-18.80 E26.0360
G1 X-26.90 Y-20.80 E26.1194
G1 X-26.90 Y-22.80 E26.2028
G1 X-26.90 Y-24.80 E26.2862
G1 X-26.90 Y-26.80 E26.3696 F720
G1 X-27.30 Y-27.30 E26.3696 F300
G1 X27.30 Y-27.30 E28.6459 F1200
G1 X27.30 Y27.30 E30.9223
G1 X-27.30 Y27.30 E33.1986
G1 X-27.30 Y-27.20 E35.4708
G1 X-26.90 Y-26.80 E35.4787 F300
;infill
G1 E34.1787 F1800
G1 X26.11 Y-26.56 F4200
G1 E35.4787 F1800
G1 X26.11 Y-26.56 F4200
G1 X26.56 Y-26.11 E35.5052 F1200
G1 X26.56 Y-25.55 E35.5286
G1 X25.55 Y-26.56 E35.5881
G1 X24.98 Y-26.56 E35.6119
G1 X26.56 Y-24.98 E35.7050
G1 X26.56 Y-24.42 E35.7284
G1 X24.42 Y-26.56 E35.8546
G1 X23.85 Y-26.56 E35.8783
G1 X26.56 Y-23.85 E36.0381
G1 X26.56 Y-23.29 E36.0615
G1 X23.29 Y-26.56 E36.2543
G1 X22.72 Y-26.56 E36.2780
G1 X26.56 Y-22.72 E36.5044
G1 X26.56 Y-22.15 E36.5282
G1 X22.15 Y-26.56 E36.7882
G1 X21.59 Y-26.56 E36.8116
G1 X26.56 Y-21.59 E37.1046
G1 X26.56 Y-21.02 E37.1284
G1 X21.02 Y-26.56 E37.4550
G1 X20.46 Y-26.56 E37.4783
G1 X26.56 Y-20.46 E37.8380
G1 X26.56 Y-19.89 E37.8618
G1 X19.89 Y-26.56 E38.2550
G1 X19.33 Y-26.56 E38.2784
G1 X26.56 Y-19.33 E38.7047
G1 X26.56 Y-18.76 E38.7284
G1 X18.76 Y-26.56 E39.1883
G1 X18.19 Y-26.56 E39.2121
G1 X26.56 Y-18.19 E39.7056
G1 X26.56 Y-17.63 E39.7290
G1 X17.63 Y-26.56 E40.2555
G1 X17.06 Y-26.56 E40.2792
G1 X26.56 Y-17.06 E40.8394
G1 X26.56 Y-16.50 E40.8627
G1 X16.50 Y-26.56 E41.4559
G1 X15.93 Y-26.56 E41.4796
G1 X26.56 Y-15.93 E42.1064
G1 X26.56 Y-15.37 E42.1297
G1 X15.37 Y-26.56 E42.7895
G1 X14.80 Y-26.56 E42.8133
G1 X26.56 Y-14.80 E43.5066
G1 X26.56 Y-14.23 E43.5304
G1 X14.23 Y-26.56 E44.2574
G1 X13.67 Y-26.56 E44.2807
G1 X26.56 Y-13.67 E45.0407
G1 X26.56 Y-13.10 E45.0645
G1 X13.10 Y-26.56 E45.8581
G1 X12.54 Y-26.56 E45.8815
G1 X26.56 Y-12.54 E46.7081
G1 X26.56 Y-11.97 E46.7319
G1 X11.97 Y-26.56 E47.5921
G1 X11.41 Y-26.56 E47.6154
G1 X26.56 Y-11.41 E48.5087
G1 X26.56 Y-10.84 E48.5325
G1 X10.84 Y-26.56 E49.4593
G1 X10.27 Y-26.56 E49.4831
G1 X26.56 Y-10.27 E50.4436
G1 X26.56 Y-9.71 E50.4669
G1 X9.71 Y-26.56 E51.4604
G1 X9.14 Y-26.56 E51.4842
G1 X26.56 Y-9.14 E52.5113
G1 X26.56 Y-8.58 E52.5346
G1 X8.58 Y-26.56 E53.5947
G1 X8.01 Y-26.56 E53.6185
G1 X26.56 Y-8.01 E54.7122
G1 X26.56 Y-7.45 E54.7356
G1 X7.45 Y-26.56 E55.8623
G1 X6.88 Y-26.56 E55.8861
G1 X26.56 Y-6.88 E57.0464
G1 X26.56 Y-6.31 E57.0702
G1 X6.31 Y-26.56 E58.2642
G1 X5.75 Y-26.56 E58.2875
G1 X26.56 Y-5.75 E59.5145
G1 X26.56 Y-5.18 E59.5382
G1 X5.18 Y-26.56 E60.7988
G1 X4.62 Y-26.56 E60.8222
G1 X26.56 Y-4.62 E62.1158
G1 X26.56 Y-4.05 E62.1395
G1 X4.05 Y-26.56 E63.4667
G1 X3.49 Y-26.56 E63.4901
G1 X26.56 Y-3.49 E64.8503
G1 X26.56 Y-2.92 E64.8741
G1 X2.92 Y-26.56 E66.2679
G1 X2.35 Y-26.56 E66.2917
G1 X26.56 Y-2.35 E67.7191
G1 X26.56 Y-1.79 E67.7425
G1 X1.79 Y-26.56 E69.2029
G1 X1.22 Y-26.56 E69.2267
G1 X26.56 Y-1.22 E70.7208
G1 X26.56 Y-.66 E70.7441
G1 X.66 Y-26.56 E72.2712
G1 X.09 Y-26.56 E72.2950
G1 X26.56 Y-.09 E73.8557
G1 X26.56 Y.47 E73.8790
G1 X-.47 Y-26.56 E75.4727
G1 X-1.04 Y-26.56 E75.4965
G1 X26.56 Y1.04 E77.1238
G1 X26.56 Y1.61 E77.1476
G1 X-1.61 Y-26.56 E78.8085
G1 X-2.17 Y-26.56 E78.8318
G1 X26.56 Y2.17 E80.5258
G1 X26.56 Y2.74 E80.5495
G1 X-2.74 Y-26.56 E82.2771
G1 X-3.30 Y-26.56 E82.3004
G1 X26.56 Y3.30 E84.0610
G1 X26.56 Y3.87 E84.0848
G1 X-3.87 Y-26.56 E85.8790
G1 X-4.43 Y-26.56 E85.9023
G1 X26.56 Y4.43 E87.7295
G1 X26.56 Y5.00 E87.7533
G1 X-5.00 Y-26.56 E89.6141
G1 X-5.56 Y-26.56 E89.6374
G1 X26.56 Y5.56 E91.5312
G1 X26.56 Y6.13 E91.5550
G1 X-6.13 Y-26.56 E93.4824
G1 X-6.70 Y-26.56 E93.5062
G1 X26.56 Y6.70 E95.4672
G1 X26.56 Y7.26 E95.4906
G1 X-7.26 Y-26.56 E97.4846
G1 X-7.83 Y-26.56 E97.5084
G1 X26.56 Y7.83 E99.5361
G1 X26.56 Y8.39 E99.5594
G1 X-8.39 Y-26.56 E101.6201
G1 X-8.96 Y-26.56 E101.6438
G1 X26.56 Y8.96 E103.7381
G1 X26.56 Y9.52 E103.7615
G1 X-9.52 Y-26.56 E105.8888
G1 X-10.09 Y-26.56 E105.9126
G1 X26.56 Y10.09 E108.0735
G1 X26.56 Y10.66 E108.0972
G1 X-10.66 Y-26.56 E110.2918
G1 X-11.22 Y-26.56 E110.3151
G1 X26.56 Y11.22 E112.5426
G1 X26.56 Y11.79 E112.5664
G1 X-11.79 Y-26.56 E114.8276
G1 X-12.35 Y-26.56 E114.8509
G1 X26.56 Y12.35 E117.1451
G1 X26.56 Y12.92 E117.1688
G1 X-12.92 Y-26.56 E119.4966
G1 X-13.48 Y-26.56 E119.5199
G1 X26.56 Y13.48 E121.8807
G1 X26.56 Y14.05 E121.9045
G1 X-14.05 Y-26.56 E124.2989
G1 X-14.62 Y-26.56 E124.3227
G1 X26.56 Y14.62 E126.7507
G1 X26.56 Y15.18 E126.7740
G1 X-15.18 Y-26.56 E129.2350
G1 X-15.75 Y-26.56 E129.2588
G1 X26.56 Y15.75 E131.7534
G1 X26.56 Y16.31 E131.7768
G1 X-16.31 Y-26.56 E134.3044
G1 X-16.88 Y-26.56 E134.3282
G1 X26.56 Y16.88 E136.8894
G1 X26.56 Y17.44 E136.9128
G1 X-17.44 Y-26.56 E139.5071
G1 X-18.01 Y-26.56 E139.5308
G1 X26.56 Y18.01 E142.1587
G1 X26.56 Y18.58 E142.1825
G1 X-18.58 Y-26.56 E144.8440
G1 X-19.14 Y-26.56 E144.8673
G1 X26.56 Y19.14 E147.5618
G1 X26.56 Y19.71 E147.5856
G1 X-19.71 Y-26.56 E150.3137
G1 X-20.27 Y-26.56 E150.3371
G1 X26.56 Y20.27 E153.0982
G1 X26.56 Y20.84 E153.1220
G1 X-20.84 Y-26.56 E155.9167
G1 X-21.40 Y-26.56 E155.9400
G1 X26.56 Y21.40 E158.7678
G1 X26.56 Y21.97 E158.7916
G1 X-21.97 Y-26.56 E161.6529
G1 X-22.54 Y-26.56 E161.6767
G1 X26.56 Y22.54 E164.5717
G1 X26.56 Y23.10 E164.5950
G1 X-23.10 Y-26.56 E167.5230
G1 X-23.67 Y-26.56 E167.5468
G1 X26.56 Y23.67 E170.5084
G1 X26.56 Y24.23 E170.5317
G1 X-24.23 Y-26.56 E173.5263
G1 X-24.80 Y-26.56 E173.5501
G1 X26.56 Y24.80 E176.5783
G1 X26.56 Y25.36 E176.6017
G1 X-25.36 Y-26.56 E179.6629
G1 X-25.93 Y-26.56 E179.6867
G1 X26.56 Y25.93 E182.7816
G1 X26.56 Y26.50 E182.8053
G1 X-26.50 Y-26.56 E185.9338
G1 X-26.56 Y-26.56 E185.9363
G1 X-26.56 Y-26.06 E185.9571
G1 X26.06 Y26.56 E189.0597
G1 X25.49 Y26.56 E189.0834
G1 X-26.56 Y-25.49 E192.1523
G1 X-26.56 Y-24.93 E192.1757
G1 X24.93 Y26.56 E195.2116
G1 X24.36 Y26.56 E195.2353
G1 X-26.56 Y-24.36 E198.2376
G1 X-26.56 Y-23.79 E198.2614
G1 X23.79 Y26.56 E201.2300
G1 X23.23 Y26.56 E201.2534
G1 X-26.56 Y-23.23 E204.1890
G1 X-26.56 Y-22.66 E204.2128
G1 X22.66 Y26.56 E207.1148
G1 X22.10 Y26.56 E207.1382
G1 X-26.56 Y-22.10 E210.0072
G1 X-26.56 Y-21.53 E210.0310
G1 X21.53 Y26.56 E212.8664
G1 X20.97 Y26.56 E212.8898
G1 X-26.56 Y-20.97 E215.6922
G1 X-26.56 Y-20.40 E215.7159
G1 X20.40 Y26.56 E218.4847
G1 X19.83 Y26.56 E218.5085
G1 X-26.56 Y-19.83 E221.2437
G1 X-26.56 Y-19.27 E221.2670
G1 X19.27 Y26.56 E223.9692
G1 X18.70 Y26.56 E223.9930
G1 X-26.56 Y-18.70 E226.6615
G1 X-26.56 Y-18.14 E226.6849
G1 X18.14 Y26.56 E229.3204
G1 X17.57 Y26.56 E229.3442
G1 X-26.56 Y-17.57 E231.9461
G1 X-26.56 Y-17.00 E231.9699
G1 X17.00 Y26.56 E234.5382
G1 X16.44 Y26.56 E234.5616
G1 X-26.56 Y-16.44 E237.0969
G1 X-26.56 Y-15.87 E237.1206
G1 X15.87 Y26.56 E239.6223
G1 X15.31 Y26.56 E239.6457
G1 X-26.56 Y-15.31 E242.1144
G1 X-26.56 Y-14.74 E242.1381
G1 X14.74 Y26.56 E244.5732
G1 X14.18 Y26.56 E244.5966
G1 X-26.56 Y-14.18 E246.9986
G1 X-26.56 Y-13.61 E247.0224
G1 X13.61 Y26.56 E249.3908
G1 X13.05 Y26.56 E249.4142
G1 X-26.56 Y-13.05 E251.7496
G1 X-26.56 Y-12.48 E251.7734
G1 X12.48 Y26.56 E254.0752
G1 X11.91 Y26.56 E254.0990
G1 X-26.56 Y-11.91 E256.3672
G1 X-26.56 Y-11.35 E256.3905
G1 X11.35 Y26.56 E258.6257
G1 X10.78 Y26.56 E258.6495
G1 X-26.56 Y-10.78 E260.8511
G1 X-26.56 Y-10.22 E260.8745
G1 X10.22 Y26.56 E263.0430
G1 X9.65 Y26.56 E263.0668
G1 X-26.56 Y-9.65 E265.2018
G1 X-26.56 Y-9.09 E265.2251
G1 X9.09 Y26.56 E267.3270
G1 X8.52 Y26.56 E267.3508
G1 X-26.56 Y-8.52 E269.4191
G1 X-26.56 Y-7.95 E269.4429
G1 X7.95 Y26.56 E271.4776
G1 X7.39 Y26.56 E271.5010
G1 X-26.56 Y-7.39 E273.5027
G1 X-26.56 Y-6.82 E273.5264
G1 X6.82 Y26.56 E275.4946
G1 X6.26 Y26.56 E275.5179
G1 X-26.56 Y-6.26 E277.4530
G1 X-26.56 Y-5.69 E277.4768
G1 X5.69 Y26.56 E279.3782
G1 X5.13 Y26.56 E279.4016
G1 X-26.56 Y-5.13 E281.2701
G1 X-26.56 Y-4.56 E281.2938
G1 X4.56 Y26.56 E283.1287
G1 X4.00 Y26.56 E283.1521
G1 X-26.56 Y-4.00 E284.9539
G1 X-26.56 Y-3.43 E284.9776
G1 X3.43 Y26.56 E286.7459
G1 X2.86 Y26.56 E286.7696
G1 X-26.56 Y-2.86 E288.5043
G1 X-26.56 Y-2.30 E288.5276
G1 X2.30 Y26.56 E290.2292
G1 X1.73 Y26.56 E290.2529
G1 X-26.56 Y-1.73 E291.9209
G1 X-26.56 Y-1.17 E291.9443
G1 X1.17 Y26.56 E293.5793
G1 X.60 Y26.56 E293.6030
G1 X-26.56 Y-.60 E295.2044
G1 X-26.56 Y-.04 E295.2277
G1 X.04 Y26.56 E296.7961
G1 X-.53 Y26.56 E296.8198
G1 X-26.56 Y.53 E298.3546
G1 X-26.56 Y1.10 E298.3783
G1 X-1.10 Y26.56 E299.8795
G1 X-1.66 Y26.56 E299.9028
G1 X-26.56 Y1.66 E301.3710
G1 X-26.56 Y2.23 E301.3947
G1 X-2.23 Y26.56 E302.8292
G1 X-2.79 Y26.56 E302.8526
G1 X-26.56 Y2.79 E304.2541
G1 X-26.56 Y3.36 E304.2778
G1 X-3.36 Y26.56 E305.6457
G1 X-3.92 Y26.56 E305.6690
G1 X-26.56 Y3.92 E307.0039
G1 X-26.56 Y4.49 E307.0277
G1 X-4.49 Y26.56 E308.3289
G1 X-5.05 Y26.56 E308.3523
G1 X-26.56 Y5.05 E309.6205
G1 X-26.56 Y5.62 E309.6443
G1 X-5.62 Y26.56 E310.8789
G1 X-6.19 Y26.56 E310.9026
G1 X-26.56 Y6.19 E312.1037
G1 X-26.56 Y6.75 E312.1270
G1 X-6.75 Y26.56 E313.2950
G1 X-7.32 Y26.56 E313.3188
G1 X-26.56 Y7.32 E314.4532
G1 X-26.56 Y7.88 E314.4765
G1 X-7.88 Y26.56 E315.5779
G1 X-8.45 Y26.56 E315.6016
G1 X-26.56 Y8.45 E316.6694
G1 X-26.56 Y9.02 E316.6932
G1 X-9.02 Y26.56 E317.7274
G1 X-9.58 Y26.56 E317.7507
G1 X-26.56 Y9.58 E318.7518
G1 X-26.56 Y10.15 E318.7756
G1 X-10.15 Y26.56 E319.7431
G1 X-10.71 Y26.56 E319.7665
G1 X-26.56 Y10.71 E320.7010
G1 X-26.56 Y11.28 E320.7248
G1 X-11.28 Y26.56 E321.6257
G1 X-11.84 Y26.56 E321.6490
G1 X-26.56 Y11.84 E322.5169
G1 X-26.56 Y12.41 E322.5407
G1 X-12.41 Y26.56 E323.3750
G1 X-12.98 Y26.56 E323.3987
G1 X-26.56 Y12.98 E324.1994
G1 X-26.56 Y13.54 E324.2227
G1 X-13.54 Y26.56 E324.9904
G1 X-14.11 Y26.56 E325.0141
G1 X-26.56 Y14.11 E325.7482
G1 X-26.56 Y14.67 E325.7716
G1 X-14.67 Y26.56 E326.4726
G1 X-15.24 Y26.56 E326.4963
G1 X-26.56 Y15.24 E327.1638
G1 X-26.56 Y15.80 E327.1871
G1 X-15.80 Y26.56 E327.8215
G1 X-16.37 Y26.56 E327.8453
G1 X-26.56 Y16.37 E328.4461
G1 X-26.56 Y16.94 E328.4698
G1 X-16.94 Y26.56 E329.0370
G1 X-17.50 Y26.56 E329.0603
G1 X-26.56 Y17.50 E329.5946
G1 X-26.56 Y18.07 E329.6183
G1 X-18.07 Y26.56 E330.1188
G1 X-18.63 Y26.56 E330.1422
G1 X-26.56 Y18.63 E330.6098
G1 X-26.56 Y19.20 E330.6335
G1 X-19.20 Y26.56 E331.0675
G1 X-19.76 Y26.56 E331.0908
G1 X-26.56 Y19.76 E331.4917
G1 X-26.56 Y20.33 E331.5155
G1 X-20.33 Y26.56 E331.8828
G1 X-20.90 Y26.56 E331.9065
G1 X-26.56 Y20.90 E332.2403
G1 X-26.56 Y21.46 E332.2636
G1 X-21.46 Y26.56 E332.5643
G1 X-22.03 Y26.56 E332.5881
G1 X-26.56 Y22.03 E332.8551
G1 X-26.56 Y22.59 E332.8785
G1 X-22.59 Y26.56 E333.1125
G1 X-23.16 Y26.56 E333.1363
G1 X-26.56 Y23.16 E333.3368
G1 X-26.56 Y23.72 E333.3601
G1 X-23.72 Y26.56 E333.5275
G1 X-24.29 Y26.56 E333.5513
G1 X-26.56 Y24.29 E333.6851
G1 X-26.56 Y24.85 E333.7085
G1 X-24.85 Y26.56 E333.8093
G1 X-25.42 Y26.56 E333.8331
G1 X-26.56 Y25.42 E333.9003
G1 X-26.56 Y25.99 E333.9240
G1 X-25.99 Y26.56 E333.9576
G1 X-26.55 Y26.56 E333.9809
G1 X-26.56 Y26.55 E333.9815
;layer:0.23
G1 Z.46 F400
;shell
G1 E332.6815 F1800
G1 X-26.90 Y-26.90 F7200
G1 E333.9815 F1800
G1 X-26.90 Y-26.90 F7200
G1 X-25.90 Y-26.90 E334.0232 F1500
G1 X-24.90 Y-26.90 E334.0649 F2160
G1 X-23.90 Y-26.90 E334.1066 F2820
G1 X-22.90 Y-26.90 E334.1483 F3480
G1 X-21.90 Y-26.90 E334.1900 F4140
G1 X26.90 Y-26.90 E336.2245 F4800
G1 X26.90 Y26.90 E338.4675
G1 X-26.90 Y26.90 E340.7106
G1 X-26.90 Y-16.80 E342.5325
G1 X-26.90 Y-18.80 E342.6159 F3984
G1 X-26.90 Y-20.80 E342.6992 F3168
G1 X-26.90 Y-22.80 E342.7826 F2352
G1 X-26.90 Y-24.80 E342.8660 F1536
G1 X-26.90 Y-26.80 E342.9494 F720
G1 X-27.30 Y-27.30 E342.9494 F300
G1 X27.30 Y-27.30 E345.2257 F2400
G1 X27.30 Y27.30 E347.5021
G1 X-27.30 Y27.30 E349.7785
G1 X-27.30 Y-27.20 E352.0507
G1 X-26.90 Y-26.80 E352.0585 F300
;infill
G1 E350.7585 F1800
G1 X-26.56 Y-26.11 F7200
G1 E352.0585 F1800
G1 X-26.56 Y-26.11 F7200
G1 X-26.11 Y-26.56 E352.0850 F3360
G1 X-25.55 Y-26.56 E352.1084
G1 X-26.56 Y-25.55 E352.1680
G1 X-26.56 Y-24.98 E352.1917
G1 X-24.98 Y-26.56 E352.2849
G1 X-24.41 Y-26.56 E352.3086
G1 X-26.56 Y-24.41 E352.4354
G1 X-26.56 Y-23.85 E352.4587
G1 X-23.85 Y-26.56 E352.6185
G1 X-23.28 Y-26.56 E352.6423
G1 X-26.56 Y-23.28 E352.8357
G1 X-26.56 Y-22.72 E352.8590
G1 X-22.72 Y-26.56 E353.0854
G1 X-22.15 Y-26.56 E353.1092
G1 X-26.56 Y-22.15 E353.3692
G1 X-26.56 Y-21.59 E353.3925
G1 X-21.59 Y-26.56 E353.6856
G1 X-21.02 Y-26.56 E353.7093
G1 X-26.56 Y-21.02 E354.0360
G1 X-26.56 Y-20.46 E354.0593
G1 X-20.46 Y-26.56 E354.4190
G1 X-19.89 Y-26.56 E354.4427
G1 X-26.56 Y-19.89 E354.8360
G1 X-26.56 Y-19.32 E354.8598
G1 X-19.32 Y-26.56 E355.2866
G1 X-18.76 Y-26.56 E355.3100
G1 X-26.56 Y-18.76 E355.7699
G1 X-26.56 Y-18.19 E355.7937
G1 X-18.19 Y-26.56 E356.2872
G1 X-17.63 Y-26.56 E356.3105
G1 X-26.56 Y-17.63 E356.8370
G1 X-26.56 Y-17.06 E356.8608
G1 X-17.06 Y-26.56 E357.4209
G1 X-16.50 Y-26.56 E357.4442
G1 X-26.56 Y-16.50 E358.0374
G1 X-26.56 Y-15.93 E358.0611
G1 X-15.93 Y-26.56 E358.6879
G1 X-15.36 Y-26.56 E358.7117
G1 X-26.56 Y-15.36 E359.3720
G1 X-26.56 Y-14.80 E359.3954
G1 X-14.80 Y-26.56 E360.0887
G1 X-14.23 Y-26.56 E360.1125
G1 X-26.56 Y-14.23 E360.8395
G1 X-26.56 Y-13.67 E360.8628
G1 X-13.67 Y-26.56 E361.6228
G1 X-13.10 Y-26.56 E361.6466
G1 X-26.56 Y-13.10 E362.4402
G1 X-26.56 Y-12.54 E362.4635
G1 X-12.54 Y-26.56 E363.2902
G1 X-11.97 Y-26.56 E363.3139
G1 X-26.56 Y-11.97 E364.1742
G1 X-26.56 Y-11.40 E364.1979
G1 X-11.40 Y-26.56 E365.0917
G1 X-10.84 Y-26.56 E365.1151
G1 X-26.56 Y-10.84 E366.0420
G1 X-26.56 Y-10.27 E366.0657
G1 X-10.27 Y-26.56 E367.0262
G1 X-9.71 Y-26.56 E367.0495
G1 X-26.56 Y-9.71 E368.0430
G1 X-26.56 Y-9.14 E368.0668
G1 X-9.14 Y-26.56 E369.0939
G1 X-8.58 Y-26.56 E369.1172
G1 X-26.56 Y-8.58 E370.1774
G1 X-26.56 Y-8.01 E370.2011
G1 X-8.01 Y-26.56 E371.2948
G1 X-7.44 Y-26.56 E371.3186
G1 X-26.56 Y-7.44 E372.4459
G1 X-26.56 Y-6.88 E372.4693
G1 X-6.88 Y-26.56 E373.6296
G1 X-6.31 Y-26.56 E373.6534
G1 X-26.56 Y-6.31 E374.8473
G1 X-26.56 Y-5.75 E374.8707
G1 X-5.75 Y-26.56 E376.0976
G1 X-5.18 Y-26.56 E376.1214
G1 X-26.56 Y-5.18 E377.3820
G1 X-26.56 Y-4.61 E377.4057
G1 X-4.61 Y-26.56 E378.6999
G1 X-4.05 Y-26.56 E378.7232
G1 X-26.56 Y-4.05 E380.0505
G1 X-26.56 Y-3.48 E380.0742
G1 X-3.48 Y-26.56 E381.4350
G1 X-2.92 Y-26.56 E381.4584
G1 X-26.56 Y-2.92 E382.8522
G1 X-26.56 Y-2.35 E382.8760
G1 X-2.35 Y-26.56 E384.3034
G1 X-1.79 Y-26.56 E384.3268
G1 X-26.56 Y-1.79 E385.7872
G1 X-26.56 Y-1.22 E385.8110
G1 X-1.22 Y-26.56 E387.3050
G1 X-.66 Y-26.56 E387.3284
G1 X-26.56 Y-.66 E388.8555
G1 X-26.56 Y-.09 E388.8792
G1 X-.09 Y-26.56 E390.4399
G1 X.48 Y-26.56 E390.4637
G1 X-26.56 Y.48 E392.0580
G1 X-26.56 Y1.04 E392.0813
G1 X1.04 Y-26.56 E393.7086
G1 X1.61 Y-26.56 E393.7324
G1 X-26.56 Y1.61 E395.3933
G1 X-26.56 Y2.17 E395.4167
G1 X2.17 Y-26.56 E397.1106
G1 X2.74 Y-26.56 E397.1344
G1 X-26.56 Y2.74 E398.8619
G1 X-26.56 Y3.30 E398.8853
G1 X3.30 Y-26.56 E400.6458
G1 X3.87 Y-26.56 E400.6696
G1 X-26.56 Y3.87 E402.4638
G1 X-26.56 Y4.43 E402.4871
G1 X4.43 Y-26.56 E404.3143
G1 X5.00 Y-26.56 E404.3381
G1 X-26.56 Y5.00 E406.1989
G1 X-26.56 Y5.57 E406.2226
G1 X5.57 Y-26.56 E408.1170
G1 X6.13 Y-26.56 E408.1404
G1 X-26.56 Y6.13 E410.0678
G1 X-26.56 Y6.70 E410.0915
G1 X6.70 Y-26.56 E412.0526
G1 X7.26 Y-26.56 E412.0759
G1 X-26.56 Y7.26 E414.0700
G1 X-26.56 Y7.83 E414.0937
G1 X7.83 Y-26.56 E416.1214
G1 X8.39 Y-26.56 E416.1447
G1 X-26.56 Y8.39 E418.2054
G1 X-26.56 Y8.96 E418.2292
G1 X8.96 Y-26.56 E420.3235
G1 X9.53 Y-26.56 E420.3472
G1 X-26.56 Y9.53 E422.4751
G1 X-26.56 Y10.09 E422.4985
G1 X10.09 Y-26.56 E424.6594
G1 X10.66 Y-26.56 E424.6831
G1 X-26.56 Y10.66 E426.8776
G1 X-26.56 Y11.22 E426.9010
