;generated by ffslicer 1.4.0 08/07/16 18:49:46
;start gcode
M118 X12.50 Y31.50 Z41.31 T0
M140 S0
M104 S220 T0
M104 S0 T1
M107
G90
G28
M132 X Y Z A B
G1 Z50.00 F600
G161 X Y F3300
M6 T0
M907 X100 Y100 Z40 A100 B20
;preExtrude: 0.20
G1 Z.20 F400
M108 T0
;preExtruder0
G1 X12.50 Y30.56 F7200
G1 X-12.50 Y30.56 E3.6254 F1200
G1 X-12.50 Y-30.56 E12.4886
G1 X12.50 Y-30.56 E16.1140
G1 X12.50 Y-21.68 E17.4017
;raft
;layer:0.26
G1 Z.26 F400
;shell
G1 E16.1017 F1800
G1 Z.52 F400
G1 X-6.90 Y-24.96 F4200
G1 Z.26 F400
G1 E17.4017 F1800
G1 X-6.90 Y-24.96 F4200
G1 X-5.90 Y-24.96 E17.4488 F1200
G1 X-4.90 Y-24.96 E17.4960
G1 X-3.90 Y-24.96 E17.5431
G1 X-2.90 Y-24.96 E17.5902
G1 X-1.90 Y-24.96 E17.6374
G1 X6.90 Y-24.96 E18.0521
G1 X6.90 Y24.96 E20.4048
G1 X-6.90 Y24.96 E21.0552
G1 X-6.90 Y-14.86 E22.9319
G1 X-6.90 Y-16.86 E23.0262
G1 X-6.90 Y-18.86 E23.1204
G1 X-6.90 Y-20.86 E23.2147
G1 X-6.90 Y-22.86 E23.3089
G1 X-6.90 Y-24.86 E23.4032 F720
G1 X-7.30 Y-25.36 E23.4032 F300
G1 X7.30 Y-25.36 E24.0913 F1200
G1 X7.30 Y25.36 E26.4817
G1 X-7.30 Y25.36 E27.1698
G1 X-7.30 Y-25.26 E29.5555
G1 X-6.90 Y-24.86 E29.5644 F300
;infill
G1 E28.2644 F1800
G1 X6.56 Y-24.49 F4200
G1 E29.5644 F1800
G1 X6.56 Y-24.49 F4200
G1 X6.43 Y-24.62 E29.5730 F1200
G1 X5.86 Y-24.62 E29.5999
G1 X6.56 Y-23.93 E29.6462
G1 X6.56 Y-23.36 E29.6731
G1 X5.30 Y-24.62 E29.7571
G1 X4.73 Y-24.62 E29.7839
G1 X6.56 Y-22.79 E29.9059
G1 X6.56 Y-22.23 E29.9323
G1 X4.17 Y-24.62 E30.0916
G1 X3.60 Y-24.62 E30.1184
G1 X6.56 Y-21.66 E30.3157
G1 X6.56 Y-21.10 E30.3421
G1 X3.04 Y-24.62 E30.5767
G1 X2.47 Y-24.62 E30.6036
G1 X6.56 Y-20.53 E30.8762
G1 X6.56 Y-19.97 E30.9026
G1 X1.90 Y-24.62 E31.2129
G1 X1.34 Y-24.62 E31.2392
G1 X6.56 Y-19.40 E31.5872
G1 X6.56 Y-18.83 E31.6140
G1 X.77 Y-24.62 E31.9999
G1 X.21 Y-24.62 E32.0263
G1 X6.56 Y-18.27 E32.4496
G1 X6.56 Y-17.70 E32.4764
G1 X-.36 Y-24.62 E32.9377
G1 X-.92 Y-24.62 E32.9641
G1 X6.56 Y-17.14 E33.4626
G1 X6.56 Y-16.57 E33.4895
G1 X-1.49 Y-24.62 E34.0260
G1 X-2.05 Y-24.62 E34.0524
G1 X6.56 Y-16.01 E34.6263
G1 X6.56 Y-15.44 E34.6531
G1 X-2.62 Y-24.62 E35.2650
G1 X-3.19 Y-24.62 E35.2919
G1 X6.56 Y-14.87 E35.9417
G1 X6.56 Y-14.31 E35.9681
G1 X-3.75 Y-24.62 E36.6553
G1 X-4.32 Y-24.62 E36.6821
G1 X6.56 Y-13.74 E37.4073
G1 X6.56 Y-13.18 E37.4337
G1 X-4.88 Y-24.62 E38.1962
G1 X-5.45 Y-24.62 E38.2231
G1 X6.56 Y-12.61 E39.0235
G1 X6.56 Y-12.05 E39.0499
G1 X-6.01 Y-24.62 E39.8878
G1 X-6.56 Y-24.62 E39.9137
G1 X-6.56 Y-24.60 E39.9146
G1 X6.56 Y-11.48 E40.7891
G1 X6.56 Y-10.91 E40.8159
G1 X-6.56 Y-24.03 E41.6904
G1 X-6.56 Y-23.47 E41.7168
G1 X6.56 Y-10.35 E42.5913
G1 X6.56 Y-9.78 E42.6181
G1 X-6.56 Y-22.90 E43.4926
G1 X-6.56 Y-22.34 E43.5190
G1 X6.56 Y-9.22 E44.3935
G1 X6.56 Y-8.65 E44.4203
G1 X-6.56 Y-21.77 E45.2948
G1 X-6.56 Y-21.21 E45.3212
G1 X6.56 Y-8.09 E46.1956
G1 X6.56 Y-7.52 E46.2225
G1 X-6.56 Y-20.64 E47.0970
G1 X-6.56 Y-20.07 E47.1238
G1 X6.56 Y-6.96 E47.9980
G1 X6.56 Y-6.39 E48.0248
G1 X-6.56 Y-19.51 E48.8993
G1 X-6.56 Y-18.94 E48.9262
G1 X6.56 Y-5.82 E49.8006
G1 X6.56 Y-5.26 E49.8270
G1 X-6.56 Y-18.38 E50.7015
G1 X-6.56 Y-17.81 E50.7283
G1 X6.56 Y-4.69 E51.6028
G1 X6.56 Y-4.13 E51.6292
G1 X-6.56 Y-17.25 E52.5037
G1 X-6.56 Y-16.68 E52.5305
G1 X6.56 Y-3.56 E53.4050
G1 X6.56 Y-3.00 E53.4314
G1 X-6.56 Y-16.11 E54.3055
G1 X-6.56 Y-15.55 E54.3319
G1 X6.56 Y-2.43 E55.2064
G1 X6.56 Y-1.86 E55.2332
G1 X-6.56 Y-14.98 E56.1077
G1 X-6.56 Y-14.42 E56.1341
G1 X6.56 Y-1.30 E57.0086
G1 X6.56 Y-.73 E57.0354
G1 X-6.56 Y-13.85 E57.9099
G1 X-6.56 Y-13.29 E57.9363
G1 X6.56 Y-.17 E58.8108
G1 X6.56 Y.40 E58.8376
G1 X-6.56 Y-12.72 E59.7121
G1 X-6.56 Y-12.16 E59.7385
G1 X6.56 Y.96 E60.6129
G1 X6.56 Y1.53 E60.6398
G1 X-6.56 Y-11.59 E61.5143
G1 X-6.56 Y-11.02 E61.5411
G1 X6.56 Y2.10 E62.4156
G1 X6.56 Y2.66 E62.4420
G1 X-6.56 Y-10.46 E63.3165
G1 X-6.56 Y-9.89 E63.3433
G1 X6.56 Y3.23 E64.2178
G1 X6.56 Y3.79 E64.2442
G1 X-6.56 Y-9.33 E65.1186
G1 X-6.56 Y-8.76 E65.1455
G1 X6.56 Y4.36 E66.0200
G1 X6.56 Y4.92 E66.0464
G1 X-6.56 Y-8.20 E66.9208
G1 X-6.56 Y-7.63 E66.9477
G1 X6.56 Y5.49 E67.8222
G1 X6.56 Y6.06 E67.8490
G1 X-6.56 Y-7.06 E68.7235
G1 X-6.56 Y-6.50 E68.7499
G1 X6.56 Y6.62 E69.6244
G1 X6.56 Y7.19 E69.6512
G1 X-6.56 Y-5.93 E70.5257
G1 X-6.56 Y-5.37 E70.5521
G1 X6.56 Y7.75 E71.4266
G1 X6.56 Y8.32 E71.4534
G1 X-6.56 Y-4.80 E72.3279
G1 X-6.56 Y-4.24 E72.3543
G1 X6.56 Y8.88 E73.2288
G1 X6.56 Y9.45 E73.2556
G1 X-6.56 Y-3.67 E74.1301
G1 X-6.56 Y-3.10 E74.1570
G1 X6.56 Y10.02 E75.0314
G1 X6.56 Y10.58 E75.0578
G1 X-6.56 Y-2.54 E75.9323
G1 X-6.56 Y-1.97 E75.9592
G1 X6.56 Y11.15 E76.8336
G1 X6.56 Y11.71 E76.8600
G1 X-6.56 Y-1.41 E77.7345
G1 X-6.56 Y-.84 E77.7614
G1 X6.56 Y12.28 E78.6358
G1 X6.56 Y12.84 E78.6622
G1 X-6.56 Y-.28 E79.5367
G1 X-6.56 Y.29 E79.5635
G1 X6.56 Y13.41 E80.4380
G1 X6.56 Y13.98 E80.4649
G1 X-6.56 Y.86 E81.3394
G1 X-6.56 Y1.42 E81.3657
G1 X6.56 Y14.54 E82.2402
G1 X6.56 Y15.11 E82.2671
G1 X-6.56 Y1.99 E83.1416
G1 X-6.56 Y2.55 E83.1679
G1 X6.56 Y15.67 E84.0424
G1 X6.56 Y16.24 E84.0693
G1 X-6.56 Y3.12 E84.9437
G1 X-6.56 Y3.68 E84.9701
G1 X6.56 Y16.80 E85.8446
G1 X6.56 Y17.37 E85.8715
G1 X-6.56 Y4.25 E86.7459
G1 X-6.56 Y4.82 E86.7728
G1 X6.56 Y17.94 E87.6473
G1 X6.56 Y18.50 E87.6737
G1 X-6.56 Y5.38 E88.5481
G1 X-6.56 Y5.95 E88.5750
G1 X6.56 Y19.07 E89.4495
G1 X6.56 Y19.63 E89.4759
G1 X-6.56 Y6.51 E90.3503
G1 X-6.56 Y7.08 E90.3772
G1 X6.56 Y20.20 E91.2517
G1 X6.56 Y20.76 E91.2781
G1 X-6.56 Y7.64 E92.1525
G1 X-6.56 Y8.21 E92.1794
G1 X6.56 Y21.33 E93.0539
G1 X6.56 Y21.89 E93.0803
G1 X-6.56 Y8.77 E93.9547
G1 X-6.56 Y9.34 E93.9816
G1 X6.56 Y22.46 E94.8561
G1 X6.56 Y23.03 E94.8829
G1 X-6.56 Y9.91 E95.7574
G1 X-6.56 Y10.47 E95.7838
G1 X6.56 Y23.59 E96.6583
G1 X6.56 Y24.16 E96.6851
G1 X-6.56 Y11.04 E97.5596
G1 X-6.56 Y11.60 E97.5860
G1 X6.46 Y24.62 E98.4538
G1 X5.89 Y24.62 E98.4806
G1 X-6.56 Y12.17 E99.3105
G1 X-6.56 Y12.73 E99.3368
G1 X5.33 Y24.62 E100.1293
G1 X4.76 Y24.62 E100.1562
G1 X-6.56 Y13.30 E100.9107
G1 X-6.56 Y13.87 E100.9376
G1 X4.20 Y24.62 E101.6544
G1 X3.63 Y24.62 E101.6813
G1 X-6.56 Y14.43 E102.3604
G1 X-6.56 Y15.00 E102.3873
G1 X3.06 Y24.62 E103.0285
G1 X2.50 Y24.62 E103.0549
G1 X-6.56 Y15.56 E103.6587
G1 X-6.56 Y16.13 E103.6856
G1 X1.93 Y24.62 E104.2515
G1 X1.37 Y24.62 E104.2779
G1 X-6.56 Y16.69 E104.8064
G1 X-6.56 Y17.26 E104.8333
G1 X.80 Y24.62 E105.3238
G1 X.24 Y24.62 E105.3502
G1 X-6.56 Y17.83 E105.8031
G1 X-6.56 Y18.39 E105.8295
G1 X-.33 Y24.62 E106.2448
G1 X-.90 Y24.62 E106.2716
G1 X-6.56 Y18.96 E106.6489
G1 X-6.56 Y19.52 E106.6753
G1 X-1.46 Y24.62 E107.0152
G1 X-2.03 Y24.62 E107.0421
G1 X-6.56 Y20.09 E107.3440
G1 X-6.56 Y20.65 E107.3704
G1 X-2.59 Y24.62 E107.6350
G1 X-3.16 Y24.62 E107.6618
G1 X-6.56 Y21.22 E107.8885
G1 X-6.56 Y21.79 E107.9153
G1 X-3.72 Y24.62 E108.1043
G1 X-4.29 Y24.62 E108.1312
G1 X-6.56 Y22.35 E108.2825
G1 X-6.56 Y22.92 E108.3093
G1 X-4.85 Y24.62 E108.4230
G1 X-5.42 Y24.62 E108.4498
G1 X-6.56 Y23.48 E108.5258
G1 X-6.56 Y24.05 E108.5527
G1 X-5.99 Y24.62 E108.5907
G1 X-6.55 Y24.62 E108.6171
G1 X-6.56 Y24.61 E108.6177
;layer:0.26
G1 Z.52 F400
;shell
G1 E107.3177 F1800
G1 Z.78 F400
G1 X-6.90 Y-25.99 F7200
G1 Z.52 F400
G1 E108.6177 F1800
G1 X-6.90 Y-25.99 F7200
G1 X-5.90 Y-25.99 E108.6649 F1500
G1 X-4.90 Y-25.99 E108.7120 F1872
G1 X-3.90 Y-25.99 E108.7591 F2244
G1 X-2.90 Y-25.99 E108.8063 F2616
G1 X-1.90 Y-25.99 E108.8534 F2988
G1 X6.90 Y-25.99 E109.2681 F3360
G1 X6.90 Y25.99 E111.7179
G1 X-6.90 Y25.99 E112.3683
G1 X-6.90 Y-15.89 E114.3421
G1 X-6.90 Y-17.89 E114.4364 F2832
G1 X-6.90 Y-19.89 E114.5306 F2304
G1 X-6.90 Y-21.89 E114.6249 F1776
G1 X-6.90 Y-23.89 E114.7191 F1248
G1 X-6.90 Y-25.89 E114.8134 F720
G1 X-7.30 Y-26.39 E114.8134 F300
G1 X7.30 Y-26.39 E115.5015 F2400
G1 X7.30 Y26.39 E117.9890
G1 X-7.30 Y26.39 E118.6771
G1 X-7.30 Y-26.29 E121.1599
G1 X-6.90 Y-25.89 E121.1687 F300
;infill
G1 E119.8687 F1800
G1 X-6.56 Y-25.16 F7200
G1 E121.1687 F1800
G1 X-6.56 Y-25.16 F7200
G1 X-6.08 Y-25.65 E121.2011 F3360
G1 X-5.51 Y-25.65 E121.2279
G1 X-6.56 Y-24.60 E121.2979
G1 X-6.56 Y-24.03 E121.3248
G1 X-4.94 Y-25.65 E121.4328
G1 X-4.38 Y-25.65 E121.4592
G1 X-6.56 Y-23.47 E121.6045
G1 X-6.56 Y-22.90 E121.6313
G1 X-3.81 Y-25.65 E121.8146
G1 X-3.25 Y-25.65 E121.8410
G1 X-6.56 Y-22.33 E122.0619
G1 X-6.56 Y-21.77 E122.0883
G1 X-2.68 Y-25.65 E122.3470
G1 X-2.12 Y-25.65 E122.3733
G1 X-6.56 Y-21.20 E122.6696
G1 X-6.56 Y-20.64 E122.6960
G1 X-1.55 Y-25.65 E123.0299
G1 X-.98 Y-25.65 E123.0568
G1 X-6.56 Y-20.07 E123.4287
G1 X-6.56 Y-19.51 E123.4551
G1 X-.42 Y-25.65 E123.8643
G1 X.15 Y-25.65 E123.8912
G1 X-6.56 Y-18.94 E124.3384
G1 X-6.56 Y-18.37 E124.3653
G1 X.71 Y-25.65 E124.8502
G1 X1.28 Y-25.65 E124.8771
G1 X-6.56 Y-17.81 E125.3996
G1 X-6.56 Y-17.24 E125.4265
G1 X1.84 Y-25.65 E125.9867
G1 X2.41 Y-25.65 E126.0135
G1 X-6.56 Y-16.68 E126.6114
G1 X-6.56 Y-16.11 E126.6383
G1 X2.98 Y-25.65 E127.2741
G1 X3.54 Y-25.65 E127.3005
G1 X-6.56 Y-15.55 E127.9737
G1 X-6.56 Y-14.98 E128.0006
G1 X4.11 Y-25.65 E128.7117
G1 X4.67 Y-25.65 E128.7381
G1 X-6.56 Y-14.42 E129.4866
G1 X-6.56 Y-13.85 E129.5135
G1 X5.24 Y-25.65 E130.3000
G1 X5.80 Y-25.65 E130.3264
G1 X-6.56 Y-13.28 E131.1505
G1 X-6.56 Y-12.72 E131.1769
G1 X6.37 Y-25.65 E132.0387
G1 X6.56 Y-25.65 E132.0476
G1 X6.56 Y-25.27 E132.0656
G1 X-6.56 Y-12.15 E132.9400
G1 X-6.56 Y-11.59 E132.9664
G1 X6.56 Y-24.71 E133.8409
G1 X6.56 Y-24.14 E133.8677
G1 X-6.56 Y-11.02 E134.7422
G1 X-6.56 Y-10.46 E134.7686
G1 X6.56 Y-23.57 E135.6427
G1 X6.56 Y-23.01 E135.6691
G1 X-6.56 Y-9.89 E136.5436
G1 X-6.56 Y-9.32 E136.5704
G1 X6.56 Y-22.44 E137.4449
G1 X6.56 Y-21.88 E137.4713
G1 X-6.56 Y-8.76 E138.3458
G1 X-6.56 Y-8.19 E138.3726
G1 X6.56 Y-21.31 E139.2471
G1 X6.56 Y-20.75 E139.2735
G1 X-6.56 Y-7.63 E140.1480
G1 X-6.56 Y-7.06 E140.1748
G1 X6.56 Y-20.18 E141.0493
G1 X6.56 Y-19.61 E141.0761
G1 X-6.56 Y-6.50 E141.9503
G1 X-6.56 Y-5.93 E141.9771
G1 X6.56 Y-19.05 E142.8516
G1 X6.56 Y-18.48 E142.8785
G1 X-6.56 Y-5.36 E143.7529
G1 X-6.56 Y-4.80 E143.7793
G1 X6.56 Y-17.92 E144.6538
G1 X6.56 Y-17.35 E144.6806
G1 X-6.56 Y-4.23 E145.5551
G1 X-6.56 Y-3.67 E145.5815
G1 X6.56 Y-16.79 E146.4560
G1 X6.56 Y-16.22 E146.4828
G1 X-6.56 Y-3.10 E147.3573
G1 X-6.56 Y-2.54 E147.3837
G1 X6.56 Y-15.65 E148.2578
G1 X6.56 Y-15.09 E148.2842
G1 X-6.56 Y-1.97 E149.1587
G1 X-6.56 Y-1.40 E149.1855
G1 X6.56 Y-14.52 E150.0600
G1 X6.56 Y-13.96 E150.0864
G1 X-6.56 Y-.84 E150.9609
G1 X-6.56 Y-.27 E150.9877
G1 X6.56 Y-13.39 E151.8622
G1 X6.56 Y-12.83 E151.8886
G1 X-6.56 Y.29 E152.7631
G1 X-6.56 Y.86 E152.7899
G1 X6.56 Y-12.26 E153.6644
G1 X6.56 Y-11.69 E153.6912
G1 X-6.56 Y1.42 E154.5654
G1 X-6.56 Y1.99 E154.5922
G1 X6.56 Y-11.13 E155.4667
G1 X6.56 Y-10.56 E155.4936
G1 X-6.56 Y2.56 E156.3680
G1 X-6.56 Y3.12 E156.3944
G1 X6.56 Y-10.00 E157.2689
G1 X6.56 Y-9.43 E157.2957
G1 X-6.56 Y3.69 E158.1702
G1 X-6.56 Y4.25 E158.1966
G1 X6.56 Y-8.87 E159.0711
G1 X6.56 Y-8.30 E159.0979
G1 X-6.56 Y4.82 E159.9724
G1 X-6.56 Y5.38 E159.9988
G1 X6.56 Y-7.74 E160.8733
G1 X6.56 Y-7.17 E160.9001
G1 X-6.56 Y5.95 E161.7746
G1 X-6.56 Y6.52 E161.8014
G1 X6.56 Y-6.60 E162.6759
G1 X6.56 Y-6.04 E162.7023
G1 X-6.56 Y7.08 E163.5768
G1 X-6.56 Y7.65 E163.6036
G1 X6.56 Y-5.47 E164.4781
G1 X6.56 Y-4.91 E164.5045
G1 X-6.56 Y8.21 E165.3790
G1 X-6.56 Y8.78 E165.4058
G1 X6.56 Y-4.34 E166.2803
G1 X6.56 Y-3.78 E166.3067
G1 X-6.56 Y9.34 E167.1811
G1 X-6.56 Y9.91 E167.2080
G1 X6.56 Y-3.21 E168.0825
G1 X6.56 Y-2.64 E168.1093
G1 X-6.56 Y10.48 E168.9838
G1 X-6.56 Y11.04 E169.0102
G1 X6.56 Y-2.08 E169.8847
G1 X6.56 Y-1.51 E169.9115
G1 X-6.56 Y11.61 E170.7860
G1 X-6.56 Y12.17 E170.8124
G1 X6.56 Y-.95 E171.6869
G1 X6.56 Y-.38 E171.7137
G1 X-6.56 Y12.74 E172.5882
G1 X-6.56 Y13.30 E172.6146
G1 X6.56 Y.18 E173.4890
G1 X6.56 Y.75 E173.5159
G1 X-6.56 Y13.87 E174.3904
G1 X-6.56 Y14.43 E174.4168
G1 X6.56 Y1.32 E175.2909
G1 X6.56 Y1.88 E175.3173
G1 X-6.56 Y15.00 E176.1917
G1 X-6.56 Y15.57 E176.2186
G1 X6.56 Y2.45 E177.0931
G1 X6.56 Y3.01 E177.1195
G1 X-6.56 Y16.13 E177.9939
G1 X-6.56 Y16.70 E178.0208
G1 X6.56 Y3.58 E178.8953
G1 X6.56 Y4.14 E178.9217
G1 X-6.56 Y17.26 E179.7961
G1 X-6.56 Y17.83 E179.8230
G1 X6.56 Y4.71 E180.6974
G1 X6.56 Y5.28 E180.7243
G1 X-6.56 Y18.39 E181.5984
G1 X-6.56 Y18.96 E181.6253
G1 X6.56 Y5.84 E182.4998
G1 X6.56 Y6.41 E182.5266
G1 X-6.56 Y19.53 E183.4011
G1 X-6.56 Y20.09 E183.4275
G1 X6.56 Y6.97 E184.3019
G1 X6.56 Y7.54 E184.3288
G1 X-6.56 Y20.66 E185.2033
G1 X-6.56 Y21.22 E185.2297
G1 X6.56 Y8.10 E186.1041
G1 X6.56 Y8.67 E186.1310
G1 X-6.56 Y21.79 E187.0055
G1 X-6.56 Y22.35 E187.0319
G1 X6.56 Y9.23 E187.9063
G1 X6.56 Y9.80 E187.9332
G1 X-6.56 Y22.92 E188.8077
G1 X-6.56 Y23.49 E188.8345
G1 X6.56 Y10.37 E189.7090
G1 X6.56 Y10.93 E189.7354
G1 X-6.56 Y24.05 E190.6098
G1 X-6.56 Y24.62 E190.6367
G1 X6.56 Y11.50 E191.5112
G1 X6.56 Y12.06 E191.5376
G1 X-6.56 Y25.18 E192.4120
G1 X-6.56 Y25.65 E192.4342
G1 X-6.46 Y25.65 E192.4389
G1 X6.56 Y12.63 E193.3067
G1 X6.56 Y13.20 E193.3335
G1 X-5.89 Y25.65 E194.1634
G1 X-5.33 Y25.65 E194.1897
G1 X6.56 Y13.76 E194.9822
G1 X6.56 Y14.33 E195.0091
G1 X-4.76 Y25.65 E195.7636
G1 X-4.19 Y25.65 E195.7905
G1 X6.56 Y14.89 E196.5073
G1 X6.56 Y15.46 E196.5341
G1 X-3.63 Y25.65 E197.2133
G1 X-3.06 Y25.65 E197.2402
G1 X6.56 Y16.02 E197.8817
G1 X6.56 Y16.59 E197.9086
G1 X-2.50 Y25.65 E198.5124
G1 X-1.93 Y25.65 E198.5393
G1 X6.56 Y17.16 E199.1051
G1 X6.56 Y17.72 E199.1315
G1 X-1.37 Y25.65 E199.6601
G1 X-.80 Y25.65 E199.6869
G1 X6.56 Y18.29 E200.1775
G1 X6.56 Y18.85 E200.2039
G1 X-.23 Y25.65 E200.6568
G1 X.33 Y25.65 E200.6832
G1 X6.56 Y19.42 E201.0984
G1 X6.56 Y19.98 E201.1248
G1 X.90 Y25.65 E201.5024
G1 X1.46 Y25.65 E201.5288
G1 X6.56 Y20.55 E201.8687
G1 X6.56 Y21.11 E201.8951
G1 X2.03 Y25.65 E202.1973
G1 X2.59 Y25.65 E202.2237
G1 X6.56 Y21.68 E202.4883
G1 X6.56 Y22.25 E202.5152
G1 X3.16 Y25.65 E202.7418
G1 X3.73 Y25.65 E202.7687
G1 X6.56 Y22.81 E202.9576
G1 X6.56 Y23.38 E202.9845
G1 X4.29 Y25.65 E203.1358
G1 X4.86 Y25.65 E203.1626
G1 X6.56 Y23.94 E203.2763
G1 X6.56 Y24.51 E203.3031
G1 X5.42 Y25.65 E203.3791
G1 X5.99 Y25.65 E203.4060
G1 X6.56 Y25.07 E203.4443
G1 X6.56 Y25.64 E203.4712
G1 X6.55 Y25.65 E203.4718
;percent
;layer:0.26
G1 Z.78 F400
;shell
G1 E202.1718 F1800
G1 Z1.04 F400
G1 X-6.90 Y-26.63 F7200
G1 Z.78 F400
G1 E203.4718 F1800
G1 X-6.90 Y-26.63 F7200
G1 X-5.90 Y-26.63 E203.5190 F1500
G1 X-4.90 Y-26.63 E203.5661 F1872
G1 X-3.90 Y-26.63 E203.6132 F2244
G1 X-2.90 Y-26.63 E203.6603 F2616
G1 X-1.90 Y-26.63 E203.7075 F2988
G1 X6.90 Y-26.63 E204.1222 F3360
G1 X6.90 Y26.63 E206.6323
G1 X-6.90 Y26.63 E207.2827
G1 X-6.90 Y-16.53 E209.3168
G1 X-6.90 Y-18.53 E209.4111 F2832
G1 X-6.90 Y-20.53 E209.5053 F2304
G1 X-6.90 Y-22.53 E209.5996 F1776
G1 X-6.90 Y-24.53 E209.6939 F1248
G1 X-6.90 Y-26.53 E209.7882 F720
G1 X-7.30 Y-27.03 E209.7882 F300
G1 X7.30 Y-27.03 E210.4762 F2400
G1 X7.30 Y27.03 E213.0241
G1 X-7.30 Y27.03 E213.7122
G1 X-7.30 Y-26.93 E216.2553
G1 X-6.90 Y-26.53 E216.2641 F300
;infill
G1 E214.9641 F1800
G1 X6.56 Y-26.22 F7200
G1 E216.2641 F1800
G1 X6.56 Y-26.22 F7200
G1 X6.49 Y-26.29 E216.2688 F3360
G1 X5.92 Y-26.29 E216.2957
G1 X6.56 Y-25.65 E216.3383
G1 X6.56 Y-25.09 E216.3647
G1 X5.36 Y-26.29 E216.4447
G1 X4.79 Y-26.29 E216.4716
G1 X6.56 Y-24.52 E216.5895
G1 X6.56 Y-23.95 E216.6164
G1 X4.22 Y-26.29 E216.7724
G1 X3.66 Y-26.29 E216.7987
G1 X6.56 Y-23.39 E216.9920
G1 X6.56 Y-22.82 E217.0189
G1 X3.09 Y-26.29 E217.2502
G1 X2.53 Y-26.29 E217.2766
G1 X6.56 Y-22.26 E217.5452
G1 X6.56 Y-21.69 E217.5720
G1 X1.96 Y-26.29 E217.8786
G1 X1.40 Y-26.29 E217.9050
G1 X6.56 Y-21.13 E218.2489
G1 X6.56 Y-20.56 E218.2758
G1 X.83 Y-26.29 E218.6577
G1 X.26 Y-26.29 E218.6846
G1 X6.56 Y-19.99 E219.1045
G1 X6.56 Y-19.43 E219.1309
G1 X-.30 Y-26.29 E219.5881
G1 X-.87 Y-26.29 E219.6150
G1 X6.56 Y-18.86 E220.1102
G1 X6.56 Y-18.30 E220.1366
G1 X-1.43 Y-26.29 E220.6691
G1 X-2.00 Y-26.29 E220.6960
G1 X6.56 Y-17.73 E221.2665
G1 X6.56 Y-17.17 E221.2929
G1 X-2.56 Y-26.29 E221.9008
G1 X-3.13 Y-26.29 E221.9276
G1 X6.56 Y-16.60 E222.5735
G1 X6.56 Y-16.03 E222.6003
G1 X-3.70 Y-26.29 E223.2841
G1 X-4.26 Y-26.29 E223.3105
G1 X6.56 Y-15.47 E224.0317
G1 X6.56 Y-14.90 E224.0586
G1 X-4.83 Y-26.29 E224.8177
G1 X-5.39 Y-26.29 E224.8441
G1 X6.56 Y-14.34 E225.6406
G1 X6.56 Y-13.77 E225.6675
