;generated by ffslicer 1.4.0 07/28/16 10:19:20
;start gcode
M118 X30.00 Y54.83 Z5.00 T0
M140 S0
M104 S220 T0
M104 S0 T1
M107
G90
G28
M132 X Y Z A B
G1 Z50.00 F600
G161 X Y F3300
M6 T0
M907 X100 Y100 Z40 A100 B20
;preExtrude: 0.20
G1 Z.20 F400
M108 T0
;preExtruder0
G1 X17.87 Y-30.60 F7200
G1 X18.97 Y-30.40 E.1621 F1200
G1 X20.05 Y-30.09 E.3251
G1 X21.09 Y-29.65 E.4888
G1 X22.06 Y-29.11 E.6498
G1 X22.98 Y-28.45 E.8140
G1 X23.81 Y-27.70 E.9762
G1 X24.56 Y-26.86 E1.1395
G1 X25.20 Y-25.94 E1.3021
G1 X25.74 Y-24.96 E1.4643
G1 X26.16 Y-23.92 E1.6270
G1 X26.47 Y-22.83 E1.7913
G1 X26.61 Y-22.01 E1.9119
G1 X29.95 Y-1.07 E4.9869
G1 X30.00 Y-.03 E5.1379
G1 X28.68 Y45.08 E11.6823
G1 X28.63 Y45.97 E11.8116
G1 X28.43 Y47.09 E11.9765
G1 X28.12 Y48.17 E12.1395
G1 X27.68 Y49.21 E12.3032
G1 X27.13 Y50.19 E12.4662
G1 X26.48 Y51.10 E12.6284
G1 X25.73 Y51.93 E12.7906
G1 X24.89 Y52.68 E12.9539
G1 X23.97 Y53.32 E13.1164
G1 X22.99 Y53.86 E13.2787
G1 X21.95 Y54.28 E13.4413
G1 X20.86 Y54.59 E13.6057
G1 X19.79 Y54.77 E13.7630
G1 X18.82 Y54.83 E13.9039
G1 X-5.29 Y54.83 E17.4002
;raft
;layer:0.20
G1 Z.20 F400
;shell
G1 E16.1002 F1800
G1 X16.59 Y44.63 F4200
G1 E17.4002 F1800
G1 X16.59 Y44.63 F4200
G1 X16.59 Y45.05 E17.4155 F1200
G1 X16.68 Y45.47 E17.4310
G1 X16.74 Y45.60 E17.4362
G1 X16.85 Y45.86 E17.4465
G1 X17.10 Y46.20 E17.4618
G1 X17.32 Y46.41 E17.4728
G1 X17.42 Y46.50 E17.4777
G1 X17.77 Y46.72 E17.4926
G1 X18.18 Y46.86 E17.5084
G1 X18.19 Y46.87 E17.5089
G1 X18.27 Y46.88 E17.5118
G1 X18.59 Y46.93 E17.5235
G1 X19.02 Y46.90 E17.5392
G1 X19.18 Y46.86 E17.5451
G1 X19.42 Y46.79 E17.5542
G1 X19.81 Y46.60 E17.5699
G1 X20.06 Y46.40 E17.5815
G1 X20.12 Y46.35 E17.5844
G1 X20.15 Y46.33 E17.5857
G1 X20.42 Y46.01 E17.6008
G1 X20.62 Y45.64 E17.6161
G1 X20.75 Y45.23 E17.6317
G1 X20.79 Y44.81 E17.6470
G1 X20.76 Y44.54 E17.6568
G1 X20.74 Y44.38 E17.6627
G1 X20.61 Y43.99 E17.6776
G1 X20.40 Y43.61 E17.6933
G1 X20.12 Y43.29 E17.7087
G1 X19.78 Y43.03 E17.7243
G1 X19.65 Y42.97 E17.7295
G1 X19.40 Y42.85 E17.7395 F1016
G1 X18.99 Y42.75 E17.7548
G1 X18.56 Y42.73 E17.7704
G1 X18.14 Y42.79 E17.7858
G1 X17.74 Y42.95 E17.8014
G1 X17.39 Y43.17 E17.8164 F720
G1 X17.08 Y43.47 E17.8320
G1 X16.84 Y43.82 E17.8474
G1 X16.67 Y44.21 E17.8628
G1 X16.61 Y44.51 E17.8739
G1 X16.99 Y44.66 E17.8739 F300
G1 X16.99 Y45.01 E17.8866 F1200
G1 X17.07 Y45.35 E17.8993
G1 X17.20 Y45.66 E17.9115
G1 X17.40 Y45.94 E17.9239
G1 X17.66 Y46.18 E17.9368
G1 X17.95 Y46.36 E17.9492
G1 X18.27 Y46.47 E17.9614
G1 X18.61 Y46.52 E17.9739
G1 X18.96 Y46.50 E17.9866
G1 X19.28 Y46.42 E17.9985
G1 X19.59 Y46.26 E18.0112
G1 X19.87 Y46.05 E18.0239
G1 X20.09 Y45.78 E18.0365
G1 X20.25 Y45.48 E18.0488
G1 X20.35 Y45.16 E18.0610
G1 X20.38 Y44.81 E18.0737
G1 X20.34 Y44.47 E18.0861
G1 X20.24 Y44.14 E18.0986
G1 X20.07 Y43.84 E18.1111
G1 X19.84 Y43.58 E18.1237
G1 X19.57 Y43.38 E18.1359
G1 X19.26 Y43.23 E18.1484
G1 X18.93 Y43.14 E18.1608
G1 X18.58 Y43.13 E18.1735
G1 X18.25 Y43.18 E18.1856
G1 X17.92 Y43.31 E18.1984
G1 X17.64 Y43.49 E18.2105
G1 X17.38 Y43.73 E18.2233
G1 X17.19 Y44.01 E18.2356
G1 X17.06 Y44.33 E18.2481
G1 X17.01 Y44.57 E18.2570
G1 X16.61 Y44.53 E18.2619 F300
G1 E16.9619 F1800
G1 X-21.43 Y42.93 F4200
G1 X-21.81 Y42.99
G1 X-22.17 Y43.13
G1 X-22.48 Y43.33
G1 X-22.77 Y43.60
G1 X-23.41 Y44.63
G1 E18.2619 F1800
G1 X-23.41 Y44.63 F4200
G1 X-23.41 Y45.05 E18.2771 F1200
G1 X-23.32 Y45.47 E18.2927
G1 X-23.26 Y45.60 E18.2978
G1 X-23.15 Y45.86 E18.3081
G1 X-22.90 Y46.20 E18.3234
G1 X-22.68 Y46.41 E18.3344
G1 X-22.58 Y46.50 E18.3393
G1 X-22.23 Y46.72 E18.3543
G1 X-21.82 Y46.86 E18.3700
G1 X-21.81 Y46.87 E18.3705
G1 X-21.72 Y46.88 E18.3738
G1 X-21.41 Y46.93 E18.3852
G1 X-20.98 Y46.90 E18.4008
G1 X-20.82 Y46.86 E18.4068
G1 X-20.57 Y46.79 E18.4162
G1 X-20.19 Y46.60 E18.4316
G1 X-19.94 Y46.40 E18.4432
G1 X-19.88 Y46.35 E18.4460
G1 X-19.85 Y46.33 E18.4473
G1 X-19.58 Y46.01 E18.4625
G1 X-19.38 Y45.64 E18.4778
G1 X-19.25 Y45.23 E18.4933
G1 X-19.21 Y44.81 E18.5086
G1 X-19.24 Y44.54 E18.5185
G1 X-19.26 Y44.38 E18.5243
G1 X-19.39 Y43.99 E18.5392
G1 X-19.60 Y43.61 E18.5550
G1 X-19.88 Y43.29 E18.5704
G1 X-20.22 Y43.03 E18.5859
G1 X-20.35 Y42.97 E18.5911
G1 X-20.60 Y42.85 E18.6012 F1016
G1 X-21.01 Y42.75 E18.6165
G1 X-21.44 Y42.73 E18.6321
G1 X-21.86 Y42.79 E18.6474
G1 X-22.26 Y42.95 E18.6631
G1 X-22.61 Y43.17 E18.6780 F720
G1 X-22.92 Y43.47 E18.6937
G1 X-23.16 Y43.82 E18.7091
G1 X-23.33 Y44.21 E18.7245
G1 X-23.38 Y44.51 E18.7355
G1 X-23.01 Y44.66 E18.7355 F300
G1 X-23.01 Y45.01 E18.7482 F1200
G1 X-22.93 Y45.35 E18.7609
G1 X-22.80 Y45.66 E18.7731
G1 X-22.60 Y45.94 E18.7855
G1 X-22.34 Y46.18 E18.7984
G1 X-22.05 Y46.36 E18.8107
G1 X-21.73 Y46.47 E18.8230
G1 X-21.39 Y46.52 E18.8355
G1 X-21.04 Y46.50 E18.8482
G1 X-20.72 Y46.42 E18.8601
G1 X-20.41 Y46.26 E18.8728
G1 X-20.13 Y46.05 E18.8855
G1 X-19.91 Y45.78 E18.8981
G1 X-19.75 Y45.48 E18.9104
G1 X-19.65 Y45.16 E18.9226
G1 X-19.62 Y44.81 E18.9353
G1 X-19.65 Y44.47 E18.9477
G1 X-19.76 Y44.14 E18.9603
G1 X-19.93 Y43.84 E18.9728
G1 X-20.15 Y43.58 E18.9851
G1 X-20.43 Y43.38 E18.9976
G1 X-20.74 Y43.23 E19.0101
G1 X-21.07 Y43.14 E19.0225
G1 X-21.42 Y43.13 E19.0352
G1 X-21.75 Y43.18 E19.0473
G1 X-22.08 Y43.31 E19.0602
G1 X-22.36 Y43.49 E19.0722
G1 X-22.62 Y43.73 E19.0851
G1 X-22.81 Y44.01 E19.0973
G1 X-22.94 Y44.33 E19.1098
G1 X-22.99 Y44.57 E19.1187
G1 X-23.39 Y44.53 E19.1236 F300
G1 E17.8236 F1800
G1 X-25.71 Y44.81 F4200
G1 E19.1236 F1800
G1 X-25.71 Y44.81 F4200
G1 X-25.68 Y44.31 E19.1417 F1200
G1 X-25.60 Y43.83 E19.1594
G1 X-25.59 Y43.81 E19.1602
G1 X-25.46 Y43.35 E19.1775
G1 X-25.27 Y42.90 E19.1952
G1 X-25.26 Y42.88 E19.1960
G1 X-25.03 Y42.48 E19.2128
G1 X-24.74 Y42.06 E19.2313
G1 X-24.71 Y42.04 E19.2326
G1 X-24.41 Y41.70 E19.2490
G1 X-24.04 Y41.37 E19.2670
G1 X-24.00 Y41.34 E19.2688
G1 X-23.64 Y41.09 E19.2847
G1 X-23.21 Y40.85 E19.3025
G1 X-23.14 Y40.83 E19.3052
G1 X-22.75 Y40.67 E19.3205
G1 X-22.27 Y40.53 E19.3386
G1 X-21.79 Y40.45 E19.3562
G1 X-21.29 Y40.43 E19.3744
G1 X18.66 Y40.43 E20.8227
G1 X19.19 Y40.46 E20.8420
G1 X19.68 Y40.54 E20.8600
G1 X20.16 Y40.68 E20.8781
G1 X20.60 Y40.87 E20.8955
G1 X21.04 Y41.11 E20.9136
G1 X21.44 Y41.40 E20.9315
G1 X21.80 Y41.73 E20.9492
G1 X22.14 Y42.10 E20.9675
G1 X22.42 Y42.50 E20.9852
G1 X22.65 Y42.93 E21.0028
G1 X22.84 Y43.39 E21.0209
G1 X22.97 Y43.86 E21.0386
G1 X23.06 Y44.35 E21.0566
G1 X23.08 Y44.85 E21.0748
G1 X23.05 Y45.32 E21.0918
G1 X22.97 Y45.82 E21.1102
G1 X22.83 Y46.30 E21.1283
G1 X22.64 Y46.75 E21.1460
G1 X22.40 Y47.17 E21.1636
G1 X22.11 Y47.59 E21.1821
G1 X21.78 Y47.94 E21.1995
G1 X21.41 Y48.28 E21.2177
G1 X21.01 Y48.56 E21.2354
G1 X20.57 Y48.80 E21.2536
G1 X20.13 Y48.98 E21.2708
G1 X19.64 Y49.12 E21.2893
G1 X19.16 Y49.20 E21.3070
G1 X18.66 Y49.23 E21.3251
G1 X-18.14 Y49.23 E22.6592
G1 X-20.14 Y49.23 E22.7317
G1 X-21.31 Y49.23 E22.7742
G1 X-21.82 Y49.19 E22.7927
G1 X-22.13 Y49.14 E22.8041
G1 X-22.31 Y49.11 E22.8107
G1 X-22.80 Y48.97 E22.8292
G1 X-23.24 Y48.78 E22.8466
G1 X-23.66 Y48.54 E22.8641
G1 X-23.94 Y48.34 E22.8766
G1 X-24.08 Y48.25 E22.8826
G1 X-24.44 Y47.92 E22.9003
G1 X-24.77 Y47.55 E22.9183
G1 X-25.05 Y47.15 E22.9360
G1 X-25.22 Y46.83 E22.9491
G1 X-25.29 Y46.71 E22.9542 F720
G1 X-25.47 Y46.27 E22.9714
G1 X-25.61 Y45.78 E22.9899
G1 X-25.69 Y45.29 E23.0079
G1 X-25.71 Y44.91 E23.0217
G1 X-26.11 Y44.80 E23.0217 F300
G1 X-26.08 Y44.26 E23.0413 F1200
G1 X-25.99 Y43.74 E23.0604
G1 X-25.84 Y43.22 E23.0800
G1 X-25.63 Y42.73 E23.0994
G1 X-25.37 Y42.26 E23.1188
G1 X-25.05 Y41.81 E23.1388
G1 X-24.70 Y41.42 E23.1578
G1 X-24.29 Y41.06 E23.1776
G1 X-23.86 Y40.76 E23.1966
G1 X-23.37 Y40.49 E23.2169
G1 X-22.89 Y40.29 E23.2358
G1 X-22.36 Y40.14 E23.2557
G1 X-21.84 Y40.06 E23.2748
G1 X-21.30 Y40.03 E23.2944
G1 X18.67 Y40.03 E24.7435
G1 X19.24 Y40.06 E24.7642
G1 X19.77 Y40.15 E24.7837
G1 X20.29 Y40.30 E24.8033
G1 X20.78 Y40.51 E24.8226
G1 X21.25 Y40.77 E24.8421
G1 X21.69 Y41.09 E24.8618
G1 X22.09 Y41.45 E24.8813
G1 X22.45 Y41.85 E24.9008
G1 X22.76 Y42.29 E24.9203
G1 X23.02 Y42.76 E24.9398
G1 X23.22 Y43.26 E24.9593
G1 X23.37 Y43.78 E24.9789
G1 X23.45 Y44.30 E24.9980
G1 X23.48 Y44.85 E25.0180
G1 X23.45 Y45.37 E25.0369
G1 X23.36 Y45.91 E25.0567
G1 X23.21 Y46.44 E25.0767
G1 X23.00 Y46.92 E25.0957
G1 X22.74 Y47.39 E25.1152
G1 X22.42 Y47.83 E25.1349
G1 X22.06 Y48.23 E25.1544
G1 X21.66 Y48.59 E25.1739
G1 X21.22 Y48.90 E25.1934
G1 X20.75 Y49.16 E25.2129
G1 X20.25 Y49.36 E25.2324
G1 X19.72 Y49.51 E25.2524
G1 X19.21 Y49.60 E25.2712
G1 X18.67 Y49.63 E25.2908
G1 X-21.32 Y49.63 E26.7405
G1 X-21.87 Y49.59 E26.7605
G1 X-22.40 Y49.50 E26.7800
G1 X-22.92 Y49.35 E26.7996
G1 X-23.42 Y49.14 E26.8193
G1 X-23.88 Y48.88 E26.8385
G1 X-24.32 Y48.56 E26.8582
G1 X-24.72 Y48.20 E26.8777
G1 X-25.08 Y47.80 E26.8972
G1 X-25.39 Y47.36 E26.9167
G1 X-25.65 Y46.89 E26.9362
G1 X-25.85 Y46.40 E26.9554
G1 X-26.00 Y45.87 E26.9753
G1 X-26.09 Y45.35 E26.9945
G1 X-26.11 Y44.90 E27.0108
G1 X-25.71 Y44.91 E27.0156 F300
;infill
G1 E25.7156 F1800
G1 X-25.24 Y45.83 F4200
G1 E27.0156 F1800
G1 X-25.24 Y45.83 F4200
G1 X-23.69 Y44.28 E27.0951 F1200
G1 X-23.75 Y44.59 E27.1065
G1 X-23.75 Y44.90 E27.1178
G1 X-25.11 Y46.26 E27.1875
G1 X-24.98 Y46.56 E27.1994
G1 X-24.93 Y46.65 E27.2031
G1 X-23.68 Y45.40 E27.2672
G1 X-23.64 Y45.57 E27.2735
G1 X-23.53 Y45.82 E27.2834
G1 X-24.73 Y47.01 E27.3447
G1 X-24.50 Y47.34 E27.3593
G1 X-24.49 Y47.35 E27.3598
G1 X-23.33 Y46.18 E27.4195
G1 X-23.16 Y46.43 E27.4305
G1 X-23.08 Y46.50 E27.4343
G1 X-24.23 Y47.65 E27.4933
G1 X-24.19 Y47.69 E27.4953
G1 X-23.93 Y47.92 E27.5079
G1 X-22.79 Y46.77 E27.5666
G1 X-22.44 Y46.99 E27.5816
G1 X-23.61 Y48.16 E27.6416
G1 X-23.47 Y48.26 E27.6478
G1 X-23.26 Y48.38 E27.6566
G1 X-22.03 Y47.15 E27.7197
G1 X-21.91 Y47.20 E27.7244
G1 X-21.56 Y47.25 E27.7372
G1 X-22.88 Y48.56 E27.8046
G1 X-22.69 Y48.65 E27.8122
G1 X-22.46 Y48.71 E27.8209
G1 X-20.99 Y47.24 E27.8962
G1 X-20.92 Y47.24 E27.8988
G1 X-20.45 Y47.11 E27.9164
G1 X-20.14 Y46.96 E27.9289
G1 X-22.00 Y48.82 E28.0243
G1 E26.7243 F1800
G1 X-23.12 Y45.41 F4200
G1 X-23.20 Y45.03
G1 X-23.21 Y44.65
G1 X-22.67 Y41.00
G1 E28.0243 F1800
G1 X-22.67 Y41.00 F4200
G1 X-25.14 Y43.47 E28.1509 F1200
G1 X-25.27 Y43.90 E28.1672
G1 X-25.32 Y44.22 E28.1790
G1 X-21.92 Y40.82 E28.3533
G1 X-21.76 Y40.79 E28.3592
G1 X-21.31 Y40.77 E28.3755
G1 X-25.37 Y44.83 E28.5837
G1 X-25.35 Y45.26 E28.5993
G1 X-25.33 Y45.36 E28.6030
G1 X-20.74 Y40.76 E28.8386
G1 X-20.17 Y40.76 E28.8592
G1 X-21.86 Y42.45 E28.9459
G1 X-21.46 Y42.38 E28.9606
G1 X-21.24 Y42.39 E28.9686
G1 X-19.61 Y40.76 E29.0521
G1 X-19.04 Y40.76 E29.0728
G1 X-20.74 Y42.46 E29.1600
G1 X-20.48 Y42.53 E29.1697
G1 X-20.32 Y42.61 E29.1762
G1 X-18.48 Y40.76 E29.2708
G1 X-17.91 Y40.76 E29.2915
G1 X-19.95 Y42.81 E29.3963
G1 X-19.64 Y43.04 E29.4103
G1 X-19.63 Y43.05 E29.4108
G1 X-17.34 Y40.76 E29.5282
G1 X-16.78 Y40.76 E29.5485
G1 X-19.37 Y43.35 E29.6813
G1 X-19.32 Y43.41 E29.6842
G1 X-19.15 Y43.70 E29.6964
G1 X-16.21 Y40.76 E29.8471
G1 X-15.65 Y40.76 E29.8674
G1 X-18.99 Y44.11 E30.0389
G1 X-18.92 Y44.32 E30.0469
G1 X-18.90 Y44.58 E30.0564
G1 X-15.08 Y40.76 E30.2522
G1 X-14.52 Y40.76 E30.2725
G1 X-18.90 Y45.15 E30.4973
G1 X-18.92 Y45.30 E30.5028
G1 X-19.07 Y45.78 E30.5211
G1 X-19.19 Y46.00 E30.5301
G1 X-13.95 Y40.76 E30.7988
G1 X-13.38 Y40.76 E30.8195
G1 X-21.49 Y48.87 E31.2353
G1 X-21.28 Y48.89 E31.2429
G1 X-20.94 Y48.88 E31.2552
G1 X-12.82 Y40.76 E31.6716
G1 X-12.25 Y40.76 E31.6922
G1 X-20.37 Y48.88 E32.1085
G1 X-19.81 Y48.88 E32.1288
G1 X-11.69 Y40.76 E32.5452
G1 X-11.12 Y40.76 E32.5658
G1 X-19.24 Y48.88 E32.9821
G1 X-18.68 Y48.88 E33.0024
G1 X-10.56 Y40.76 E33.4188
G1 X-9.99 Y40.76 E33.4394
G1 X-18.11 Y48.88 E33.8557
G1 X-17.55 Y48.88 E33.8760
G1 X-9.43 Y40.76 E34.2924
G1 X-8.86 Y40.76 E34.3130
G1 X-16.98 Y48.88 E34.7293
G1 X-16.41 Y48.88 E34.7500
G1 X-8.29 Y40.76 E35.1663
G1 X-7.73 Y40.76 E35.1866
G1 X-15.85 Y48.88 E35.6029
G1 X-15.28 Y48.88 E35.6236
G1 X-7.16 Y40.76 E36.0399
G1 X-6.60 Y40.76 E36.0602
G1 X-14.72 Y48.88 E36.4765
G1 X-14.15 Y48.88 E36.4972
G1 X-6.03 Y40.76 E36.9135
G1 X-5.47 Y40.76 E36.9338
G1 X-13.59 Y48.88 E37.3501
G1 X-13.02 Y48.88 E37.3708
G1 X-4.90 Y40.76 E37.7871
G1 X-4.33 Y40.76 E37.8078
G1 X-12.45 Y48.88 E38.2241
G1 X-11.89 Y48.88 E38.2444
G1 X-3.77 Y40.76 E38.6607
G1 X-3.20 Y40.76 E38.6814
G1 X-11.32 Y48.88 E39.0977
G1 X-10.76 Y48.88 E39.1180
G1 X-2.64 Y40.76 E39.5343
G1 X-2.07 Y40.76 E39.5550
G1 X-10.19 Y48.88 E39.9713
G1 X-9.63 Y48.88 E39.9916
G1 X-1.51 Y40.76 E40.4079
G1 X-.94 Y40.76 E40.4286
G1 X-9.06 Y48.88 E40.8449
G1 X-8.49 Y48.88 E40.8655
G1 X-.37 Y40.76 E41.2819
G1 X.19 Y40.76 E41.3022
G1 X-7.93 Y48.88 E41.7185
G1 X-7.36 Y48.88 E41.7391
G1 X.76 Y40.76 E42.1555
G1 X1.32 Y40.76 E42.1758
G1 X-6.80 Y48.88 E42.5921
G1 X-6.23 Y48.88 E42.6127
G1 X1.89 Y40.76 E43.0291
G1 X2.45 Y40.76 E43.0494
G1 X-5.67 Y48.88 E43.4657
G1 X-5.10 Y48.88 E43.4863
G1 X3.02 Y40.76 E43.9027
G1 X3.59 Y40.76 E43.9233
G1 X-4.53 Y48.88 E44.3396
G1 X-3.97 Y48.88 E44.3599
G1 X4.15 Y40.76 E44.7763
G1 X4.72 Y40.76 E44.7969
G1 X-3.40 Y48.88 E45.2132
G1 X-2.84 Y48.88 E45.2335
G1 X5.28 Y40.76 E45.6499
G1 X5.85 Y40.76 E45.6705
G1 X-2.27 Y48.88 E46.0868
G1 X-1.71 Y48.88 E46.1071
G1 X6.41 Y40.76 E46.5234
G1 X6.98 Y40.76 E46.5441
G1 X-1.14 Y48.88 E46.9604
G1 X-.57 Y48.88 E46.9811
G1 X7.55 Y40.76 E47.3974
G1 X8.11 Y40.76 E47.4177
G1 X-.01 Y48.88 E47.8340
G1 X.56 Y48.88 E47.8547
G1 X8.68 Y40.76 E48.2710
G1 X9.24 Y40.76 E48.2913
G1 X1.12 Y48.88 E48.7076
G1 X1.69 Y48.88 E48.7283
G1 X9.81 Y40.76 E49.1446
G1 X10.37 Y40.76 E49.1649
G1 X2.25 Y48.88 E49.5812
G1 X2.82 Y48.88 E49.6019
G1 X10.94 Y40.76 E50.0182
G1 X11.51 Y40.76 E50.0389
G1 X3.38 Y48.88 E50.4554
G1 X3.95 Y48.88 E50.4761
G1 X12.07 Y40.76 E50.8924
G1 X12.64 Y40.76 E50.9131
G1 X4.52 Y48.88 E51.3294
G1 X5.08 Y48.88 E51.3497
G1 X13.20 Y40.76 E51.7660
G1 X13.77 Y40.76 E51.7867
G1 X5.65 Y48.88 E52.2030
G1 X6.21 Y48.88 E52.2233
G1 X14.33 Y40.76 E52.6396
G1 X14.90 Y40.76 E52.6603
G1 X6.78 Y48.88 E53.0766
G1 X7.34 Y48.88 E53.0969
G1 X15.47 Y40.76 E53.5135
G1 X16.03 Y40.76 E53.5338
G1 X7.91 Y48.88 E53.9501
G1 X8.48 Y48.88 E53.9707
G1 X16.60 Y40.76 E54.3871
G1 X17.16 Y40.76 E54.4074
G1 X9.04 Y48.88 E54.8237
G1 X9.61 Y48.88 E54.8443
G1 X17.73 Y40.76 E55.2607
G1 X18.29 Y40.76 E55.2810
G1 X10.17 Y48.88 E55.6973
G1 X10.74 Y48.88 E55.7179
G1 X18.85 Y40.78 E56.1335
G1 X19.16 Y40.79 E56.1447
G1 X19.36 Y40.83 E56.1521
G1 X17.49 Y42.70 E56.2480
G1 X17.59 Y42.64 E56.2522
G1 X18.05 Y42.47 E56.2700
G1 X18.34 Y42.42 E56.2807
G1 X19.82 Y40.93 E56.3568
G1 X20.05 Y41.00 E56.3655
G1 X20.24 Y41.08 E56.3730
G1 X18.92 Y42.40 E56.4407
G1 X19.04 Y42.41 E56.4450
G1 X19.39 Y42.49 E56.4581
G1 X20.62 Y41.27 E56.5209
G1 X20.85 Y41.39 E56.5303
G1 X20.97 Y41.48 E56.5357
G1 X19.79 Y42.66 E56.5962
G1 X19.96 Y42.74 E56.6030
G1 X20.14 Y42.88 E56.6113
G1 X21.30 Y41.72 E56.6708
G1 X21.56 Y41.96 E56.6836
G1 X21.59 Y41.99 E56.6851
G1 X20.44 Y43.14 E56.7441
G1 X20.68 Y43.41 E56.7572
G1 X20.70 Y43.45 E56.7588
G1 X21.86 Y42.29 E56.8183
G1 X21.87 Y42.31 E56.8191
G1 X22.09 Y42.62 E56.8329
G1 X20.90 Y43.81 E56.8939
G1 X20.92 Y43.85 E56.8955
G1 X21.05 Y44.23 E56.9101
G1 X22.30 Y42.98 E56.9741
G1 X22.34 Y43.07 E56.9777
G1 X22.47 Y43.38 E56.9899
G1 X21.12 Y44.73 E57.0591
G1 X21.13 Y44.80 E57.0617
G1 X21.08 Y45.30 E57.0799
G1 X21.07 Y45.35 E57.0817
G1 X22.60 Y43.81 E57.1604
G1 X22.64 Y43.95 E57.1657
G1 X22.70 Y44.28 E57.1779
G1 X18.09 Y48.88 E57.4140
G1 X18.64 Y48.89 E57.4339
G1 X18.66 Y48.88 E57.4347
G1 X22.74 Y44.81 E57.6437
G1 X22.74 Y44.85 E57.6451
G1 X22.71 Y45.29 E57.6611
G1 X22.69 Y45.42 E57.6659
G1 X19.28 Y48.83 E57.8407
G1 X19.56 Y48.79 E57.8510
G1 X20.02 Y48.65 E57.8684
G1 X22.52 Y46.16 E57.9963
G1 X22.51 Y46.17 E57.9968
G1 X22.33 Y46.61 E58.0141
G1 X22.11 Y46.99 E58.0300
G1 X21.85 Y47.37 E58.0467
G1 X21.61 Y47.63 E58.0595
G1 X21.48 Y47.76 E58.0662
G1 E56.7662 F1800
G1 X17.53 Y48.88 F4200
G1 E58.0662 F1800
G1 X17.53 Y48.88 F4200
G1 X19.21 Y47.20 E58.1523 F1200
G1 X19.08 Y47.24 E58.1572
G1 X18.58 Y47.27 E58.1754
G1 X16.96 Y48.88 E58.2582
G1 X16.40 Y48.88 E58.2785
G1 X18.09 Y47.19 E58.3651
G1 X17.67 Y47.04 E58.3813
G1 X15.83 Y48.88 E58.4756
G1 X15.26 Y48.88 E58.4963
G1 X17.31 Y46.84 E58.6011
G1 X17.21 Y46.77 E58.6056
G1 X17.00 Y46.58 E58.6158
