;generated by ffslicer 1.4.0 07/26/16 20:10:29
;start gcode
M118 X45.78 Y16.72 Z13.00 T0
M140 S0
M104 S220 T0
M104 S0 T1
M107
G90
G28
M132 X Y Z A B
G1 Z50.00 F600
G161 X Y F3300
M6 T0
M907 X100 Y100 Z40 A100 B20
;preExtrude: 0.20
G1 Z.20 F400
M108 T0
;preExtruder0
G1 X1.82 Y-9.67 F7200
G1 X13.15 Y-4.45 E1.8090 F1200
G1 X13.15 Y4.45 E3.0996
G1 X1.46 Y9.83 E4.9658
G1 X-20.38 Y13.28 E8.1721
G1 X-45.78 Y13.28 E11.8555
G1 X-45.78 Y-16.72 E16.2059
G1 X-37.53 Y-16.72 E17.4023
;raft
;layer:0.20
G1 Z.20 F400
;shell
G1 E16.1023 F1800
G1 Z.40 F400
G1 X-40.18 Y-11.12 F4200
G1 Z.20 F400
G1 E17.4023 F1800
G1 X-40.18 Y-11.12 F4200
G1 X-39.18 Y-11.12 E17.4385 F1200
G1 X-38.18 Y-11.12 E17.4748
G1 X-37.18 Y-11.12 E17.5111
G1 X-36.18 Y-11.12 E17.5473
G1 X-35.18 Y-11.12 E17.5836
G1 X-21.38 Y-11.12 E18.0839
G1 X-21.38 Y7.68 E18.7654
G1 X-40.18 Y7.68 E19.4470
G1 X-40.18 Y-1.02 E19.7624
G1 X-40.18 Y-3.02 E19.8349
G1 X-40.18 Y-5.02 E19.9074
G1 X-40.18 Y-7.02 E19.9799
G1 X-40.18 Y-9.02 E20.0524
G1 X-40.18 Y-11.02 E20.1249 F720
G1 X-40.58 Y-11.52 E20.1249 F300
G1 X-20.98 Y-11.52 E20.8355 F1200
G1 X-20.98 Y8.08 E21.5461
G1 X-40.58 Y8.08 E22.2567
G1 X-40.58 Y-11.42 E22.9636
G1 X-40.18 Y-11.02 E22.9704 F300
;infill
G1 E21.6704 F1800
G1 X-39.83 Y7.33 F4200
G1 E22.9704 F1800
G1 X-39.83 Y7.33 F4200
G1 X-39.83 Y7.34 E22.9708 F1200
G1 X-39.26 Y7.34 E22.9914
G1 X-39.83 Y6.77 E23.0207
G1 X-39.83 Y6.20 E23.0413
G1 X-38.70 Y7.34 E23.0995
G1 X-38.13 Y7.34 E23.1202
G1 X-39.83 Y5.64 E23.2073
G1 X-39.83 Y5.07 E23.2280
G1 X-37.56 Y7.34 E23.3444
G1 X-37.00 Y7.34 E23.3647
G1 X-39.83 Y4.50 E23.5100
G1 X-39.83 Y3.94 E23.5303
G1 X-36.43 Y7.34 E23.7047
G1 X-35.87 Y7.34 E23.7250
G1 X-39.83 Y3.37 E23.9283
G1 X-39.83 Y2.81 E23.9486
G1 X-35.30 Y7.34 E24.1808
G1 X-34.74 Y7.34 E24.2011
G1 X-39.83 Y2.24 E24.4623
G1 X-39.83 Y1.68 E24.4826
G1 X-34.17 Y7.34 E24.7728
G1 X-33.61 Y7.34 E24.7931
G1 X-39.83 Y1.11 E25.1123
G1 X-39.83 Y.54 E25.1330
G1 X-33.04 Y7.34 E25.4813
G1 X-32.47 Y7.34 E25.5020
G1 X-39.83 Y-.02 E25.8793
G1 X-39.83 Y-.59 E25.9000
G1 X-31.91 Y7.34 E26.3063
G1 X-31.34 Y7.34 E26.3270
G1 X-39.83 Y-1.15 E26.7623
G1 X-39.83 Y-1.72 E26.7829
G1 X-30.78 Y7.34 E27.2472
G1 X-30.21 Y7.34 E27.2679
G1 X-39.83 Y-2.28 E27.7611
G1 X-39.83 Y-2.85 E27.7817
G1 X-29.65 Y7.34 E28.3039
G1 X-29.08 Y7.34 E28.3246
G1 X-39.83 Y-3.42 E28.8760
G1 X-39.83 Y-3.98 E28.8963
G1 X-28.51 Y7.34 E29.4767
G1 X-27.95 Y7.34 E29.4970
G1 X-39.83 Y-4.55 E30.1063
G1 X-39.83 Y-5.11 E30.1266
G1 X-27.38 Y7.34 E30.7650
G1 X-26.82 Y7.34 E30.7853
G1 X-39.83 Y-5.68 E31.4525
G1 X-39.83 Y-6.24 E31.4728
G1 X-26.25 Y7.34 E32.1691
G1 X-25.69 Y7.34 E32.1894
G1 X-39.83 Y-6.81 E32.9146
G1 X-39.83 Y-7.38 E32.9353
G1 X-25.12 Y7.34 E33.6897
G1 X-24.55 Y7.34 E33.7104
G1 X-39.83 Y-7.94 E34.4938
G1 X-39.83 Y-8.51 E34.5145
G1 X-23.99 Y7.34 E35.3268
G1 X-23.42 Y7.34 E35.3475
G1 X-39.83 Y-9.07 E36.1888
G1 X-39.83 Y-9.64 E36.2095
G1 X-22.86 Y7.34 E37.0798
G1 X-22.29 Y7.34 E37.1005
G1 X-39.83 Y-10.20 E37.9998
G1 X-39.83 Y-10.77 E38.0204
G1 X-21.73 Y7.34 E38.9487
G1 X-21.72 Y7.34 E38.9490
G1 X-21.71 Y6.78 E38.9694
G1 X-39.28 Y-10.78 E39.8699
G1 X-38.71 Y-10.78 E39.8906
G1 X-21.71 Y6.22 E40.7622
G1 X-21.71 Y5.65 E40.7828
G1 X-38.15 Y-10.78 E41.6255
G1 X-37.58 Y-10.78 E41.6461
G1 X-21.71 Y5.09 E42.4598
G1 X-21.71 Y4.52 E42.4805
G1 X-37.02 Y-10.78 E43.2651
G1 X-36.45 Y-10.78 E43.2858
G1 X-21.71 Y3.96 E44.0415
G1 X-21.71 Y3.39 E44.0622
G1 X-35.88 Y-10.78 E44.7887
G1 X-35.32 Y-10.78 E44.8090
G1 X-21.71 Y2.82 E45.5065
G1 X-21.71 Y2.26 E45.5268
G1 X-34.75 Y-10.78 E46.1954
G1 X-34.19 Y-10.78 E46.2157
G1 X-21.71 Y1.69 E46.8553
G1 X-21.71 Y1.13 E46.8756
G1 X-33.62 Y-10.78 E47.4862
G1 X-33.06 Y-10.78 E47.5065
G1 X-21.71 Y.56 E48.0882
G1 X-21.71 Y-.00 E48.1085
G1 X-32.49 Y-10.78 E48.6612
G1 X-31.93 Y-10.78 E48.6815
G1 X-21.71 Y-.57 E49.2052
G1 X-21.71 Y-1.13 E49.2255
G1 X-31.36 Y-10.78 E49.7203
G1 X-30.79 Y-10.78 E49.7409
G1 X-21.71 Y-1.70 E50.2065
G1 X-21.71 Y-2.27 E50.2271
G1 X-30.23 Y-10.78 E50.6637
G1 X-29.66 Y-10.78 E50.6844
G1 X-21.71 Y-2.83 E51.0920
G1 X-21.71 Y-3.40 E51.1126
G1 X-29.10 Y-10.78 E51.4912
G1 X-28.53 Y-10.78 E51.5119
G1 X-21.71 Y-3.96 E51.8616
G1 X-21.71 Y-4.53 E51.8822
G1 X-27.97 Y-10.78 E52.2029
G1 X-27.40 Y-10.78 E52.2236
G1 X-21.71 Y-5.09 E52.5153
G1 X-21.71 Y-5.66 E52.5360
G1 X-26.83 Y-10.78 E52.7985
G1 X-26.27 Y-10.78 E52.8188
G1 X-21.71 Y-6.23 E53.0523
G1 X-21.71 Y-6.79 E53.0726
G1 X-25.70 Y-10.78 E53.2772
G1 X-25.14 Y-10.78 E53.2975
G1 X-21.71 Y-7.36 E53.4731
G1 X-21.71 Y-7.92 E53.4934
G1 X-24.57 Y-10.78 E53.6400
G1 X-24.01 Y-10.78 E53.6603
G1 X-21.71 Y-8.49 E53.7780
G1 X-21.71 Y-9.05 E53.7983
G1 X-23.44 Y-10.78 E53.8870
G1 X-22.87 Y-10.78 E53.9077
G1 X-21.71 Y-9.62 E53.9671
G1 X-21.71 Y-10.19 E53.9878
G1 X-22.31 Y-10.78 E54.0183
G1 X-21.74 Y-10.78 E54.0390
G1 X-21.71 Y-10.75 E54.0405
;shell
G1 E52.7405 F1800
G1 Z.40 F400
G1 X-10.58 Y-.31 F4200
G1 Z.20 F400
G1 E54.0405 F1800
G1 X-10.58 Y-.31 F4200
G1 X-10.58 Y.33 E54.0637 F1200
G1 X-10.47 Y.67 E54.0767
G1 X-10.39 Y.93 E54.0865
G1 X-10.04 Y1.44 E54.1090
G1 X-9.95 Y1.51 E54.1131
G1 X-9.54 Y1.83 E54.1319
G1 X-9.10 Y2.00 E54.1491
G1 X-9.02 Y2.03 E54.1521
G1 X-8.96 Y2.05 E54.1544
G1 X-8.33 Y2.10 E54.1774
G1 X-8.11 Y2.05 E54.1855
G1 X-7.72 Y1.96 E54.2000
G1 X-7.21 Y1.65 E54.2217
G1 X-7.18 Y1.64 E54.2228
G1 X-7.15 Y1.60 E54.2246
G1 X-6.75 Y1.17 E54.2459
G1 X-6.48 Y.61 E54.2685
G1 X-6.39 Y-.02 E54.2915
G1 X-6.42 Y-.17 E54.2971
G1 X-6.49 Y-.63 E54.3140
G1 X-6.77 Y-1.20 E54.3370
G1 X-7.20 Y-1.65 E54.3595
G1 X-7.44 Y-1.79 E54.3696
G1 X-7.74 Y-1.97 E54.3823 F1016
G1 X-8.35 Y-2.10 E54.4049
G1 X-8.98 Y-2.05 E54.4278
G1 X-9.34 Y-1.90 E54.4420
G1 X-9.56 Y-1.82 E54.4505 F720
G1 X-10.05 Y-1.42 E54.4734
G1 X-10.40 Y-.90 E54.4961
G1 X-10.55 Y-.42 E54.5143
G1 X-10.18 Y-.25 E54.5143 F300
G1 X-10.18 Y.26 E54.5328 F1200
G1 X-10.03 Y.75 E54.5514
G1 X-9.74 Y1.17 E54.5699
G1 X-9.34 Y1.48 E54.5882
G1 X-8.87 Y1.66 E54.6065
G1 X-8.36 Y1.70 E54.6250
G1 X-7.87 Y1.58 E54.6433
G1 X-7.43 Y1.32 E54.6619
G1 X-7.09 Y.95 E54.6801
G1 X-6.87 Y.49 E54.6986
G1 X-6.80 Y-.01 E54.7169
G1 X-6.88 Y-.51 E54.7352
G1 X-7.10 Y-.97 E54.7537
G1 X-7.45 Y-1.34 E54.7722
G1 X-7.89 Y-1.59 E54.7905
G1 X-8.38 Y-1.70 E54.8087
G1 X-8.89 Y-1.66 E54.8273
G1 X-9.36 Y-1.47 E54.8457
G1 X-9.75 Y-1.15 E54.8639
G1 X-10.04 Y-.73 E54.8824
G1 X-10.15 Y-.35 E54.8968
G1 X-10.55 Y-.41 E54.9017 F300
G1 E53.6017 F1800
G1 X-10.90 Y-.03 F4200
G1 E54.9017 F1800
G1 X-10.90 Y-.03 F4200
G1 X-10.88 Y-.37 E54.9140 F1200
G1 X-10.83 Y-.75 E54.9279
G1 X-10.76 Y-1.09 E54.9405
G1 X-10.66 Y-1.44 E54.9537
G1 X-10.36 Y-2.10 E54.9800
G1 X-10.18 Y-2.41 E54.9930
G1 X-9.96 Y-2.72 E55.0067
G1 X-9.72 Y-2.99 E55.0198
G1 X-9.47 Y-3.24 E55.0327
G1 X-9.19 Y-3.48 E55.0460
G1 X-8.90 Y-3.69 E55.0590
G1 X-8.58 Y-3.88 E55.0725
G1 X-7.93 Y-4.16 E55.0982
G1 X-7.56 Y-4.27 E55.1122
G1 X-7.21 Y-4.34 E55.1251
G1 X-6.85 Y-4.38 E55.1382
G1 X-6.49 Y-4.40 E55.1513
G1 X-.29 Y-4.40 E55.3761
G1 X2.71 Y-.65 E55.5502
G1 X7.55 Y-.65 E55.7256
G1 X7.55 Y.65 E55.7728
G1 X2.71 Y.65 E55.9482
G1 X-.29 Y4.40 E56.1223
G1 X-3.33 Y4.40 E56.2326
G1 X-5.33 Y4.40 E56.3051
G1 X-6.50 Y4.40 E56.3475
G1 X-6.87 Y4.38 E56.3609
G1 X-7.24 Y4.34 E56.3744
G1 X-7.32 Y4.32 E56.3774
G1 X-7.60 Y4.26 E56.3878
G1 X-7.94 Y4.16 E56.4006
G1 X-8.28 Y4.02 E56.4140
G1 X-8.60 Y3.86 E56.4269
G1 X-8.91 Y3.68 E56.4399
G1 X-9.13 Y3.52 E56.4498
G1 X-9.22 Y3.46 E56.4537
G1 X-9.49 Y3.22 E56.4668
G1 X-9.74 Y2.97 E56.4796
G1 X-9.97 Y2.70 E56.4925
G1 X-10.19 Y2.39 E56.5063
G1 X-10.38 Y2.08 E56.5194
G1 X-10.41 Y2.00 E56.5225
G1 X-10.66 Y1.43 E56.5451 F720
G1 X-10.77 Y1.05 E56.5594
G1 X-10.88 Y.36 E56.5848
G1 X-10.89 Y.08 E56.5949
G1 X-11.30 Y-.02 E56.5949 F300
G1 X-11.28 Y-.41 E56.6091 F1200
G1 X-11.23 Y-.81 E56.6237
G1 X-11.15 Y-1.19 E56.6378
G1 X-11.03 Y-1.58 E56.6526
G1 X-10.89 Y-1.94 E56.6666
G1 X-10.72 Y-2.29 E56.6807
G1 X-10.51 Y-2.63 E56.6952
G1 X-10.28 Y-2.96 E56.7098
G1 X-10.02 Y-3.26 E56.7241
G1 X-9.74 Y-3.54 E56.7385
G1 X-9.45 Y-3.79 E56.7524
G1 X-9.11 Y-4.03 E56.7675
G1 X-8.77 Y-4.23 E56.7818
G1 X-8.41 Y-4.40 E56.7962
G1 X-8.05 Y-4.54 E56.8102
G1 X-7.66 Y-4.66 E56.8250
G1 X-7.28 Y-4.74 E56.8391
G1 X-6.88 Y-4.78 E56.8537
G1 X-6.49 Y-4.80 E56.8678
G1 X-.10 Y-4.80 E57.0995
G1 X2.90 Y-1.05 E57.2736
G1 X7.95 Y-1.05 E57.4567
G1 X7.95 Y1.05 E57.5328
G1 X2.90 Y1.05 E57.7159
G1 X-.10 Y4.80 E57.8900
G1 X-6.50 Y4.80 E58.1220
G1 X-6.91 Y4.78 E58.1369
G1 X-7.31 Y4.73 E58.1515
G1 X-7.69 Y4.65 E58.1656
G1 X-8.08 Y4.53 E58.1804
G1 X-8.44 Y4.39 E58.1944
G1 X-8.79 Y4.22 E58.2085
G1 X-9.13 Y4.01 E58.2230
G1 X-9.46 Y3.78 E58.2375
G1 X-9.76 Y3.52 E58.2519
G1 X-10.04 Y3.24 E58.2663
G1 X-10.29 Y2.94 E58.2804
G1 X-10.53 Y2.61 E58.2952
G1 X-10.73 Y2.27 E58.3095
G1 X-10.90 Y1.91 E58.3240
G1 X-11.04 Y1.55 E58.3380
G1 X-11.16 Y1.15 E58.3531
G1 X-11.24 Y.78 E58.3668
G1 X-11.28 Y.38 E58.3814
G1 X-11.29 Y.08 E58.3923
G1 X-10.89 Y.07 E58.3971 F300
;infill
G1 E57.0971 F1800
G1 X-9.90 Y-2.20 F4200
G1 E58.3971 F1800
G1 X-9.90 Y-2.20 F4200
G1 X-9.78 Y-2.08 E58.4033 F1200
G1 X-9.74 Y-2.11 E58.4051
G1 X-9.39 Y-2.25 E58.4188
G1 X-9.67 Y-2.53 E58.4331
G1 X-9.47 Y-2.76 E58.4442
G1 X-9.40 Y-2.83 E58.4477
G1 X-8.96 Y-2.39 E58.4703
G1 X-8.44 Y-2.43 E58.4892
G1 X-9.10 Y-3.10 E58.5233
G1 X-8.98 Y-3.22 E58.5295
G1 X-8.78 Y-3.34 E58.5379
G1 X-7.75 Y-2.32 E58.5905
G1 E57.2905 F1800
G1 X-9.46 Y-1.64 F4200
G1 X-9.90 Y-1.29
G1 X-10.22 Y-.82
G1 X-10.38 Y-.28
G1 X-10.38 Y.29
G1 X-10.21 Y.83
G1 X-9.34 Y2.89
G1 E58.5905 F1800
G1 X-9.34 Y2.89 F4200
G1 X-9.21 Y3.01 E58.5969 F1200
G1 X-9.00 Y3.19 E58.6069
G1 X-8.45 Y3.56 E58.6309
G1 X-7.83 Y3.83 E58.6555
G1 X-9.42 Y2.24 E58.7370
G1 X-9.03 Y2.39 E58.7521
G1 X-8.68 Y2.41 E58.7648
G1 X-7.09 Y4.01 E58.8466
G1 X-6.48 Y4.06 E58.8688
G1 X-6.47 Y4.06 E58.8692
G1 X-8.13 Y2.40 E58.9543
G1 X-7.67 Y2.30 E58.9713
G1 X-5.90 Y4.06 E59.0618
G1 X-5.34 Y4.06 E59.0821
G1 X-7.30 Y2.10 E59.1826
G1 X-6.96 Y1.90 E59.1969
G1 X-6.94 Y1.89 E59.1977
G1 X-4.77 Y4.06 E59.3090
G1 X-4.21 Y4.06 E59.3293
G1 X-6.67 Y1.59 E59.4557
G1 X-6.47 Y1.37 E59.4664
G1 X-6.42 Y1.28 E59.4702
G1 X-3.64 Y4.06 E59.6127
G1 X-3.08 Y4.06 E59.6330
G1 X-6.24 Y.90 E59.7950
G1 X-6.15 Y.72 E59.8023
G1 X-6.12 Y.45 E59.8122
G1 X-2.51 Y4.06 E59.9973
G1 X-1.94 Y4.06 E60.0179
G1 X-6.05 Y-.05 E60.2286
G1 X-6.16 Y-.72 E60.2533
G1 X-1.38 Y4.06 E60.4983
G1 X-.81 Y4.06 E60.5190
G1 X-8.44 Y-3.56 E60.9099
G1 X-8.42 Y-3.58 E60.9110
G1 X-8.05 Y-3.74 E60.9256
G1 X-.36 Y3.94 E61.3196
G1 X-.11 Y3.63 E61.3340
G1 X-7.63 Y-3.89 E61.7196
G1 X-7.17 Y-4.00 E61.7367
G1 X.14 Y3.32 E62.1118
G1 X.39 Y3.00 E62.1265
G1 X-6.65 Y-4.04 E62.4874
G1 X-6.48 Y-4.06 E62.4936
G1 X-6.10 Y-4.06 E62.5074
G1 X.64 Y2.69 E62.8532
G1 X.90 Y2.37 E62.8682
G1 X-5.54 Y-4.06 E63.1981
G1 X-4.97 Y-4.06 E63.2188
G1 X1.15 Y2.06 E63.5325
G1 X1.40 Y1.74 E63.5473
G1 X-4.41 Y-4.06 E63.8449
G1 X-3.84 Y-4.06 E63.8656
G1 X1.65 Y1.43 E64.1470
G1 X1.90 Y1.12 E64.1615
G1 X-3.27 Y-4.06 E64.4268
G1 X-2.71 Y-4.06 E64.4471
G1 X2.15 Y.80 E64.6963
G1 X2.40 Y.49 E64.7107
G1 X-2.14 Y-4.06 E64.9437
G1 X-1.58 Y-4.06 E64.9640
G1 X2.79 Y.31 E65.1881
G1 X3.36 Y.31 E65.2087
G1 X2.74 Y-.31 E65.2405
G1 X3.30 Y-.31 E65.2608
G1 X3.92 Y.31 E65.2926
G1 X4.49 Y.31 E65.3133
G1 X3.87 Y-.31 E65.3451
G1 X4.44 Y-.31 E65.3657
G1 X5.05 Y.31 E65.3973
G1 X5.62 Y.31 E65.4179
G1 X5.00 Y-.31 E65.4497
G1 X5.57 Y-.31 E65.4704
G1 X6.19 Y.31 E65.5022
G1 X6.75 Y.31 E65.5225
G1 X6.13 Y-.31 E65.5543
G1 X6.70 Y-.31 E65.5749
G1 X7.21 Y.20 E65.6011
G1 E64.3011 F1800
G1 X1.78 Y-1.27 F4200
G1 E65.6011 F1800
G1 X1.78 Y-1.27 F4200
G1 X-1.01 Y-4.06 E65.7441 F1200
;percent
;layer:0.20
G1 Z.40 F400
;shell
G1 E64.4441 F1800
G1 Z.60 F400
G1 X-8.96 Y-1.85 F7200
G1 Z.40 F400
G1 X-9.48 Y-1.63 F7200
G1 X-9.91 Y-1.27
G1 X-10.58 Y-.31
G1 E65.7441 F1800
G1 X-10.58 Y-.31 F7200
G1 X-10.58 Y.31 E65.7666 F1500
G1 X-10.47 Y.67 E65.7802
G1 X-10.40 Y.91 E65.7893 F1828
G1 X-10.04 Y1.43 E65.8122
G1 X-9.95 Y1.51 E65.8166
G1 X-9.55 Y1.83 E65.8352 F2156
G1 X-9.10 Y2.00 E65.8526
G1 X-9.02 Y2.03 E65.8557 F2484
G1 X-8.97 Y2.06 E65.8578
G1 X-8.31 Y2.10 E65.8818
G1 X-8.11 Y2.05 E65.8893
G1 X-7.69 Y1.95 E65.9049 F2811
G1 X-7.21 Y1.65 E65.9254
G1 X-7.16 Y1.62 E65.9276 F2656
G1 X-7.14 Y1.61 E65.9284
G1 X-6.74 Y1.16 E65.9502 F2172
G1 X-6.48 Y.58 E65.9732
G1 X-6.40 Y-.04 E65.9959
G1 X-6.42 Y-.17 E66.0007
G1 X-6.50 Y-.66 E66.0187 F1688
G1 X-6.78 Y-1.22 E66.0414
G1 X-7.22 Y-1.67 E66.0642
G1 X-7.44 Y-1.79 E66.0733
G1 X-7.76 Y-1.97 E66.0866 F1204
G1 X-8.38 Y-2.10 E66.1096
G1 X-9.00 Y-2.04 E66.1321
G1 X-9.34 Y-1.90 E66.1455
G1 X-9.58 Y-1.80 E66.1549 F720
G1 X-10.07 Y-1.40 E66.1778
G1 X-10.41 Y-.88 E66.2004
G1 X-10.55 Y-.41 E66.2181
G1 X-10.18 Y-.25 E66.2181 F300
G1 X-10.18 Y.25 E66.2363 F1314
G1 X-10.03 Y.74 E66.2548
G1 X-9.75 Y1.16 E66.2731
G1 X-9.35 Y1.48 E66.2917
G1 X-8.88 Y1.66 E66.3099
G1 X-8.34 Y1.69 E66.3296
G1 X-7.85 Y1.57 E66.3479
G1 X-7.42 Y1.31 E66.3661
G1 X-7.08 Y.93 E66.3845
G1 X-6.87 Y.47 E66.4029
G1 X-6.80 Y-.03 E66.4212
G1 X-6.88 Y-.53 E66.4395
G1 X-7.11 Y-.98 E66.4579
G1 X-7.46 Y-1.35 E66.4763
G1 X-7.91 Y-1.59 E66.4948
G1 X-8.40 Y-1.70 E66.5130
G1 X-8.91 Y-1.65 E66.5316
G1 X-9.38 Y-1.46 E66.5500
G1 X-9.77 Y-1.13 E66.5685
G1 X-10.04 Y-.71 E66.5866
G1 X-10.15 Y-.35 E66.6003
G1 X-10.55 Y-.41 E66.6051 F300
G1 E65.3051 F1800
G1 X-10.90 Y-.05 F7200
G1 E66.6051 F1800
G1 X-10.90 Y-.05 F7200
G1 X-10.88 Y-.40 E66.6178 F4800
G1 X-10.83 Y-.78 E66.6317
G1 X-10.64 Y-1.47 E66.6577
G1 X-10.51 Y-1.81 E66.6709
G1 X-10.35 Y-2.12 E66.6835
G1 X-10.15 Y-2.45 E66.6975
G1 X-9.95 Y-2.72 E66.7097
G1 X-9.70 Y-3.02 E66.7239
G1 X-9.45 Y-3.26 E66.7364
G1 X-9.16 Y-3.50 E66.7501
G1 X-8.88 Y-3.70 E66.7625
G1 X-8.55 Y-3.89 E66.7763
G1 X-8.23 Y-4.04 E66.7892
G1 X-7.88 Y-4.18 E66.8028
G1 X-7.55 Y-4.27 E66.8152
G1 X-7.18 Y-4.34 E66.8289
G1 X-6.48 Y-4.40 E66.8543
G1 X-.29 Y-4.40 E67.0787
G1 X2.71 Y-.65 E67.2528
G1 X7.75 Y-.65 E67.4356
G1 X8.21 Y-.65 E67.4522 F3360
G1 X8.21 Y.65 E67.4994
G1 X7.75 Y.65 E67.5161
G1 X2.71 Y.65 E67.6988 F4800
G1 X-.29 Y4.40 E67.8729
G1 X-3.35 Y4.40 E67.9838
G1 X-5.35 Y4.40 E68.0563 F3984
G1 X-6.48 Y4.40 E68.0973 F3168
G1 X-6.90 Y4.38 E68.1125
G1 X-7.27 Y4.33 E68.1261
G1 X-7.35 Y4.31 E68.1291
G1 X-7.61 Y4.25 E68.1387 F2352
G1 X-7.98 Y4.14 E68.1527
G1 X-8.31 Y4.01 E68.1656
G1 X-8.62 Y3.85 E68.1782
G1 X-8.94 Y3.66 E68.1917
G1 X-9.15 Y3.50 E68.2013
G1 X-9.23 Y3.45 E68.2047 F1536
G1 X-9.52 Y3.20 E68.2186
G1 X-9.76 Y2.95 E68.2312
G1 X-10.01 Y2.66 E68.2451
G1 X-10.39 Y2.06 E68.2708
G1 X-10.42 Y1.98 E68.2739
G1 X-10.54 Y1.73 E68.2839 F720
G1 X-10.68 Y1.37 E68.2979
G1 X-10.77 Y1.05 E68.3100
G1 X-10.84 Y.67 E68.3240
G1 X-10.89 Y.32 E68.3368
G1 X-10.89 Y.06 E68.3463
G1 X-11.30 Y-.05 E68.3463 F300
G1 X-11.28 Y-.44 E68.3604 F2400
G1 X-11.22 Y-.85 E68.3754
G1 X-11.14 Y-1.21 E68.3888
G1 X-11.02 Y-1.61 E68.4039
G1 X-10.87 Y-1.98 E68.4184
G1 X-10.70 Y-2.31 E68.4319
G1 X-10.49 Y-2.67 E68.4470
G1 X-10.26 Y-2.98 E68.4610
G1 X-10.00 Y-3.29 E68.4757
G1 X-9.71 Y-3.56 E68.4900
G1 X-9.41 Y-3.82 E68.5044
G1 X-9.09 Y-4.04 E68.5185
G1 X-8.75 Y-4.24 E68.5328
G1 X-8.38 Y-4.41 E68.5476
G1 X-8.01 Y-4.55 E68.5619
G1 X-7.64 Y-4.66 E68.5759
G1 X-7.23 Y-4.74 E68.5910
G1 X-6.49 Y-4.80 E68.6179
G1 X-.10 Y-4.80 E68.8496
G1 X2.90 Y-1.05 E69.0237
G1 X8.61 Y-1.05 E69.2307
G1 X8.61 Y1.05 E69.3069
G1 X2.90 Y1.05 E69.5139
G1 X-.10 Y4.80 E69.6880
G1 X-6.49 Y4.80 E69.9196
G1 X-6.94 Y4.78 E69.9360
G1 X-7.34 Y4.72 E69.9506
G1 X-7.72 Y4.64 E69.9647
G1 X-8.11 Y4.52 E69.9795
G1 X-8.48 Y4.37 E69.9940
G1 X-8.82 Y4.20 E70.0078
G1 X-9.17 Y3.99 E70.0225
G1 X-9.48 Y3.76 E70.0365
G1 X-9.79 Y3.50 E70.0512
G1 X-10.06 Y3.21 E70.0656
G1 X-10.32 Y2.90 E70.0803
G1 X-10.54 Y2.59 E70.0940
G1 X-10.74 Y2.24 E70.1087
G1 X-10.91 Y1.88 E70.1231
G1 X-11.06 Y1.50 E70.1379
G1 X-11.16 Y1.14 E70.1514
G1 X-11.24 Y.73 E70.1666
G1 X-11.28 Y.35 E70.1804
G1 X-11.29 Y.05 E70.1913
G1 X-10.89 Y.05 E70.1961 F300
;infill
G1 E68.8961 F1800
G1 X-9.76 Y2.09 F7200
G1 E70.1961 F1800
G1 X-9.76 Y2.09 F7200
G1 X-9.88 Y2.21 E70.2023 F3360
G1 X-9.73 Y2.45 E70.2126
G1 X-9.65 Y2.54 E70.2169
G1 X-9.37 Y2.26 E70.2313
G1 X-9.04 Y2.39 E70.2441
G1 X-8.94 Y2.40 E70.2478
G1 X-9.38 Y2.84 E70.2703
G1 X-9.29 Y2.95 E70.2755
G1 X-9.08 Y3.11 E70.2851
G1 X-8.40 Y2.43 E70.3199
G1 X-8.28 Y2.44 E70.3243
